;FLAVOR:Marlin
;TIME:9633
;Filament used: 4.85473m
;Layer height: 0.13125
;MINX:20.469
;MINY:35.168
;MINZ:0.263
;MAXX:105.799
;MAXY:86.498
;MAXZ:22.664
;Generated with Cura_SteamEngine 4.6.2
M140 S55
M105
M190 S55
M104 S195
M105
M109 S195
M82 ;absolute extrusion mode
G21;(metric values)
G90;(absolute positioning)
M82;(set extruder to absolute mode)
M107;(start with the fan off)
G28;(Home the printer)
G92 E0;(Reset the extruder to 0)
G0 Z5 E5 F500;(Move up and prime the nozzle)
G0 X-1 Z0;(Move outside the printable area)
G1 Y60 E8 F500;(Draw a priming/wiping line to the rear)
G1 X-1;(Move a little closer to the print area)
G1 Y10 E16 F500;(draw more priming/wiping)
G1 E15 F250;(Small retract)
G92 E0;(Zero the extruder)
G92 E0
G92 E0
G1 F2400 E-2.5
;LAYER_COUNT:172
;LAYER:0
M107
;MESH:untitled-Cube_002.stl
G0 F4320 X56.505 Y37.023 Z0.263
;TYPE:WALL-INNER
G1 F2400 E0
G1 F1800 X56.617 Y37.579 E0.02171
G1 X56.622 Y38.083 E0.04099
G1 X56.622 Y84.071 E1.80095
G1 X56.515 Y84.619 E1.82232
G1 X56.338 Y84.871 E1.83411
G1 X56.129 Y84.951 E1.84267
G1 X22.509 Y84.958 E3.12931
G1 X22.304 Y84.883 E3.13766
G1 X22.125 Y84.643 E3.14912
G1 X22.013 Y84.089 E3.17075
G1 X22.008 Y82.987 E3.21292
G1 X22.008 Y37.595 E4.95007
G1 X22.115 Y37.047 E4.97144
G1 X22.292 Y36.795 E4.98322
G1 X22.501 Y36.715 E4.99179
G1 X55.944 Y36.708 E6.27165
G0 F1620 X56.121 Y36.708
G0 X56.326 Y36.783
G0 X56.505 Y37.023
G0 F4320 X56.832 Y36.876
G1 F1800 X56.967 Y37.542 E6.29766
G1 X56.972 Y38.083 E6.31836
G1 X56.972 Y84.107 E8.0797
G1 X56.845 Y84.759 E8.10512
G1 X56.562 Y85.16 E8.1239
G1 X56.195 Y85.301 E8.13895
G1 X22.446 Y85.308 E9.43052
G1 X22.086 Y85.176 E9.44519
G1 X21.798 Y84.79 E9.46362
G1 X21.663 Y84.125 E9.48959
G1 X21.658 Y82.987 E9.53315
G1 X21.658 Y37.559 E11.27167
G1 X21.785 Y36.907 E11.29709
G1 X22.068 Y36.506 E11.31588
G1 X22.435 Y36.365 E11.33092
G1 X56.184 Y36.358 E12.62249
G1 X56.344 Y36.417 E12.62902
G0 F1620 X56.544 Y36.49
G0 X56.832 Y36.876
G0 F4320 X57.135 Y36.739
;TYPE:WALL-OUTER
G1 F1800 X57.292 Y37.51 E12.65913
G1 X57.297 Y38.083 E12.68106
G1 X57.297 Y84.138 E14.44358
G1 X57.151 Y84.89 E14.4729
G1 X56.77 Y85.428 E14.49813
G1 X56.255 Y85.626 E14.51925
G1 X22.389 Y85.633 E15.8153
G1 X21.883 Y85.448 E15.83591
G1 X21.495 Y84.927 E15.86077
G1 X21.338 Y84.156 E15.89089
G1 X21.333 Y82.987 E15.93562
G1 X21.333 Y37.528 E17.67534
G1 X21.479 Y36.776 E17.70465
G1 X21.86 Y36.238 E17.72988
G1 X22.375 Y36.04 E17.751
G1 X56.241 Y36.033 E19.04705
G1 X56.705 Y36.203 E19.06596
G0 F1620 X56.747 Y36.218
G0 X57.135 Y36.739
G0 F4320 X57.174 Y36.935
G0 X56.905 Y36.988
G0 X56.185 Y37.163
;TYPE:SKIN
G1 F1800 X56.277 Y37.619 E19.08376
G1 X56.282 Y38.083 E19.10152
G1 X56.282 Y84.035 E20.8601
G1 X56.195 Y84.483 E20.87757
G1 X56.119 Y84.591 E20.88262
G1 X56.067 Y84.611 E20.88475
G1 X22.569 Y84.618 E22.16672
G1 X22.516 Y84.599 E22.16887
G1 X22.444 Y84.502 E22.1735
G1 X22.353 Y84.051 E22.1911
G1 X22.348 Y82.985 E22.2319
G1 X22.348 Y37.631 E23.9676
G1 X22.435 Y37.183 E23.98506
G1 X22.511 Y37.075 E23.99011
G1 X22.563 Y37.055 E23.99225
G1 X55.542 Y37.048 E25.25435
G0 F1620 X56.061 Y37.048
G0 X56.113 Y37.067
G0 X56.185 Y37.163
G0 F4320 X55.519 Y37.205
G1 F1800 X56.121 Y37.807 E25.28693
G0 F4320 X56.125 Y38.306
G1 F1800 X55.024 Y37.205 E25.34652
G0 F4320 X54.529 Y37.205
G1 F1800 X56.125 Y38.801 E25.4329
G0 F4320 X56.125 Y39.296
G1 F1800 X54.034 Y37.205 E25.54607
G0 F4320 X53.54 Y37.205
G1 F1800 X56.125 Y39.791 E25.686
G0 F4320 X56.125 Y40.285
G1 F1800 X53.045 Y37.205 E25.8527
G0 F4320 X52.55 Y37.205
G1 F1800 X56.125 Y40.78 E26.04618
G0 F4320 X56.125 Y41.275
G1 F1800 X52.055 Y37.206 E26.26643
G0 F4320 X51.56 Y37.206
G1 F1800 X56.125 Y41.77 E26.51347
G0 F4320 X56.125 Y42.265
G1 F1800 X51.065 Y37.206 E26.7873
G0 F4320 X50.57 Y37.206
G1 F1800 X56.125 Y42.76 E27.08792
G0 F4320 X56.125 Y43.255
G1 F1800 X50.075 Y37.206 E27.41533
G0 F4320 X49.58 Y37.206
G1 F1800 X56.125 Y43.75 E27.76953
G0 F4320 X56.125 Y44.245
G1 F1800 X49.085 Y37.206 E28.15052
G0 F4320 X48.591 Y37.207
G1 F1800 X56.125 Y44.74 E28.55825
G0 F4320 X56.125 Y45.235
G1 F1800 X48.096 Y37.207 E28.99277
G0 F4320 X47.601 Y37.207
G1 F1800 X56.125 Y45.73 E29.45407
G0 F4320 X56.125 Y46.225
G1 F1800 X47.106 Y37.207 E29.94217
G0 F4320 X46.611 Y37.207
G1 F1800 X56.125 Y46.72 E30.45706
G0 F4320 X56.125 Y47.215
G1 F1800 X46.116 Y37.207 E30.99874
G0 F4320 X45.621 Y37.207
G1 F1800 X56.125 Y47.71 E31.56721
G0 F4320 X56.125 Y48.205
G1 F1800 X45.126 Y37.207 E32.16247
G0 F4320 X44.632 Y37.207
G1 F1800 X56.125 Y48.7 E32.78449
G0 F4320 X56.125 Y49.195
G1 F1800 X44.137 Y37.207 E33.4333
G0 F4320 X43.642 Y37.207
G1 F1800 X56.125 Y49.69 E34.10891
G0 F4320 X56.125 Y50.185
G1 F1800 X43.147 Y37.207 E34.8113
G0 F4320 X42.652 Y37.207
G1 F1800 X56.125 Y50.68 E35.54048
G0 F4320 X56.125 Y51.175
G1 F1800 X42.157 Y37.207 E36.29646
G0 F4320 X41.662 Y37.207
G1 F1800 X56.125 Y51.67 E37.07922
G0 F4320 X56.125 Y52.165
G1 F1800 X41.168 Y37.208 E37.88872
G0 F4320 X40.673 Y37.208
G1 F1800 X56.125 Y52.66 E38.72501
G0 F4320 X56.125 Y53.155
G1 F1800 X40.178 Y37.208 E39.5881
G0 F4320 X39.683 Y37.208
G1 F1800 X56.125 Y53.65 E40.47797
G0 F4320 X56.125 Y54.145
G1 F1800 X39.188 Y37.208 E41.39463
G0 F4320 X38.693 Y37.208
G1 F1800 X56.125 Y54.64 E42.33808
G0 F4320 X56.125 Y55.135
G1 F1800 X38.198 Y37.208 E43.30833
G0 F4320 X37.703 Y37.208
G1 F1800 X56.125 Y55.63 E44.30536
G0 F4320 X56.125 Y56.125
G1 F1800 X37.209 Y37.209 E45.32913
G0 F4320 X36.714 Y37.209
G1 F1800 X56.125 Y56.62 E46.37969
G0 F4320 X56.125 Y57.115
G1 F1800 X36.219 Y37.209 E47.45704
G0 F4320 X35.724 Y37.209
G1 F1800 X56.125 Y57.61 E48.56118
G0 F4320 X56.125 Y58.105
G1 F1800 X35.229 Y37.209 E49.69211
G0 F4320 X34.734 Y37.209
G1 F1800 X56.125 Y58.6 E50.84983
G0 F4320 X56.125 Y59.095
G1 F1800 X34.239 Y37.209 E52.03434
G0 F4320 X33.744 Y37.209
G1 F1800 X56.125 Y59.59 E53.24564
G0 F4320 X56.125 Y60.084
G1 F1800 X33.25 Y37.21 E54.48365
G0 F4320 X32.755 Y37.21
G1 F1800 X56.125 Y60.579 E55.74845
G0 F4320 X56.125 Y61.074
G1 F1800 X32.26 Y37.21 E57.04005
G0 F4320 X31.765 Y37.21
G1 F1800 X56.125 Y61.569 E58.35843
G0 F4320 X56.125 Y62.064
G1 F1800 X31.27 Y37.21 E59.7036
G0 F4320 X30.775 Y37.21
G1 F1800 X56.125 Y62.559 E61.07556
G0 F4320 X56.125 Y63.054
G1 F1800 X30.28 Y37.21 E62.47431
G0 F4320 X29.786 Y37.21
G1 F1800 X56.125 Y63.549 E63.89983
G0 F4320 X56.125 Y64.044
G1 F1800 X29.291 Y37.21 E65.35214
G0 F4320 X28.796 Y37.21
G1 F1800 X56.125 Y64.539 E66.83123
G0 F4320 X56.125 Y65.034
G1 F1800 X28.301 Y37.21 E68.33712
G0 F4320 X27.806 Y37.21
G1 F1800 X56.125 Y65.529 E69.8698
G0 F4320 X56.125 Y66.024
G1 F1800 X27.311 Y37.21 E71.42927
G0 F4320 X26.816 Y37.21
G1 F1800 X56.125 Y66.519 E73.01552
G0 F4320 X56.125 Y67.014
G1 F1800 X26.321 Y37.21 E74.62857
G0 F4320 X25.827 Y37.211
G1 F1800 X56.125 Y67.509 E76.26836
G0 F4320 X56.125 Y68.004
G1 F1800 X25.332 Y37.211 E77.93493
G0 F4320 X24.837 Y37.211
G1 F1800 X56.125 Y68.499 E79.6283
G0 F4320 X56.125 Y68.994
G1 F1800 X24.342 Y37.211 E81.34845
G0 F4320 X23.847 Y37.211
G1 F1800 X56.125 Y69.489 E83.0954
G0 F4320 X56.125 Y69.984
G1 F1800 X23.352 Y37.211 E84.86913
G0 F4320 X22.857 Y37.211
G1 F1800 X56.125 Y70.479 E86.66966
G0 F4320 X56.125 Y70.974
G1 F1800 X22.551 Y37.4 E88.48675
G0 F4320 X22.504 Y37.848
G1 F1800 X56.125 Y71.469 E90.30638
G0 F4320 X56.125 Y71.964
G1 F1800 X22.504 Y38.343 E92.12601
G0 F4320 X22.504 Y38.838
G1 F1800 X56.125 Y72.459 E93.94564
G0 F4320 X56.125 Y72.954
G1 F1800 X22.504 Y39.333 E95.76527
G0 F4320 X22.504 Y39.828
G1 F1800 X56.125 Y73.449 E97.5849
G0 F4320 X56.125 Y73.944
G1 F1800 X22.504 Y40.323 E99.40454
G0 F4320 X22.504 Y40.818
G1 F1800 X56.125 Y74.439 E101.22417
G0 F4320 X56.125 Y74.934
G1 F1800 X22.504 Y41.313 E103.0438
G0 F4320 X22.504 Y41.808
G1 F1800 X56.125 Y75.429 E104.86343
G0 F4320 X56.125 Y75.924
G1 F1800 X22.504 Y42.303 E106.68306
G0 F4320 X22.504 Y42.798
G1 F1800 X56.125 Y76.419 E108.50269
G0 F4320 X56.125 Y76.914
G1 F1800 X22.504 Y43.293 E110.32232
G0 F4320 X22.504 Y43.788
G1 F1800 X56.125 Y77.409 E112.14196
G0 F4320 X56.125 Y77.904
G1 F1800 X22.504 Y44.283 E113.96159
G0 F4320 X22.504 Y44.778
G1 F1800 X56.125 Y78.399 E115.78122
G0 F4320 X56.125 Y78.894
G1 F1800 X22.504 Y45.273 E117.60085
G0 F4320 X22.504 Y45.768
G1 F1800 X56.125 Y79.388 E119.42046
G0 F4320 X56.125 Y79.883
G1 F1800 X22.504 Y46.263 E121.24006
G0 F4320 X22.504 Y46.758
G1 F1800 X56.125 Y80.378 E123.05966
G0 F4320 X56.125 Y80.873
G1 F1800 X22.504 Y47.253 E124.87927
G0 F4320 X22.504 Y47.748
G1 F1800 X56.125 Y81.368 E126.69887
G0 F4320 X56.125 Y81.863
G1 F1800 X22.504 Y48.243 E128.51848
G0 F4320 X22.504 Y48.738
G1 F1800 X56.125 Y82.358 E130.33808
G0 F4320 X56.125 Y82.853
G1 F1800 X22.504 Y49.233 E132.15769
G0 F4320 X22.504 Y49.727
G1 F1800 X56.125 Y83.348 E133.97732
G0 F4320 X56.125 Y83.843
G1 F1800 X22.504 Y50.222 E135.79695
G0 F4320 X22.504 Y50.717
G1 F1800 X56.073 Y84.287 E137.61379
G0 F4320 X55.744 Y84.453
G1 F1800 X22.504 Y51.212 E139.41283
G0 F4320 X22.504 Y51.707
G1 F1800 X55.249 Y84.453 E141.18508
G0 F4320 X54.754 Y84.453
G1 F1800 X22.504 Y52.202 E142.93054
G0 F4320 X22.504 Y52.697
G1 F1800 X54.259 Y84.453 E144.6492
G0 F4320 X53.764 Y84.453
G1 F1800 X22.504 Y53.192 E146.34108
G0 F4320 X22.504 Y53.687
G1 F1800 X53.269 Y84.453 E148.00617
G0 F4320 X52.774 Y84.453
G1 F1800 X22.504 Y54.182 E149.64446
G0 F4320 X22.504 Y54.677
G1 F1800 X52.28 Y84.454 E151.25602
G0 F4320 X51.785 Y84.454
G1 F1800 X22.504 Y55.172 E152.84079
G0 F4320 X22.504 Y55.667
G1 F1800 X51.29 Y84.454 E154.39877
G0 F4320 X50.795 Y84.454
G1 F1800 X22.504 Y56.162 E155.92996
G0 F4320 X22.504 Y56.657
G1 F1800 X50.3 Y84.454 E157.43436
G0 F4320 X49.805 Y84.454
G1 F1800 X22.504 Y57.152 E158.91197
G0 F4320 X22.504 Y57.647
G1 F1800 X49.31 Y84.454 E160.36279
G0 F4320 X48.815 Y84.454
G1 F1800 X22.504 Y58.142 E161.78681
G0 F4320 X22.504 Y58.637
G1 F1800 X48.321 Y84.454 E163.18408
G0 F4320 X47.826 Y84.454
G1 F1800 X22.504 Y59.132 E164.55455
G0 F4320 X22.504 Y59.627
G1 F1800 X47.331 Y84.454 E165.89824
G0 F4320 X46.836 Y84.454
G1 F1800 X22.504 Y60.122 E167.21513
G0 F4320 X22.504 Y60.617
G1 F1800 X46.341 Y84.454 E168.50523
G0 F4320 X45.846 Y84.454
G1 F1800 X22.504 Y61.112 E169.76854
G0 F4320 X22.504 Y61.607
G1 F1800 X45.351 Y84.454 E171.00507
G0 F4320 X44.857 Y84.455
G1 F1800 X22.504 Y62.102 E172.21485
G0 F4320 X22.504 Y62.597
G1 F1800 X44.362 Y84.455 E173.39785
G0 F4320 X43.867 Y84.455
G1 F1800 X22.504 Y63.092 E174.55405
G0 F4320 X22.504 Y63.587
G1 F1800 X43.372 Y84.455 E175.68347
G0 F4320 X42.877 Y84.455
G1 F1800 X22.504 Y64.082 E176.78609
G0 F4320 X22.504 Y64.577
G1 F1800 X42.382 Y84.455 E177.86193
G0 F4320 X41.887 Y84.455
G1 F1800 X22.504 Y65.072 E178.91097
G0 F4320 X22.504 Y65.567
G1 F1800 X41.392 Y84.455 E179.93323
G0 F4320 X40.898 Y84.456
G1 F1800 X22.504 Y66.062 E180.92875
G0 F4320 X22.504 Y66.557
G1 F1800 X40.403 Y84.456 E181.89747
G0 F4320 X39.908 Y84.456
G1 F1800 X22.504 Y67.052 E182.83941
G0 F4320 X22.504 Y67.547
G1 F1800 X39.413 Y84.456 E183.75456
G0 F4320 X38.918 Y84.456
G1 F1800 X22.504 Y68.042 E184.64291
G0 F4320 X22.504 Y68.537
G1 F1800 X38.423 Y84.456 E185.50448
G0 F4320 X37.928 Y84.456
G1 F1800 X22.504 Y69.032 E186.33925
G0 F4320 X22.504 Y69.526
G1 F1800 X37.434 Y84.456 E187.14729
G0 F4320 X36.939 Y84.456
G1 F1800 X22.504 Y70.021 E187.92854
G0 F4320 X22.504 Y70.516
G1 F1800 X36.444 Y84.456 E188.683
G0 F4320 X35.949 Y84.456
G1 F1800 X22.504 Y71.011 E189.41067
G0 F4320 X22.504 Y71.506
G1 F1800 X35.454 Y84.456 E190.11155
G0 F4320 X34.959 Y84.456
G1 F1800 X22.504 Y72.001 E190.78564
G0 F4320 X22.504 Y72.496
G1 F1800 X34.464 Y84.456 E191.43293
G0 F4320 X33.969 Y84.456
G1 F1800 X22.504 Y72.991 E192.05344
G0 F4320 X22.504 Y73.486
G1 F1800 X33.475 Y84.457 E192.64721
G0 F4320 X32.98 Y84.457
G1 F1800 X22.504 Y73.981 E193.21419
G0 F4320 X22.504 Y74.476
G1 F1800 X32.485 Y84.457 E193.75438
G0 F4320 X31.99 Y84.457
G1 F1800 X22.504 Y74.971 E194.26778
G0 F4320 X22.504 Y75.466
G1 F1800 X31.495 Y84.457 E194.75439
G0 F4320 X31 Y84.457
G1 F1800 X22.504 Y75.961 E195.21421
G0 F4320 X22.504 Y76.456
G1 F1800 X30.505 Y84.457 E195.64724
G0 F4320 X30.011 Y84.458
G1 F1800 X22.504 Y76.951 E196.05354
G0 F4320 X22.504 Y77.446
G1 F1800 X29.516 Y84.458 E196.43304
G0 F4320 X29.021 Y84.458
G1 F1800 X22.504 Y77.941 E196.78575
G0 F4320 X22.504 Y78.436
G1 F1800 X28.526 Y84.458 E197.11167
G0 F4320 X28.031 Y84.458
G1 F1800 X22.504 Y78.931 E197.4108
G0 F4320 X22.504 Y79.426
G1 F1800 X27.536 Y84.458 E197.68315
G0 F4320 X27.041 Y84.458
G1 F1800 X22.504 Y79.921 E197.9287
G0 F4320 X22.504 Y80.416
G1 F1800 X26.546 Y84.458 E198.14746
G0 F4320 X26.051 Y84.458
G1 F1800 X22.504 Y80.911 E198.33943
G0 F4320 X22.504 Y81.406
G1 F1800 X25.556 Y84.458 E198.50461
G0 F4320 X25.061 Y84.458
G1 F1800 X22.504 Y81.901 E198.643
G0 F4320 X22.504 Y82.396
G1 F1800 X24.567 Y84.458 E198.75462
G0 F4320 X24.072 Y84.458
G1 F1800 X22.504 Y82.891 E198.83946
G0 F4320 X22.506 Y83.388
G1 F1800 X23.577 Y84.458 E198.8974
G0 F4320 X23.082 Y84.458
G1 F1800 X22.508 Y83.885 E198.92844
G1 X22.446 Y83.823
G0 F4320 X21.862 Y83.826
G1 F2400 E196.42844
;MESH:untitled-Cube.stl
G0 F4320 X22.396 Y84.76
G0 X56.101 Y84.805
G0 X57.102 Y83.682
G0 X58.162 Y83.682
G0 X69.166 Y83.683
G0 X70.206 Y83.682
G0 X70.706 Y83.682
;TYPE:WALL-INNER
G1 F2400 E198.92844
G1 F1800 X70.705 Y36.144 E200.74771
G1 X104.754 Y36.143 E202.05077
G1 X104.929 Y36.143 E202.05746
G1 X104.929 Y36.318 E202.0618
G1 X104.93 Y83.856 E203.88107
G1 X70.881 Y83.857 E205.18413
G1 X70.706 Y83.857 E205.19082
G1 X70.706 Y83.682 E205.19516
G0 F4320 X104.773 Y83.699
G0 X105.279 Y36.036
G1 F1800 X105.28 Y84.046 E207.0325
G1 X105.233 Y84.206 E207.03888
G1 X70.493 Y84.207 E208.36838
G1 X70.389 Y84.207 E208.37236
G1 X70.383 Y84.188 E208.37312
G1 X70.356 Y84.068 E208.37783
G1 X70.356 Y83.964 E208.38181
G1 X70.355 Y35.954 E210.21915
G1 X70.402 Y35.794 E210.22553
G1 X104.798 Y35.793 E211.54186
G0 F1620 X105.142 Y35.793
G0 X105.246 Y35.793
G0 X105.252 Y35.812
G0 X105.279 Y35.932
G0 X105.279 Y36.036
G0 F4320 X105.565 Y35.722
;TYPE:WALL-OUTER
G1 F1800 X105.604 Y35.898 E211.54876
G1 X105.605 Y84.093 E213.39318
G1 X105.5 Y84.452 E213.4075
G1 X105.319 Y84.531 E213.41505
G1 X70.315 Y84.532 E214.75465
G1 X70.13 Y84.451 E214.76238
G1 X70.07 Y84.278 E214.76939
G1 X70.031 Y84.102 E214.77629
G1 X70.03 Y35.907 E216.62071
G1 X70.135 Y35.548 E216.63502
G1 X70.316 Y35.469 E216.64258
G1 X105.01 Y35.468 E217.97032
G0 F1620 X105.32 Y35.468
G0 X105.505 Y35.549
G0 X105.565 Y35.722
G0 F4320 X105.604 Y35.898
G0 X105.604 Y35.918
G0 X105.33 Y35.928
G0 X104.589 Y36.228
G0 X104.589 Y36.483
;TYPE:SKIN
G1 F1800 X104.59 Y83.516 E219.77027
G1 X71.046 Y83.517 E221.054
G1 X71.045 Y36.484 E222.85395
G1 X103.895 Y36.483 E224.11111
G0 F1620 X104.589 Y36.483
G0 F4320 X104.431 Y37.115
G1 F1800 X103.956 Y36.64 E224.13682
G0 F4320 X103.461 Y36.64
G1 F1800 X104.431 Y37.61 E224.18932
G0 F4320 X104.431 Y38.105
G1 F1800 X102.966 Y36.64 E224.26861
G0 F4320 X102.471 Y36.64
G1 F1800 X104.431 Y38.6 E224.37469
G0 F4320 X104.431 Y39.095
G1 F1800 X101.976 Y36.64 E224.50756
G0 F4320 X101.481 Y36.64
G1 F1800 X104.431 Y39.59 E224.66722
G0 F4320 X104.431 Y40.085
G1 F1800 X100.986 Y36.64 E224.85367
G0 F4320 X100.491 Y36.64
G1 F1800 X104.431 Y40.58 E225.06691
G0 F4320 X104.431 Y41.075
G1 F1800 X99.996 Y36.64 E225.30694
G0 F4320 X99.501 Y36.64
G1 F1800 X104.431 Y41.57 E225.57376
G0 F4320 X104.431 Y42.065
G1 F1800 X99.006 Y36.64 E225.86737
G0 F4320 X98.511 Y36.64
G1 F1800 X104.431 Y42.56 E226.18777
G0 F4320 X104.431 Y43.055
G1 F1800 X98.017 Y36.64 E226.53494
G0 F4320 X97.522 Y36.64
G1 F1800 X104.431 Y43.549 E226.90886
G0 F4320 X104.431 Y44.044
G1 F1800 X97.027 Y36.64 E227.30958
G0 F4320 X96.532 Y36.64
G1 F1800 X104.431 Y44.539 E227.73709
G0 F4320 X104.431 Y45.034
G1 F1800 X96.037 Y36.64 E228.19139
G0 F4320 X95.542 Y36.64
G1 F1800 X104.431 Y45.529 E228.67248
G0 F4320 X104.431 Y46.024
G1 F1800 X95.047 Y36.64 E229.18036
G0 F4320 X94.552 Y36.64
G1 F1800 X104.431 Y46.519 E229.71503
G0 F4320 X104.431 Y47.014
G1 F1800 X94.057 Y36.64 E230.27649
G0 F4320 X93.562 Y36.64
G1 F1800 X104.431 Y47.509 E230.86474
G0 F4320 X104.431 Y48.004
G1 F1800 X93.067 Y36.64 E231.47978
G0 F4320 X92.572 Y36.64
