;FLAVOR:Marlin
;TIME:604
;Filament used: 0.382968m
;Layer height: 0.21875
;MINX:46.835
;MINY:44.335
;MINZ:0.263
;MAXX:73.165
;MAXY:75.665
;MAXZ:1.796
;Generated with Cura_SteamEngine 4.6.2
M140 S55
M105
M190 S55
M104 S195
M105
M109 S195
M82 ;absolute extrusion mode
G21;(metric values)
G90;(absolute positioning)
M82;(set extruder to absolute mode)
M107;(start with the fan off)
G28;(Home the printer)
G92 E0;(Reset the extruder to 0)
G0 Z5 E5 F500;(Move up and prime the nozzle)
G0 X-1 Z0;(Move outside the printable area)
G1 Y60 E8 F500;(Draw a priming/wiping line to the rear)
G1 X-1;(Move a little closer to the print area)
G1 Y10 E16 F500;(draw more priming/wiping)
G1 E15 F250;(Small retract)
G92 E0;(Zero the extruder)
G92 E0
G92 E0
G1 F2400 E-2.5
;LAYER_COUNT:8
;LAYER:0
M107
;MESH:prueba_espacios_led_switch.stl
G0 F4320 X60.765 Y53.341 Z0.263
;TYPE:WALL-INNER
G1 F2400 E0
G1 F1800 X61.543 Y53.06 E0.03166
G1 X62.23 Y52.603 E0.06323
G1 X62.789 Y51.992 E0.09493
G1 X63.183 Y51.266 E0.12654
G1 X63.393 Y50.468 E0.15812
G1 X63.408 Y49.643 E0.1897
G1 X63.225 Y48.838 E0.22129
G1 X62.852 Y48.098 E0.253
G1 X62.314 Y47.471 E0.28462
G1 X61.641 Y46.992 E0.31623
G1 X60.873 Y46.686 E0.34787
G1 X60.055 Y46.576 E0.37946
G1 X59.235 Y46.659 E0.411
G1 X58.457 Y46.94 E0.44266
G1 X57.77 Y47.397 E0.47423
G1 X57.211 Y48.008 E0.50593
G1 X56.817 Y48.734 E0.53754
G1 X56.607 Y49.532 E0.56912
G1 X56.592 Y50.357 E0.6007
G1 X56.775 Y51.162 E0.63229
G1 X57.148 Y51.902 E0.664
G1 X57.686 Y52.529 E0.69562
G1 X58.359 Y53.008 E0.72723
G1 X59.127 Y53.314 E0.75887
G1 X59.945 Y53.424 E0.79046
G1 X60.075 Y53.41 E0.79546
G0 F1620 X60.765 Y53.341
G1 F2400 E-1.70454
G0 F4320 X59.942 Y53.591
G0 X59.942 Y56.96
G0 X50.047 Y57.597
G0 X49.575 Y70.375
G1 F2400 E0.79546
G1 F1800 X70.425 Y70.375 E1.59339
G1 X70.425 Y57.125 E2.10047
G1 X49.575 Y57.125 E2.8984
G1 X49.575 Y69.681 E3.37891
G0 F1620 X49.575 Y70.375
G1 F2400 E0.87891
G0 F4320 X48.56 Y70.546
G0 X48.375 Y74.125
G1 F2400 E3.37891
G1 F1800 X48.375 Y45.875 E4.46004
G1 X71.625 Y45.875 E5.34982
G1 X71.625 Y74.125 E6.43094
G1 X49.069 Y74.125 E7.29416
G0 F1620 X48.375 Y74.125
G0 F4320 X48.025 Y74.475
G1 F1800 X48.025 Y45.525 E8.40207
G1 X71.975 Y45.525 E9.31864
G1 X71.975 Y74.475 E10.42655
G1 X48.719 Y74.475 E11.31656
G0 F1620 X48.025 Y74.475
G1 F2400 E8.81656
G0 F4320 X48.56 Y70.025
G0 X49.41 Y70.025
G0 X49.925 Y70.025
G1 F2400 E11.31656
G1 F1800 X70.075 Y70.025 E12.0877
G1 X70.075 Y57.475 E12.56799
G1 X49.925 Y57.475 E13.33913
G1 X49.925 Y69.331 E13.79285
G0 F1620 X49.925 Y70.025
G1 F2400 E11.29285
G0 F4320 X50.047 Y57.597
G0 X59.217 Y56.96
G0 X59.217 Y58.665
G0 X59.905 Y51.866
G0 X59.676 Y53.555
G0 X59.217 Y52.973
G1 F2400 E13.79285
G1 F1800 X59.951 Y53.072 E13.8212
G1 X60.687 Y52.997 E13.84951
G1 X61.384 Y52.745 E13.87787
G1 X62.001 Y52.335 E13.90623
G1 X62.502 Y51.787 E13.93464
G1 X62.855 Y51.136 E13.96298
G1 X63.044 Y50.42 E13.99132
G1 X63.057 Y49.679 E14.01968
G1 X62.893 Y48.957 E14.04802
G1 X62.559 Y48.294 E14.07643
G1 X62.076 Y47.731 E14.10482
G1 X61.472 Y47.302 E14.13317
G1 X60.783 Y47.027 E14.16156
G1 X60.049 Y46.928 E14.1899
G1 X59.313 Y47.003 E14.21822
G1 X58.616 Y47.255 E14.24658
G1 X57.999 Y47.665 E14.27493
G1 X57.498 Y48.213 E14.30335
G1 X57.145 Y48.864 E14.33169
G1 X56.956 Y49.58 E14.36003
G1 X56.943 Y50.321 E14.38839
G1 X57.107 Y51.043 E14.41672
G1 X57.441 Y51.706 E14.44514
G1 X57.924 Y52.269 E14.47352
G1 X58.528 Y52.698 E14.50188
G1 X58.572 Y52.716 E14.5037
G0 F1620 X59.217 Y52.973
G0 F4320 X60.707 Y52.937
G0 X60.614 Y52.678
;TYPE:WALL-OUTER
G1 F1800 X61.237 Y52.453 E14.52905
G1 X61.788 Y52.086 E14.55438
G1 X62.235 Y51.597 E14.57974
G1 X62.551 Y51.015 E14.60508
G1 X62.72 Y50.375 E14.63041
G1 X62.731 Y49.713 E14.65575
G1 X62.585 Y49.068 E14.68106
G1 X62.287 Y48.476 E14.70642
G1 X61.855 Y47.973 E14.7318
G1 X61.315 Y47.589 E14.75716
G1 X60.7 Y47.344 E14.78249
G1 X60.044 Y47.255 E14.80783
G1 X59.386 Y47.322 E14.83314
G1 X58.763 Y47.547 E14.85849
G1 X58.212 Y47.914 E14.88382
G1 X57.765 Y48.403 E14.90918
G1 X57.449 Y48.985 E14.93452
G1 X57.28 Y49.625 E14.95985
G1 X57.269 Y50.287 E14.98519
G1 X57.415 Y50.932 E15.0105
G1 X57.713 Y51.524 E15.03587
G1 X58.145 Y52.027 E15.06124
G1 X58.685 Y52.411 E15.0866
G1 X59.3 Y52.656 E15.11193
G1 X59.924 Y52.741 E15.13603
G0 F1620 X59.956 Y52.745
G0 X60.614 Y52.678
G0 F4320 X60.802 Y52.611
G1 F2400 E12.63603
G0 F4320 X60.895 Y52.869
G0 X59.942 Y53.591
G0 X59.942 Y56.96
G0 X50.047 Y57.597
G0 X49.975 Y69.7
G0 X50.25 Y69.7
G1 F2400 E15.13603
G1 F1800 X69.75 Y69.7 E15.8823
G1 X69.75 Y57.8 E16.33771
G1 X50.25 Y57.8 E17.08397
G1 X50.25 Y69.006 E17.51283
G0 F1620 X50.25 Y69.7
G0 F4320 X50.45 Y69.7
G1 F2400 E15.01283
G0 F4320 X50.45 Y69.975
G0 X49.404 Y70.546
G0 X48.56 Y70.546
G0 X47.975 Y74.555
G0 X47.7 Y74.8
G1 F2400 E17.51283
G1 F1800 X47.7 Y45.2 E18.64562
G1 X72.3 Y45.2 E19.58706
G1 X72.3 Y74.8 E20.71985
G1 X48.394 Y74.8 E21.63473
G0 F1620 X47.7 Y74.8
G0 F4320 X47.7 Y74.6
G0 X47.975 Y74.6
G0 X48.46 Y73.785
G0 X48.715 Y73.785
;TYPE:SKIN
G1 F1800 X48.715 Y46.215 E22.68983
G1 X71.285 Y46.215 E23.55359
G1 X71.285 Y73.785 E24.60869
G1 X49.409 Y73.785 E25.44588
G0 F1620 X48.715 Y73.785
G1 F2400 E22.94588
G0 F4320 X48.46 Y73.785
G0 X48.56 Y70.49
G0 X49.41 Y70.49
G0 X49.235 Y70.715
G1 F2400 E25.44588
G1 F1800 X70.765 Y70.715 E26.26983
G1 X70.765 Y56.785 E26.80293
G1 X49.235 Y56.785 E27.62688
G1 X49.235 Y70.021 E28.13343
G0 F1620 X49.235 Y70.715
G1 F2400 E25.63343
G0 F4320 X49.49 Y70.49
G0 X50.047 Y57.597
G0 X58.318 Y56.96
G0 X58.318 Y58.665
G0 X59.523 Y51.815
G0 X59.085 Y53.475
G0 X58.318 Y53.084
G0 X58.195 Y53.309
G1 F2400 E28.13343
G1 F1800 X59.04 Y53.646 E28.16824
G1 X59.939 Y53.766 E28.20295
G1 X60.841 Y53.675 E28.23765
G1 X61.697 Y53.365 E28.27249
G1 X62.453 Y52.863 E28.30722
G1 X63.068 Y52.19 E28.34211
G1 X63.501 Y51.392 E28.37685
G1 X63.733 Y50.515 E28.41157
G1 X63.748 Y49.608 E28.44628
G1 X63.547 Y48.722 E28.48105
G1 X63.137 Y47.908 E28.51593
G1 X62.545 Y47.218 E28.55073
G1 X61.805 Y46.691 E28.58549
G1 X60.96 Y46.354 E28.62031
G1 X60.061 Y46.234 E28.65502
G1 X59.159 Y46.325 E28.68971
G1 X58.303 Y46.635 E28.72455
G1 X57.547 Y47.137 E28.75928
G1 X56.932 Y47.81 E28.79417
G1 X56.499 Y48.608 E28.82892
G1 X56.267 Y49.485 E28.86364
G1 X56.252 Y50.392 E28.89835
G1 X56.453 Y51.278 E28.93312
G1 X56.863 Y52.092 E28.968
G1 X57.455 Y52.782 E29.00279
G1 X57.63 Y52.907 E29.01102
G0 F1620 X58.195 Y53.309
G1 F2400 E26.51102
G0 F4320 X58.318 Y53.084
G0 X60.661 Y52.889
G0 X61.334 Y52.645
G0 X61.929 Y52.25
G0 X63.574 Y49.626
G0 X61.866 Y49.801
G0 X73.165 Y49.626
G0 X71.44 Y49.626
G0 X71.54 Y46.874
G0 X71.127 Y46.874
G1 F2400 E29.01102
G1 F1800 X70.625 Y46.372 E29.03819
G0 F4320 X70.13 Y46.372
G1 F1800 X71.127 Y47.369 E29.09215
G0 F4320 X71.127 Y47.864
G1 F1800 X69.635 Y46.372 E29.1729
G0 F4320 X69.14 Y46.372
G1 F1800 X71.127 Y48.359 E29.28044
G0 F4320 X71.127 Y48.854
G1 F1800 X68.645 Y46.372 E29.41477
G0 F4320 X68.15 Y46.372
G1 F1800 X71.127 Y49.348 E29.57587
G0 F4320 X71.127 Y49.843
G1 F1800 X67.655 Y46.372 E29.76375
G0 F4320 X67.161 Y46.372
G1 F1800 X71.127 Y50.338 E29.9784
G0 F4320 X71.127 Y50.833
G1 F1800 X66.666 Y46.372 E30.21984
G0 F4320 X66.171 Y46.372
G1 F1800 X71.127 Y51.328 E30.48806
G0 F4320 X71.127 Y51.823
G1 F1800 X65.676 Y46.372 E30.78308
G0 F4320 X65.181 Y46.372
G1 F1800 X71.127 Y52.318 E31.10489
G0 F4320 X71.127 Y52.813
G1 F1800 X64.686 Y46.372 E31.45349
G0 F4320 X64.191 Y46.372
G1 F1800 X71.127 Y53.308 E31.82888
G0 F4320 X71.127 Y53.803
G1 F1800 X63.696 Y46.372 E32.23106
G0 F4320 X63.201 Y46.372
G1 F1800 X71.127 Y54.298 E32.66003
G0 F4320 X71.127 Y54.793
G1 F1800 X62.706 Y46.372 E33.11579
G0 F4320 X62.211 Y46.372
G1 F1800 X71.127 Y55.288 E33.59834
G0 F4320 X71.127 Y55.783
G1 F1800 X63.373 Y48.029 E34.018
G1 X63.311 Y47.967
G0 F4320 X62.968 Y48.139
G0 X63.346 Y48.988
G0 X63.747 Y48.897
G1 F1800 X71.127 Y56.278 E34.41745
G0 F4320 X71.127 Y56.773
G1 F1800 X63.89 Y49.536 E34.80913
G0 F4320 X63.896 Y50.037
G1 F1800 X70.486 Y56.627 E35.16579
G0 F4320 X69.991 Y56.627
G1 F1800 X63.889 Y50.524 E35.49607
G0 F4320 X63.788 Y50.918
G1 F1800 X69.496 Y56.627 E35.80502
G0 F4320 X69.001 Y56.627
G1 F1800 X63.684 Y51.309 E36.09282
G0 F4320 X63.534 Y51.655
G1 F1800 X68.506 Y56.627 E36.36191
G0 F4320 X68.011 Y56.627
G1 F1800 X63.361 Y51.976 E36.61361
G0 F4320 X63.183 Y52.294
G1 F1800 X67.516 Y56.627 E36.84812
G0 F4320 X67.021 Y56.627
G1 F1800 X62.948 Y52.553 E37.06858
G0 F4320 X62.711 Y52.812
G1 F1800 X66.526 Y56.627 E37.27506
G0 F4320 X66.031 Y56.627
G1 F1800 X62.455 Y53.05 E37.46862
G0 F4320 X62.157 Y53.247
G1 F1800 X65.536 Y56.627 E37.65153
G0 F4320 X65.041 Y56.627
G1 F1800 X61.859 Y53.445 E37.82374
G0 F4320 X61.516 Y53.597
G1 F1800 X64.546 Y56.627 E37.98773
G0 F4320 X64.051 Y56.627
G1 F1800 X61.153 Y53.728 E38.14461
G0 F4320 X60.77 Y53.84
G1 F1800 X63.556 Y56.627 E38.29542
G0 F4320 X63.061 Y56.627
G1 F1800 X60.32 Y53.885 E38.44379
G0 F4320 X59.853 Y53.913
G1 F1800 X62.566 Y56.627 E38.59065
G0 F4320 X62.071 Y56.627
G1 F1800 X59.281 Y53.836 E38.74168
G1 X59.219 Y53.774
G0 F4320 X58.582 Y53.632
G1 F1800 X61.576 Y56.627 E38.90375
G0 F4320 X61.082 Y56.627
G1 F1800 X57.368 Y52.914 E39.10473
G0 F4320 X57.315 Y52.86
G1 F1800 X50.826 Y46.372 E39.4559
G0 F4320 X51.321 Y46.372
G1 F1800 X56.326 Y51.376 E39.72675
G0 F4320 X56.166 Y50.721
G1 F1800 X51.816 Y46.372 E39.96215
G0 F4320 X52.311 Y46.372
G1 F1800 X56.098 Y50.158 E40.16709
G0 F4320 X56.106 Y49.671
G1 F1800 X52.806 Y46.372 E40.34566
G0 F4320 X53.301 Y46.372
G1 F1800 X56.168 Y49.238 E40.5008
G0 F4320 X56.272 Y48.847
G1 F1800 X53.796 Y46.372 E40.63478
G0 F4320 X54.291 Y46.372
G1 F1800 X56.393 Y48.473 E40.74852
G0 F4320 X56.567 Y48.152
G1 F1800 X54.786 Y46.372 E40.84488
G0 F4320 X55.281 Y46.372
G1 F1800 X56.741 Y47.832 E40.9239
G0 F4320 X56.955 Y47.55
G1 F1800 X55.776 Y46.372 E40.98768
G0 F4320 X56.271 Y46.372
G1 F1800 X57.191 Y47.292 E41.03747
G0 F4320 X57.427 Y47.033
G1 F1800 X56.766 Y46.372 E41.07325
G0 F4320 X57.261 Y46.372
G1 F1800 X57.721 Y46.831 E41.09812
G0 F4320 X58.018 Y46.634
G1 F1800 X57.756 Y46.372 E41.1123
G0 F4320 X58.251 Y46.372
G1 F1800 X58.334 Y46.455 E41.11679
G1 F2400 E38.61679
G0 F4320 X58.474 Y46.844
G0 X60.915 Y46.525
G0 X61.716 Y45.96
G0 X61.716 Y46.372
G1 F2400 E41.11679
G1 F1800 X61.935 Y46.591 E41.12864
G1 F2400 E38.62864
G0 F4320 X61.697 Y46.926
G0 X62.788 Y48.995
G0 X62.945 Y49.691
G0 X62.934 Y50.404
G0 X62.752 Y51.094
G0 X60.802 Y53.504
G0 X60.42 Y51.83
G0 X60.802 Y58.665
G0 X60.802 Y56.96
G0 X60.587 Y56.627
G1 F2400 E41.12864
G1 F1800 X50.331 Y46.372 E41.68369
G0 F4320 X49.836 Y46.372
G1 F1800 X60.092 Y56.627 E42.23874
G0 F4320 X59.597 Y56.627
G1 F1800 X49.341 Y46.372 E42.79378
G0 F4320 X48.87 Y46.396
G1 F1800 X59.102 Y56.627 E43.34753
G0 F4320 X58.607 Y56.627
G1 F1800 X48.87 Y46.891 E43.87449
G0 F4320 X48.87 Y47.386
G1 F1800 X58.112 Y56.627 E44.37465
G0 F4320 X57.617 Y56.627
G1 F1800 X48.87 Y47.881 E44.84803
G0 F4320 X48.87 Y48.376
G1 F1800 X57.122 Y56.627 E45.29462
G0 F4320 X56.627 Y56.627
G1 F1800 X48.87 Y48.87 E45.71444
G0 F4320 X48.87 Y49.365
G1 F1800 X56.132 Y56.627 E46.10747
G0 F4320 X55.637 Y56.627
G1 F1800 X48.87 Y49.86 E46.47372
G0 F4320 X48.87 Y50.355
G1 F1800 X55.142 Y56.627 E46.81317
G0 F4320 X54.647 Y56.627
G1 F1800 X48.87 Y50.85 E47.12583
G0 F4320 X48.87 Y51.345
G1 F1800 X54.152 Y56.627 E47.4117
G0 F4320 X53.657 Y56.627
G1 F1800 X48.87 Y51.84 E47.67079
G0 F4320 X48.87 Y52.335
G1 F1800 X53.162 Y56.627 E47.90308
G0 F4320 X52.667 Y56.627
G1 F1800 X48.87 Y52.83 E48.10858
G0 F4320 X48.87 Y53.325
G1 F1800 X52.172 Y56.627 E48.28729
G0 F4320 X51.677 Y56.627
G1 F1800 X48.87 Y53.82 E48.43921
G0 F4320 X48.87 Y54.315
G1 F1800 X51.182 Y56.627 E48.56434
G0 F4320 X50.687 Y56.627
G1 F1800 X48.87 Y54.81 E48.66268
G0 F4320 X48.87 Y55.305
G1 F1800 X50.192 Y56.627 E48.73423
G0 F4320 X49.697 Y56.627
G1 F1800 X48.87 Y55.8 E48.77898
G0 F4320 X48.87 Y56.295
G1 F1800 X49.202 Y56.627 E48.79695
G0 F4320 X48.87 Y56.79
G1 F1800 X49.078 Y56.997 E48.80818
G0 F4320 X48.87 Y57.285
G1 F1800 X49.078 Y57.492 E48.81941
G0 F4320 X48.87 Y57.78
G1 F1800 X49.078 Y57.987 E48.83064
G0 F4320 X48.87 Y58.275
G1 F1800 X49.078 Y58.482 E48.84187
G0 F4320 X48.87 Y58.77
G1 F1800 X49.078 Y58.977 E48.8531
G0 F4320 X48.87 Y59.265
G1 F1800 X49.078 Y59.472 E48.86434
G0 F4320 X48.87 Y59.76
G1 F1800 X49.078 Y59.967 E48.87557
G0 F4320 X48.87 Y60.255
G1 F1800 X49.078 Y60.462 E48.8868
G0 F4320 X48.87 Y60.75
G1 F1800 X49.078 Y60.957 E48.89803
G0 F4320 X48.87 Y61.245
G1 F1800 X49.078 Y61.452 E48.90926
G0 F4320 X48.87 Y61.74
G1 F1800 X49.078 Y61.947 E48.92049
G0 F4320 X48.87 Y62.235
G1 F1800 X49.078 Y62.442 E48.93172
G0 F4320 X48.87 Y62.73
G1 F1800 X49.078 Y62.937 E48.94295
G0 F4320 X48.87 Y63.225
G1 F1800 X49.078 Y63.432 E48.95418
G0 F4320 X48.87 Y63.72
G1 F1800 X49.078 Y63.927 E48.96541
G0 F4320 X48.87 Y64.215
G1 F1800 X49.078 Y64.422 E48.97664
G0 F4320 X48.87 Y64.71
G1 F1800 X49.078 Y64.917 E48.98787
G0 F4320 X48.87 Y65.205
G1 F1800 X49.078 Y65.412 E48.9991
G0 F4320 X48.87 Y65.7
G1 F1800 X49.078 Y65.907 E49.01033
G0 F4320 X48.87 Y66.195
G1 F1800 X49.078 Y66.402 E49.02156
G0 F4320 X48.87 Y66.69
G1 F1800 X49.078 Y66.897 E49.03279
G0 F4320 X48.87 Y67.185
G1 F1800 X49.078 Y67.392 E49.04402
G0 F4320 X48.87 Y67.68
G1 F1800 X49.078 Y67.887 E49.05525
G0 F4320 X48.87 Y68.174
G1 F1800 X49.078 Y68.382 E49.06651
G0 F4320 X48.87 Y68.669
G1 F1800 X49.078 Y68.877 E49.07777
G0 F4320 X48.87 Y69.164
G1 F1800 X49.078 Y69.372 E49.08902
G0 F4320 X48.87 Y69.659
G1 F1800 X49.078 Y69.867 E49.10028
G0 F4320 X48.87 Y70.154
G1 F1800 X49.078 Y70.362 E49.11154
G0 F4320 X48.87 Y70.649
G1 F1800 X49.078 Y70.857 E49.12279
G0 F4320 X49.093 Y70.871
G1 F1800 X51.847 Y73.626 E49.27187
G0 F4320 X52.342 Y73.626
G1 F1800 X49.587 Y70.871 E49.42098
G0 F4320 X50.082 Y70.871
G1 F1800 X52.837 Y73.626 E49.57008
G0 F4320 X53.332 Y73.626
G1 F1800 X50.577 Y70.871 E49.71919
G0 F4320 X51.072 Y70.871
G1 F1800 X53.827 Y73.626 E49.8683
G0 F4320 X54.322 Y73.626
G1 F1800 X51.567 Y70.871 E50.0174
G0 F4320 X52.062 Y70.871
G1 F1800 X54.817 Y73.626 E50.16651
G0 F4320 X55.312 Y73.626
G1 F1800 X52.557 Y70.871 E50.31561
G0 F4320 X53.052 Y70.871
G1 F1800 X55.807 Y73.626 E50.46472
G0 F4320 X56.302 Y73.626
G1 F1800 X53.547 Y70.871 E50.61383
G0 F4320 X54.042 Y70.871
G1 F1800 X56.797 Y73.626 E50.76293
G0 F4320 X57.292 Y73.626
G1 F1800 X54.537 Y70.871 E50.91204
G0 F4320 X55.032 Y70.871
G1 F1800 X57.787 Y73.626 E51.06114
G0 F4320 X58.282 Y73.626
G1 F1800 X55.527 Y70.871 E51.21025
G0 F4320 X56.022 Y70.871
G1 F1800 X58.777 Y73.626 E51.35935
G0 F4320 X59.272 Y73.626
G1 F1800 X56.517 Y70.871 E51.50846
G0 F4320 X57.012 Y70.871
G1 F1800 X59.767 Y73.626 E51.65757
G0 F4320 X60.262 Y73.626
G1 F1800 X57.507 Y70.871 E51.80667
G0 F4320 X58.002 Y70.871
G1 F1800 X60.757 Y73.626 E51.95578
G0 F4320 X61.252 Y73.626
G1 F1800 X58.497 Y70.871 E52.10488
G0 F4320 X58.992 Y70.871
G1 F1800 X61.747 Y73.626 E52.25399
G0 F4320 X62.242 Y73.626
G1 F1800 X59.487 Y70.871 E52.40309
G0 F4320 X59.982 Y70.871
G1 F1800 X62.737 Y73.626 E52.5522
G0 F4320 X63.232 Y73.626
G1 F1800 X60.477 Y70.871 E52.70131
G0 F4320 X60.972 Y70.871
G1 F1800 X63.727 Y73.626 E52.85041
G0 F4320 X64.222 Y73.626
G1 F1800 X61.467 Y70.871 E52.99952
G0 F4320 X61.962 Y70.871
G1 F1800 X64.717 Y73.626 E53.14862
G0 F4320 X65.212 Y73.626
G1 F1800 X62.457 Y70.871 E53.29773
G0 F4320 X62.952 Y70.871
G1 F1800 X65.707 Y73.626 E53.44683
G0 F4320 X66.202 Y73.626
G1 F1800 X63.447 Y70.871 E53.59594
G0 F4320 X63.942 Y70.871
G1 F1800 X66.697 Y73.626 E53.74505
G0 F4320 X67.192 Y73.626
G1 F1800 X64.437 Y70.871 E53.89415
G0 F4320 X64.932 Y70.871
G1 F1800 X67.687 Y73.626 E54.04326
G0 F4320 X68.182 Y73.626
G1 F1800 X65.427 Y70.871 E54.19236
G0 F4320 X65.922 Y70.871
G1 F1800 X68.677 Y73.626 E54.34147
G0 F4320 X69.172 Y73.626
G1 F1800 X66.417 Y70.871 E54.49057
G0 F4320 X66.912 Y70.871
G1 F1800 X69.666 Y73.626 E54.63965
G0 F4320 X70.161 Y73.626
G1 F1800 X67.407 Y70.871 E54.78873
G0 F4320 X67.902 Y70.871
G1 F1800 X70.656 Y73.626 E54.93781
G0 F4320 X71.127 Y73.602
G1 F1800 X68.397 Y70.871 E55.08559
G0 F4320 X68.891 Y70.871
G1 F1800 X71.127 Y73.107 E55.20661
G0 F4320 X71.127 Y72.612
