;FLAVOR:Marlin
;TIME:2151
;Filament used: 1.6061m
;Layer height: 0.21875
;MINX:36.743
;MINY:29.925
;MINZ:0.263
;MAXX:83.257
;MAXY:90.075
;MAXZ:4.424
;Generated with Cura_SteamEngine 4.6.2
M140 S55
M105
M190 S55
M104 S195
M105
M109 S195
M82 ;absolute extrusion mode
G21;(metric values)
G90;(absolute positioning)
M82;(set extruder to absolute mode)
M107;(start with the fan off)
G28;(Home the printer)
G92 E0;(Reset the extruder to 0)
G0 Z5 E5 F500;(Move up and prime the nozzle)
G0 X-1 Z0;(Move outside the printable area)
G1 Y60 E8 F500;(Draw a priming/wiping line to the rear)
G1 X-1;(Move a little closer to the print area)
G1 Y10 E16 F500;(draw more priming/wiping)
G1 E15 F250;(Small retract)
G92 E0;(Zero the extruder)
G92 E0
G92 E0
G1 F2400 E-2.5
;LAYER_COUNT:20
;LAYER:0
M107
G0 F4320 X38.682 Y31.805 Z0.263
;TYPE:SKIRT
G1 F2400 E0
G1 F1800 X39.142 Y31.364 E0.02439
G1 X39.654 Y30.984 E0.04879
G1 X40.208 Y30.672 E0.07312
G1 X41.191 Y30.274 E0.11371
G1 X41.799 Y30.082 E0.13811
G1 X42.425 Y29.967 E0.16247
G1 X43.021 Y29.932 E0.18531
G1 X76.961 Y29.925 E1.4842
G1 X77.597 Y29.965 E1.50858
G1 X78.222 Y30.084 E1.53293
G1 X78.706 Y30.234 E1.55232
G1 X79.299 Y30.451 E1.57649
G1 X79.882 Y30.707 E1.60086
G1 X80.429 Y31.034 E1.62525
G1 X80.93 Y31.427 E1.64961
G1 X81.378 Y31.879 E1.67397
G1 X82.077 Y32.793 E1.718
G1 X82.425 Y33.327 E1.7424
G1 X82.703 Y33.9 E1.76677
G1 X82.98 Y34.81 E1.80317
G1 X83.15 Y35.644 E1.83575
G1 X83.238 Y36.275 E1.86013
G1 X83.257 Y37.207 E1.8958
G1 X83.257 Y83.32 E3.66055
G1 X83.217 Y83.956 E3.68493
G1 X83.007 Y85.1 E3.72945
G1 X82.847 Y85.717 E3.75384
G1 X82.612 Y86.309 E3.77822
G1 X82.16 Y87.081 E3.81245
G1 X81.719 Y87.701 E3.84157
G1 X81.318 Y88.195 E3.86592
G1 X80.858 Y88.636 E3.89031
G1 X80.346 Y89.016 E3.91471
G1 X79.792 Y89.328 E3.93904
G1 X78.809 Y89.726 E3.97963
G1 X78.201 Y89.918 E4.00403
G1 X77.575 Y90.033 E4.02838
G1 X76.979 Y90.068 E4.05123
G1 X43.039 Y90.075 E5.35011
G1 X42.403 Y90.035 E5.3745
G1 X41.778 Y89.916 E5.39885
G1 X41.294 Y89.766 E5.41824
G1 X40.701 Y89.549 E5.44241
G1 X40.118 Y89.293 E5.46678
G1 X39.571 Y88.966 E5.49117
G1 X39.07 Y88.573 E5.51553
G1 X38.622 Y88.121 E5.53989
G1 X37.923 Y87.207 E5.58392
G1 X37.575 Y86.673 E5.60832
G1 X37.297 Y86.1 E5.63269
G1 X37.02 Y85.19 E5.66909
G1 X36.85 Y84.356 E5.70167
G1 X36.762 Y83.725 E5.72605
G1 X36.743 Y82.175 E5.78537
G1 X36.743 Y36.68 E7.52646
G1 X36.783 Y36.044 E7.55085
G1 X36.993 Y34.9 E7.59536
G1 X37.153 Y34.283 E7.61976
G1 X37.388 Y33.691 E7.64413
G1 X37.84 Y32.919 E7.67837
G1 X38.248 Y32.346 E7.70529
G0 F1620 X38.281 Y32.299
G0 X38.682 Y31.805
G0 F4320 X38.955 Y32.026
G1 F1800 X39.401 Y31.604 E7.72879
G1 X39.899 Y31.243 E7.75232
G1 X40.713 Y30.834 E7.78719
G1 X41.318 Y30.6 E7.81201
G1 X41.904 Y30.416 E7.83552
G1 X42.509 Y30.31 E7.85902
G1 X43.021 Y30.282 E7.87865
G1 X76.961 Y30.275 E9.17753
G1 X77.574 Y30.315 E9.20104
G1 X78.177 Y30.434 E9.22456
G1 X79.179 Y30.78 E9.26513
G1 X79.741 Y31.028 E9.28864
G1 X80.266 Y31.347 E9.31215
G1 X80.745 Y31.732 E9.33567
G1 X81.345 Y32.395 E9.36989
G1 X81.797 Y33.002 E9.39885
G1 X82.131 Y33.518 E9.42237
G1 X82.395 Y34.072 E9.44586
G1 X82.637 Y34.88 E9.47814
G1 X82.807 Y35.714 E9.51071
G1 X82.902 Y36.618 E9.5455
G1 X82.907 Y37.21 E9.56815
G1 X82.907 Y83.32 E11.33278
G1 X82.821 Y84.215 E11.36719
G1 X82.663 Y85.034 E11.39911
G1 X82.508 Y85.629 E11.42264
G1 X82.277 Y86.198 E11.44614
G1 X81.874 Y86.878 E11.47639
G1 X81.433 Y87.498 E11.50551
G1 X81.045 Y87.974 E11.52901
G1 X80.599 Y88.396 E11.55251
G1 X80.101 Y88.757 E11.57605
G1 X79.287 Y89.166 E11.61091
G1 X78.682 Y89.4 E11.63574
G1 X78.096 Y89.584 E11.65924
G1 X77.491 Y89.69 E11.68275
G1 X76.979 Y89.718 E11.70237
G1 X43.039 Y89.725 E13.00126
G1 X42.426 Y89.685 E13.02476
G1 X41.823 Y89.566 E13.04829
G1 X40.821 Y89.22 E13.08885
G1 X40.259 Y88.972 E13.11236
G1 X39.734 Y88.653 E13.13587
G1 X39.255 Y88.268 E13.15939
G1 X38.655 Y87.605 E13.19361
G1 X38.203 Y86.998 E13.22258
G1 X37.869 Y86.482 E13.2461
G1 X37.605 Y85.928 E13.26958
G1 X37.363 Y85.12 E13.30186
G1 X37.193 Y84.286 E13.33444
G1 X37.11 Y83.677 E13.35796
G1 X37.093 Y82.174 E13.41548
G1 X37.093 Y36.68 E15.15653
G1 X37.179 Y35.785 E15.19094
G1 X37.337 Y34.966 E15.22287
G1 X37.492 Y34.371 E15.2464
G1 X37.723 Y33.802 E15.2699
G1 X38.126 Y33.122 E15.30015
G1 X38.521 Y32.567 E15.32622
G0 F1620 X38.567 Y32.502
G0 X38.955 Y32.026
G0 F4320 X39.226 Y32.248
G1 F1800 X39.659 Y31.845 E15.34886
G1 X40.142 Y31.504 E15.37148
G1 X40.839 Y31.161 E15.40121
G1 X41.444 Y30.927 E15.42604
G1 X42.008 Y30.751 E15.44865
G1 X42.592 Y30.653 E15.47131
G1 X76.961 Y30.625 E16.78661
G1 X77.551 Y30.665 E16.80924
G1 X78.13 Y30.784 E16.83186
G1 X79.058 Y31.108 E16.86948
G1 X79.599 Y31.349 E16.89214
G1 X80.102 Y31.66 E16.91478
G1 X80.558 Y32.035 E16.93737
G1 X81.064 Y32.604 E16.96651
G1 X81.516 Y33.211 E16.99547
G1 X81.836 Y33.708 E17.0181
G1 X82.087 Y34.244 E17.04075
G1 X82.294 Y34.95 E17.0689
G1 X82.464 Y35.784 E17.10148
G1 X82.552 Y36.621 E17.13368
G1 X82.557 Y37.213 E17.15634
G1 X82.557 Y83.32 E18.92085
G1 X82.478 Y84.149 E18.95272
G1 X82.32 Y84.968 E18.98464
G1 X82.169 Y85.539 E19.00725
G1 X81.942 Y86.085 E19.02988
G1 X81.589 Y86.675 E19.05619
G1 X81.148 Y87.295 E19.08531
G1 X80.774 Y87.752 E19.1079
G1 X80.341 Y88.155 E19.13054
G1 X79.858 Y88.496 E19.15317
G1 X79.161 Y88.839 E19.1829
G1 X78.556 Y89.073 E19.20772
G1 X77.992 Y89.249 E19.23033
G1 X77.408 Y89.347 E19.253
G1 X43.039 Y89.375 E20.5683
G1 X42.449 Y89.335 E20.59093
G1 X41.87 Y89.216 E20.61355
G1 X40.942 Y88.892 E20.65117
G1 X40.401 Y88.651 E20.67383
G1 X39.898 Y88.34 E20.69646
G1 X39.442 Y87.965 E20.71906
G1 X38.936 Y87.396 E20.7482
G1 X38.484 Y86.789 E20.77716
G1 X38.164 Y86.292 E20.79978
G1 X37.913 Y85.756 E20.82243
G1 X37.706 Y85.05 E20.85059
G1 X37.536 Y84.216 E20.88316
G1 X37.448 Y83.36 E20.91609
G1 X37.443 Y82.172 E20.96156
G1 X37.443 Y36.68 E22.70253
G1 X37.522 Y35.851 E22.7344
G1 X37.68 Y35.032 E22.76633
G1 X37.831 Y34.461 E22.78893
G1 X38.058 Y33.915 E22.81156
G1 X38.411 Y33.325 E22.83787
G1 X38.792 Y32.789 E22.86304
G0 F1620 X38.852 Y32.705
G0 X39.226 Y32.248
G0 F4320 X39.498 Y32.47
G1 F1800 X39.916 Y32.087 E22.88473
G1 X40.384 Y31.767 E22.90643
G1 X40.965 Y31.487 E22.93111
G1 X41.57 Y31.253 E22.95594
G1 X42.112 Y31.086 E22.97764
G1 X42.672 Y30.997 E22.99934
G1 X76.961 Y30.975 E24.31158
G1 X77.527 Y31.015 E24.3333
G1 X78.345 Y31.22 E24.36557
G1 X78.938 Y31.437 E24.38973
G1 X79.456 Y31.669 E24.41146
G1 X79.935 Y31.971 E24.43313
G1 X80.368 Y32.338 E24.45485
G1 X80.783 Y32.813 E24.47899
G1 X81.235 Y33.42 E24.50795
G1 X81.541 Y33.898 E24.52967
G1 X81.777 Y34.413 E24.55135
G1 X81.951 Y35.02 E24.57552
G1 X82.121 Y35.854 E24.60809
G1 X82.202 Y36.624 E24.63772
G1 X82.207 Y37.216 E24.66038
G1 X82.207 Y83.32 E26.42477
G1 X82.134 Y84.082 E26.45407
G1 X81.976 Y84.901 E26.48599
G1 X81.83 Y85.449 E26.50769
G1 X81.608 Y85.971 E26.5294
G1 X81.304 Y86.472 E26.55183
G1 X80.863 Y87.092 E26.58095
G1 X80.502 Y87.53 E26.60267
G1 X80.084 Y87.913 E26.62436
G1 X79.616 Y88.233 E26.64606
G1 X79.035 Y88.513 E26.67074
G1 X78.43 Y88.747 E26.69557
G1 X77.888 Y88.914 E26.71727
G1 X77.328 Y89.003 E26.73897
G1 X43.039 Y89.025 E28.05121
G1 X42.473 Y88.985 E28.07293
G1 X41.655 Y88.78 E28.1052
G1 X41.062 Y88.563 E28.12936
G1 X40.544 Y88.331 E28.15109
G1 X40.065 Y88.029 E28.17276
G1 X39.632 Y87.662 E28.19448
G1 X39.217 Y87.187 E28.21862
G1 X38.765 Y86.58 E28.24758
G1 X38.459 Y86.102 E28.2693
G1 X38.223 Y85.587 E28.29098
G1 X38.049 Y84.98 E28.31515
G1 X37.879 Y84.146 E28.34772
G1 X37.798 Y83.359 E28.378
G1 X37.793 Y82.171 E28.42346
G1 X37.793 Y36.68 E30.1644
G1 X37.866 Y35.918 E30.1937
G1 X38.024 Y35.099 E30.22562
G1 X38.17 Y34.551 E30.24732
G1 X38.392 Y34.029 E30.26903
G1 X38.696 Y33.528 E30.29146
G1 X39.064 Y33.011 E30.31574
G0 F1620 X39.137 Y32.908
G0 X39.498 Y32.47
G0 F4320 X39.768 Y32.694
G1 F1800 X40.171 Y32.332 E30.33647
G1 X40.624 Y32.033 E30.35724
G1 X41.091 Y31.813 E30.377
G1 X41.696 Y31.579 E30.40183
G1 X42.215 Y31.422 E30.42258
G1 X43.021 Y31.332 E30.45361
G1 X76.961 Y31.325 E31.7525
G1 X77.502 Y31.365 E31.77326
G1 X78.225 Y31.549 E31.80181
G1 X78.818 Y31.766 E31.82597
G1 X79.312 Y31.989 E31.84672
G1 X79.767 Y32.282 E31.86743
G1 X80.175 Y32.64 E31.8882
G1 X80.503 Y33.022 E31.90747
G1 X80.955 Y33.629 E31.93643
G1 X81.245 Y34.086 E31.95714
G1 X81.466 Y34.581 E31.97789
G1 X81.608 Y35.09 E31.99811
G1 X81.778 Y35.924 E32.03069
G1 X81.852 Y36.627 E32.05774
G1 X81.857 Y37.219 E32.0804
G1 X81.857 Y83.32 E33.84468
G1 X81.79 Y84.016 E33.87144
G1 X81.632 Y84.835 E33.90336
G1 X81.491 Y85.358 E33.92409
G1 X81.274 Y85.855 E33.94484
G1 X80.578 Y86.889 E33.99254
G1 X80.232 Y87.306 E34.01328
G1 X79.829 Y87.668 E34.03401
G1 X79.376 Y87.967 E34.05478
G1 X78.909 Y88.187 E34.07454
G1 X78.304 Y88.421 E34.09936
G1 X77.785 Y88.578 E34.12012
G1 X76.979 Y88.668 E34.15115
G1 X43.039 Y88.675 E35.45003
G1 X42.498 Y88.635 E35.47079
G1 X41.775 Y88.451 E35.49935
G1 X41.182 Y88.234 E35.52351
G1 X40.688 Y88.011 E35.54425
G1 X40.233 Y87.718 E35.56496
G1 X39.825 Y87.36 E35.58574
G1 X39.497 Y86.978 E35.60501
G1 X39.045 Y86.371 E35.63397
G1 X38.755 Y85.914 E35.65468
G1 X38.534 Y85.419 E35.67543
G1 X38.392 Y84.91 E35.69565
G1 X38.222 Y84.076 E35.72823
G1 X38.148 Y83.357 E35.75589
G1 X38.143 Y82.169 E35.80135
G1 X38.143 Y36.68 E37.54221
G1 X38.21 Y35.984 E37.56897
G1 X38.368 Y35.165 E37.60089
G1 X38.509 Y34.642 E37.62162
G1 X38.726 Y34.145 E37.64238
G1 X39.337 Y33.237 E37.68426
G0 F1620 X39.422 Y33.111
G0 X39.768 Y32.694
G0 F4320 X40.038 Y32.918
G1 F1800 X40.425 Y32.578 E37.70398
G1 X40.861 Y32.303 E37.7237
G1 X41.823 Y31.906 E37.76353
G1 X42.316 Y31.758 E37.78323
G1 X43.021 Y31.682 E37.81037
G1 X76.961 Y31.675 E39.10925
G1 X77.475 Y31.715 E39.12898
G1 X78.105 Y31.877 E39.15387
G1 X78.698 Y32.094 E39.17804
G1 X79.166 Y32.309 E39.19775
G1 X79.597 Y32.593 E39.2175
G1 X79.978 Y32.94 E39.23722
G1 X80.674 Y33.838 E39.2807
G1 X80.949 Y34.274 E39.30043
G1 X81.153 Y34.747 E39.32014
G1 X81.435 Y35.994 E39.36907
G1 X81.502 Y36.63 E39.39355
G1 X81.507 Y37.222 E39.4162
G1 X81.507 Y83.32 E41.18037
G1 X81.447 Y83.95 E41.20459
G1 X81.289 Y84.769 E41.23651
G1 X81.152 Y85.266 E41.25624
G1 X80.941 Y85.736 E41.27596
G1 X80.292 Y86.686 E41.31999
G1 X79.962 Y87.082 E41.33971
G1 X79.575 Y87.422 E41.35943
G1 X79.139 Y87.697 E41.37916
G1 X78.177 Y88.094 E41.41898
G1 X77.684 Y88.242 E41.43868
G1 X76.979 Y88.318 E41.46582
G1 X43.039 Y88.325 E42.7647
G1 X42.525 Y88.285 E42.78443
G1 X41.895 Y88.123 E42.80933
G1 X41.302 Y87.906 E42.83349
G1 X40.834 Y87.691 E42.8532
G1 X40.403 Y87.407 E42.87296
G1 X40.022 Y87.06 E42.89268
G1 X39.326 Y86.162 E42.93616
G1 X39.051 Y85.726 E42.95588
G1 X38.847 Y85.253 E42.9756
G1 X38.565 Y84.006 E43.02453
G1 X38.498 Y83.356 E43.04953
G1 X38.493 Y82.168 E43.095
G1 X38.493 Y36.68 E44.83582
G1 X38.553 Y36.05 E44.86004
G1 X38.711 Y35.231 E44.89196
G1 X38.848 Y34.734 E44.91169
G1 X39.059 Y34.264 E44.93141
G1 X39.607 Y33.461 E44.96861
G0 F1620 X39.708 Y33.314
G0 X40.038 Y32.918
G0 F4320 X40.307 Y33.144
G1 F1800 X40.678 Y32.827 E44.98729
G1 X41.344 Y32.466 E45.01628
G1 X41.949 Y32.232 E45.0411
G1 X42.416 Y32.094 E45.05974
G1 X43.021 Y32.032 E45.08301
G1 X76.961 Y32.025 E46.3819
G1 X77.984 Y32.206 E46.42165
G1 X78.577 Y32.423 E46.44582
G1 X79.02 Y32.628 E46.4645
G1 X79.423 Y32.902 E46.48315
G1 X79.941 Y33.44 E46.51173
G1 X80.393 Y34.047 E46.54069
G1 X80.651 Y34.461 E46.55936
G1 X80.838 Y34.911 E46.57801
G1 X81.092 Y36.064 E46.6232
G1 X81.152 Y36.633 E46.64509
G1 X81.157 Y37.225 E46.66775
G1 X81.157 Y83.32 E48.4318
G1 X81.103 Y83.884 E48.45348
G1 X80.945 Y84.703 E48.48541
G1 X80.814 Y85.172 E48.50404
G1 X80.448 Y85.863 E48.53397
G1 X80.007 Y86.483 E48.56308
G1 X79.693 Y86.856 E48.58174
G1 X79.322 Y87.173 E48.60042
G1 X78.656 Y87.534 E48.62941
G1 X78.051 Y87.768 E48.65423
G1 X77.584 Y87.906 E48.67287
G1 X76.979 Y87.968 E48.69614
G1 X43.039 Y87.975 E49.99503
G1 X42.553 Y87.935 E50.01369
G1 X42.016 Y87.794 E50.03494
G1 X41.423 Y87.577 E50.0591
G1 X40.98 Y87.372 E50.07778
G1 X40.577 Y87.098 E50.09643
G1 X40.059 Y86.56 E50.12501
G1 X39.607 Y85.953 E50.15398
G1 X39.349 Y85.539 E50.17265
G1 X39.162 Y85.089 E50.1913
G1 X38.908 Y83.936 E50.23648
G1 X38.848 Y83.355 E50.25883
G1 X38.843 Y82.167 E50.3043
G1 X38.843 Y36.68 E52.04508
G1 X38.897 Y36.116 E52.06676
G1 X39.055 Y35.297 E52.09869
G1 X39.186 Y34.828 E52.11732
G1 X39.552 Y34.137 E52.14725
G1 X39.873 Y33.685 E52.16846
G0 F1620 X39.993 Y33.517
G0 X40.307 Y33.144
G0 F4320 X40.575 Y33.371
G1 F1800 X40.928 Y33.079 E52.18599
G1 X41.47 Y32.793 E52.20945
G1 X42.075 Y32.559 E52.23427
G1 X42.515 Y32.431 E52.25181
G1 X43.021 Y32.382 E52.27126
G1 X76.961 Y32.375 E53.57015
G1 X77.418 Y32.415 E53.5877
G1 X78.457 Y32.752 E53.6295
G1 X78.872 Y32.946 E53.64704
G1 X79.246 Y33.209 E53.66453
G1 X79.66 Y33.649 E53.68765
G1 X80.112 Y34.256 E53.71662
G1 X80.353 Y34.646 E53.73416
G1 X80.579 Y35.3 E53.76064
G1 X80.749 Y36.134 E53.79322
G1 X80.802 Y36.636 E53.81253
G1 X80.807 Y37.228 E53.83519
G1 X80.807 Y83.32 E55.59913
G1 X80.759 Y83.817 E55.61824
G1 X80.601 Y84.636 E55.65016
G1 X80.476 Y85.076 E55.66766
G1 X80.163 Y85.661 E55.69306
G1 X79.722 Y86.281 E55.72217
G1 X79.425 Y86.629 E55.73968
G1 X79.072 Y86.921 E55.75721
G1 X78.53 Y87.207 E55.78067
G1 X77.925 Y87.441 E55.80549
G1 X77.485 Y87.569 E55.82303
G1 X76.979 Y87.618 E55.84248
G1 X43.039 Y87.625 E57.14137
G1 X42.582 Y87.585 E57.15892
G1 X41.543 Y87.248 E57.20072
G1 X41.128 Y87.054 E57.21825
G1 X40.754 Y86.791 E57.23575
G1 X40.34 Y86.351 E57.25887
G1 X39.888 Y85.744 E57.28784
G1 X39.647 Y85.354 E57.30538
G1 X39.421 Y84.7 E57.33186
G1 X39.251 Y83.866 E57.36444
G1 X39.198 Y83.353 E57.38417
G1 X39.193 Y82.165 E57.42964
G1 X39.193 Y36.68 E59.17035
G1 X39.241 Y36.183 E59.18945
G1 X39.399 Y35.364 E59.22138
G1 X39.524 Y34.924 E59.23888
G1 X39.837 Y34.339 E59.26427
G1 X40.141 Y33.912 E59.28433
G0 F1620 X40.278 Y33.719
G0 X40.575 Y33.371
G0 F4320 X40.842 Y33.6
G1 F1800 X41.175 Y33.335 E59.30062
G1 X41.596 Y33.119 E59.31873
G1 X42.201 Y32.885 E59.34355
G1 X42.611 Y32.769 E59.35986
G1 X43.022 Y32.732 E59.37565
G1 X76.962 Y32.725 E60.67453
G1 X77.386 Y32.765 E60.69083
G1 X78.337 Y33.081 E60.72918
G1 X78.722 Y33.264 E60.7455
G1 X79.065 Y33.516 E60.76178
G1 X79.38 Y33.858 E60.77958
G1 X79.832 Y34.465 E60.80854
G1 X80.053 Y34.829 E60.82484
G1 X80.236 Y35.37 E60.84669
G1 X80.406 Y36.204 E60.87927
G1 X80.457 Y37.231 E60.91862
G1 X80.457 Y83.32 E62.68244
G1 X80.416 Y83.751 E62.69901
G1 X80.258 Y84.57 E62.73093
G1 X80.138 Y84.979 E62.74724
G1 X79.878 Y85.458 E62.7681
G1 X79.437 Y86.078 E62.79722
G1 X79.158 Y86.4 E62.81353
G1 X78.825 Y86.665 E62.82981
G1 X78.404 Y86.881 E62.84792
G1 X77.799 Y87.115 E62.87275
G1 X77.389 Y87.231 E62.88905
G1 X76.978 Y87.268 E62.90484
G1 X43.038 Y87.275 E64.20373
G1 X42.614 Y87.235 E64.22002
G1 X41.663 Y86.919 E64.25838
G1 X41.278 Y86.736 E64.27469
G1 X40.935 Y86.484 E64.29098
G1 X40.62 Y86.142 E64.30877
G1 X40.168 Y85.535 E64.33774
G1 X39.947 Y85.171 E64.35403
G1 X39.764 Y84.63 E64.37589
G1 X39.594 Y83.796 E64.40846
G1 X39.548 Y83.352 E64.42554
G1 X39.543 Y82.164 E64.47101
G1 X39.543 Y36.68 E66.21168
G1 X39.584 Y36.249 E66.22825
G1 X39.742 Y35.43 E66.26017
G1 X39.862 Y35.021 E66.27648
G1 X40.122 Y34.542 E66.29734
G1 X40.408 Y34.14 E66.31622
G0 F1620 X40.563 Y33.922
G0 X40.842 Y33.6
G0 F4320 X41.107 Y33.831
G1 F1800 X41.42 Y33.595 E66.33122
G1 X42.328 Y33.212 E66.36894
G1 X42.706 Y33.108 E66.38394
G1 X43.022 Y33.082 E66.39607
G1 X76.962 Y33.075 E67.69496
G1 X77.351 Y33.115 E67.70992
G1 X78.217 Y33.409 E67.74492
G1 X78.569 Y33.581 E67.75991
G1 X78.879 Y33.82 E67.77489
G1 X79.551 Y34.674 E67.81648
G1 X79.752 Y35.011 E67.8315
G1 X79.893 Y35.44 E67.84878
G1 X80.063 Y36.274 E67.88135
G1 X80.107 Y37.234 E67.91813
G1 X80.107 Y83.32 E69.68184
G1 X79.914 Y84.504 E69.72775
G1 X79.801 Y84.879 E69.74274
G1 X79.593 Y85.255 E69.75918
G1 X79.152 Y85.875 E69.7883
G1 X78.893 Y86.169 E69.80329
G1 X78.58 Y86.405 E69.8183
G1 X77.672 Y86.788 E69.85601
G1 X77.294 Y86.892 E69.87101
G1 X76.978 Y86.918 E69.88315
G1 X43.038 Y86.925 E71.18203
G1 X42.649 Y86.885 E71.197
G1 X41.783 Y86.591 E71.232
G1 X41.431 Y86.419 E71.24699
G1 X41.121 Y86.18 E71.26197
