;FLAVOR:Marlin
;TIME:3158
;Filament used: 1.44552m
;Layer height: 0.13125
;MINX:41.153
;MINY:34.335
;MINZ:0.263
;MAXX:78.847
;MAXY:85.665
;MAXZ:4.324
;Generated with Cura_SteamEngine 4.6.2
M140 S55
M105
M190 S55
M104 S195
M105
M109 S195
M82 ;absolute extrusion mode
G21;(metric values)
G90;(absolute positioning)
M82;(set extruder to absolute mode)
M107;(start with the fan off)
G28;(Home the printer)
G92 E0;(Reset the extruder to 0)
G0 Z5 E5 F500;(Move up and prime the nozzle)
G0 X-1 Z0;(Move outside the printable area)
G1 Y60 E8 F500;(Draw a priming/wiping line to the rear)
G1 X-1;(Move a little closer to the print area)
G1 Y10 E16 F500;(draw more priming/wiping)
G1 E15 F250;(Small retract)
G92 E0;(Zero the extruder)
G92 E0
G92 E0
G1 F2400 E-2.5
;LAYER_COUNT:32
;LAYER:0
M107
;MESH:virtual_wall-Tapa_002.stl
G0 F4320 X49.975 Y66.575 Z0.263
;TYPE:WALL-INNER
G1 F2400 E0
G1 F1800 X70.025 Y66.575 E0.76731
G1 X70.025 Y53.425 E1.27056
G1 X49.975 Y53.425 E2.03787
G1 X49.975 Y65.881 E2.51456
G0 F1620 X49.975 Y66.575
G1 F2400 E0.01456
G0 F4320 X49.83 Y64.773
G0 X51.515 Y64.773
G0 X78.847 Y37.25
G0 X77.122 Y37.25
G0 X77.19 Y36.19
G1 F2400 E2.51456
G1 F1800 X77.302 Y36.746 E2.53627
G1 X77.307 Y37.25 E2.55556
G1 X77.307 Y83.237 E4.31548
G1 X77.2 Y83.786 E4.33688
G1 X77.023 Y84.038 E4.34867
G1 X76.814 Y84.118 E4.35723
G1 X43.194 Y84.125 E5.64387
G1 X42.989 Y84.05 E5.65222
G1 X42.81 Y83.81 E5.66368
G1 X42.698 Y83.255 E5.68535
G1 X42.693 Y82.153 E5.72752
G1 X42.693 Y36.762 E7.46463
G1 X42.8 Y36.214 E7.486
G1 X42.977 Y35.962 E7.49779
G1 X43.186 Y35.882 E7.50635
G1 X76.629 Y35.875 E8.78621
G0 F1620 X76.806 Y35.875
G0 X77.011 Y35.95
G0 X77.19 Y36.19
G0 F4320 X77.517 Y36.043
G1 F1800 X77.652 Y36.709 E8.81222
G1 X77.657 Y37.25 E8.83292
G1 X77.657 Y83.273 E10.59422
G1 X77.53 Y83.926 E10.61968
G1 X77.247 Y84.327 E10.63846
G1 X76.88 Y84.468 E10.65351
G1 X43.131 Y84.475 E11.94508
G1 X42.771 Y84.343 E11.95976
G1 X42.483 Y83.957 E11.97819
G1 X42.348 Y83.291 E12.00419
G1 X42.343 Y82.153 E12.04775
G1 X42.343 Y36.726 E13.78623
G1 X42.47 Y36.074 E13.81165
G1 X42.753 Y35.673 E13.83044
G1 X43.12 Y35.532 E13.84548
G1 X76.869 Y35.525 E15.13706
G1 X77.029 Y35.584 E15.14358
G0 F1620 X77.229 Y35.657
G0 X77.517 Y36.043
G1 F2400 E12.64358
G0 F4320 X77.122 Y37.25
G0 X78.847 Y37.25
G0 X61.712 Y54.965
G0 X61.712 Y53.28
G0 X50.447 Y53.897
G0 X50.325 Y66.225
G1 F2400 E15.14358
G1 F1800 X69.675 Y66.225 E15.88411
G1 X69.675 Y53.775 E16.36057
G1 X50.325 Y53.775 E17.10109
G1 X50.325 Y65.531 E17.55099
G0 F1620 X50.325 Y66.225
G0 F4320 X50.65 Y65.9
;TYPE:WALL-OUTER
G1 F1800 X69.35 Y65.9 E18.26664
G1 X69.35 Y54.1 E18.71822
G1 X50.65 Y54.1 E19.43387
G1 X50.65 Y65.206 E19.8589
G0 F1620 X50.65 Y65.9
G0 F4320 X50.85 Y65.9
G1 F2400 E17.3589
G0 F4320 X50.85 Y66.175
G0 X69.553 Y66.103
G0 X70.17 Y57.214
G0 X68.485 Y57.214
G0 X78.847 Y53.254
G0 X77.122 Y53.254
G0 X77.563 Y36.021
G0 X77.82 Y35.906
G1 F2400 E19.8589
G1 F1800 X77.977 Y36.677 E19.88901
G1 X77.982 Y37.25 E19.91094
G1 X77.982 Y83.304 E21.67342
G1 X77.836 Y84.057 E21.70278
G1 X77.455 Y84.595 E21.72801
G1 X76.94 Y84.793 E21.74912
G1 X43.074 Y84.8 E23.04517
G1 X42.568 Y84.615 E23.06579
G1 X42.18 Y84.094 E23.09065
G1 X42.023 Y83.322 E23.1208
G1 X42.018 Y82.153 E23.16554
G1 X42.018 Y36.695 E24.90521
G1 X42.164 Y35.943 E24.93453
G1 X42.545 Y35.405 E24.95976
G1 X43.06 Y35.207 E24.98087
G1 X76.926 Y35.2 E26.27692
G1 X77.39 Y35.37 E26.29584
G0 F1620 X77.432 Y35.385
G0 X77.82 Y35.906
G0 F4320 X77.859 Y36.102
G0 X77.59 Y36.155
G0 X76.87 Y36.33
;TYPE:SKIN
G1 F1800 X76.962 Y36.786 E26.31364
G1 X76.967 Y37.25 E26.3314
G1 X76.967 Y83.201 E28.08994
G1 X76.88 Y83.65 E28.10744
G1 X76.804 Y83.758 E28.1125
G1 X76.752 Y83.778 E28.11463
G1 X43.254 Y83.785 E29.39659
G1 X43.202 Y83.766 E29.39871
G1 X43.13 Y83.67 E29.40331
G1 X43.038 Y83.215 E29.42107
G1 X43.033 Y82.151 E29.46179
G1 X43.033 Y36.798 E31.19745
G1 X43.12 Y36.35 E31.21491
G1 X43.196 Y36.242 E31.21997
G1 X43.248 Y36.222 E31.2221
G1 X76.227 Y36.215 E32.4842
G0 F1620 X76.746 Y36.215
G0 X76.798 Y36.234
G0 X76.87 Y36.33
G1 F2400 E29.9842
G0 F4320 X77.076 Y36.18
G0 X70.137 Y36.061
G0 X70.136 Y34.337
G0 X68.485 Y55.227
G0 X70.17 Y55.227
G0 X70.14 Y53.34
G0 X70.365 Y53.085
G1 F2400 E32.4842
G1 F1800 X49.635 Y53.085 E33.27754
G1 X49.635 Y66.915 E33.80681
G1 X70.365 Y66.915 E34.60015
G1 X70.365 Y53.779 E35.10286
G0 F1620 X70.365 Y53.085
G1 F2400 E32.60286
G0 F4320 X70.14 Y53.34
G0 X70.17 Y55.227
G0 X68.485 Y55.227
G0 X70.192 Y34.337
G0 X70.193 Y36.061
G0 X76.465 Y35.96
G0 X76.465 Y36.372
G1 F2400 E35.10286
G1 F1800 X76.781 Y36.688 E35.11996
G0 F4320 X76.809 Y37.211
G1 F1800 X75.97 Y36.372 E35.16537
G0 F4320 X75.475 Y36.372
G1 F1800 X76.81 Y37.707 E35.23763
G0 F4320 X76.81 Y38.202
G1 F1800 X74.98 Y36.372 E35.33667
G0 F4320 X74.485 Y36.372
G1 F1800 X76.81 Y38.697 E35.4625
G0 F4320 X76.81 Y39.192
G1 F1800 X73.99 Y36.372 E35.61513
G0 F4320 X73.495 Y36.372
G1 F1800 X76.81 Y39.687 E35.79454
G0 F4320 X76.81 Y40.182
G1 F1800 X73 Y36.372 E36.00074
G0 F4320 X72.506 Y36.372
G1 F1800 X76.81 Y40.677 E36.23371
G0 F4320 X76.81 Y41.171
G1 F1800 X72.011 Y36.372 E36.49344
G0 F4320 X71.516 Y36.372
G1 F1800 X76.81 Y41.666 E36.77996
G0 F4320 X76.81 Y42.161
G1 F1800 X71.021 Y36.372 E37.09328
G0 F4320 X70.526 Y36.372
G1 F1800 X76.81 Y42.656 E37.43338
G0 F4320 X76.81 Y43.151
G1 F1800 X70.031 Y36.372 E37.80027
G0 F4320 X69.536 Y36.373
G1 F1800 X76.81 Y43.646 E38.19392
G0 F4320 X76.81 Y44.141
G1 F1800 X69.041 Y36.373 E38.61437
G0 F4320 X68.546 Y36.373
G1 F1800 X76.81 Y44.636 E39.06161
G0 F4320 X76.81 Y45.131
G1 F1800 X68.051 Y36.373 E39.53563
G0 F4320 X67.556 Y36.373
G1 F1800 X76.81 Y45.626 E40.03645
G0 F4320 X76.81 Y46.121
G1 F1800 X67.062 Y36.373 E40.56403
G0 F4320 X66.567 Y36.374
G1 F1800 X76.81 Y46.616 E41.11837
G0 F4320 X76.81 Y47.111
G1 F1800 X66.072 Y36.374 E41.69951
G0 F4320 X65.577 Y36.374
G1 F1800 X76.81 Y47.606 E42.30743
G0 F4320 X76.81 Y48.101
G1 F1800 X65.082 Y36.374 E42.94214
G0 F4320 X64.587 Y36.374
G1 F1800 X76.81 Y48.596 E43.60365
G0 F4320 X76.81 Y49.091
G1 F1800 X64.092 Y36.374 E44.29194
G0 F4320 X63.597 Y36.374
G1 F1800 X76.81 Y49.586 E45.00703
G0 F4320 X76.81 Y50.081
G1 F1800 X63.103 Y36.374 E45.74888
G0 F4320 X62.608 Y36.374
G1 F1800 X76.81 Y50.576 E46.51752
G0 F4320 X76.81 Y51.071
G1 F1800 X62.113 Y36.374 E47.31295
G0 F4320 X61.618 Y36.374
G1 F1800 X76.81 Y51.566 E48.13517
G0 F4320 X76.81 Y52.061
G1 F1800 X61.123 Y36.374 E48.98418
G0 F4320 X60.628 Y36.374
G1 F1800 X76.81 Y52.556 E49.85998
G0 F4320 X76.81 Y53.051
G1 F1800 X60.133 Y36.374 E50.76257
G0 F4320 X59.639 Y36.375
G1 F1800 X76.81 Y53.546 E51.69189
G0 F4320 X76.81 Y54.041
G1 F1800 X59.144 Y36.375 E52.64801
G0 F4320 X58.649 Y36.375
G1 F1800 X76.81 Y54.536 E53.63092
G0 F4320 X76.81 Y55.031
G1 F1800 X58.154 Y36.375 E54.64061
G0 F4320 X57.659 Y36.375
G1 F1800 X76.81 Y55.526 E55.6771
G0 F4320 X76.81 Y56.021
G1 F1800 X57.164 Y36.375 E56.74038
G0 F4320 X56.669 Y36.375
G1 F1800 X76.81 Y56.516 E57.83045
G0 F4320 X76.81 Y57.011
G1 F1800 X56.175 Y36.376 E58.94725
G0 F4320 X55.68 Y36.376
G1 F1800 X76.81 Y57.506 E60.09085
G0 F4320 X76.81 Y58.001
G1 F1800 X55.185 Y36.376 E61.26123
G0 F4320 X54.69 Y36.376
G1 F1800 X76.81 Y58.496 E62.45841
G0 F4320 X76.81 Y58.991
G1 F1800 X54.195 Y36.376 E63.68238
G0 F4320 X53.7 Y36.376
G1 F1800 X70.251 Y52.927 E64.57815
G0 F4320 X70.521 Y53.197
G1 F1800 X76.81 Y59.486 E64.91852
G0 F4320 X76.81 Y59.981
G1 F1800 X70.521 Y53.692 E65.25889
G0 F4320 X70.521 Y54.187
G1 F1800 X76.81 Y60.476 E65.59927
G0 F4320 X76.81 Y60.97
G1 F1800 X70.521 Y54.681 E65.93964
G0 F4320 X70.521 Y55.176
G1 F1800 X76.81 Y61.465 E66.28001
G0 F4320 X76.81 Y61.96
G1 F1800 X70.521 Y55.671 E66.62038
G0 F4320 X70.521 Y56.166
G1 F1800 X76.81 Y62.455 E66.96076
G0 F4320 X76.81 Y62.95
G1 F1800 X70.521 Y56.661 E67.30113
G0 F4320 X70.521 Y57.156
G1 F1800 X76.81 Y63.445 E67.6415
G0 F4320 X76.81 Y63.94
G1 F1800 X70.521 Y57.651 E67.98187
G0 F4320 X70.521 Y58.146
G1 F1800 X76.81 Y64.435 E68.32224
G0 F4320 X76.81 Y64.93
G1 F1800 X70.521 Y58.641 E68.66262
G0 F4320 X70.521 Y59.136
G1 F1800 X76.81 Y65.425 E69.00299
G0 F4320 X76.81 Y65.92
G1 F1800 X70.521 Y59.631 E69.34336
G0 F4320 X70.521 Y60.126
G1 F1800 X76.81 Y66.415 E69.68373
G0 F4320 X76.81 Y66.91
G1 F1800 X70.521 Y60.621 E70.02411
G0 F4320 X70.521 Y61.116
G1 F1800 X76.81 Y67.405 E70.36448
G0 F4320 X76.81 Y67.9
G1 F1800 X70.521 Y61.611 E70.70485
G0 F4320 X70.521 Y62.106
G1 F1800 X76.81 Y68.395 E71.04522
G0 F4320 X76.81 Y68.89
G1 F1800 X70.521 Y62.601 E71.3856
G0 F4320 X70.521 Y63.096
G1 F1800 X76.81 Y69.385 E71.72597
G0 F4320 X76.81 Y69.88
G1 F1800 X70.521 Y63.591 E72.06634
G0 F4320 X70.521 Y64.086
G1 F1800 X76.81 Y70.375 E72.40671
G0 F4320 X76.81 Y70.87
G1 F1800 X70.521 Y64.581 E72.74709
G0 F4320 X70.521 Y65.076
G1 F1800 X76.81 Y71.365 E73.08746
G0 F4320 X76.81 Y71.86
G1 F1800 X70.521 Y65.571 E73.42783
G0 F4320 X70.521 Y66.066
G1 F1800 X76.81 Y72.355 E73.7682
G0 F4320 X76.81 Y72.85
G1 F1800 X70.521 Y66.561 E74.10858
G0 F4320 X70.521 Y67.056
G1 F1800 X76.81 Y73.345 E74.44895
G0 F4320 X76.81 Y73.84
G1 F1800 X70.041 Y67.071 E74.8153
G0 F4320 X69.546 Y67.071
G1 F1800 X76.81 Y74.335 E75.20844
G0 F4320 X76.81 Y74.83
G1 F1800 X69.051 Y67.071 E75.62837
G0 F4320 X68.556 Y67.071
G1 F1800 X76.81 Y75.325 E76.07509
G0 F4320 X76.81 Y75.82
G1 F1800 X68.061 Y67.071 E76.54861
G0 F4320 X67.566 Y67.071
G1 F1800 X76.81 Y76.315 E77.04891
G0 F4320 X76.81 Y76.81
G1 F1800 X67.071 Y67.071 E77.576
G0 F4320 X66.576 Y67.071
G1 F1800 X76.81 Y77.305 E78.12989
G0 F4320 X76.81 Y77.8
G1 F1800 X66.081 Y67.071 E78.71056
G0 F4320 X65.586 Y67.071
G1 F1800 X76.81 Y78.295 E79.31802
G0 F4320 X76.81 Y78.79
G1 F1800 X65.092 Y67.071 E79.95225
G0 F4320 X64.597 Y67.071
G1 F1800 X76.81 Y79.285 E80.61327
G0 F4320 X76.81 Y79.78
G1 F1800 X64.102 Y67.071 E81.30108
G0 F4320 X63.607 Y67.071
G1 F1800 X76.81 Y80.275 E82.01567
G0 F4320 X76.81 Y80.769
G1 F1800 X63.112 Y67.071 E82.75704
G0 F4320 X62.617 Y67.071
G1 F1800 X76.81 Y81.264 E83.52519
G0 F4320 X76.81 Y81.759
G1 F1800 X62.122 Y67.071 E84.32013
G0 F4320 X61.627 Y67.071
G1 F1800 X76.81 Y82.254 E85.14186
G0 F4320 X76.81 Y82.749
G1 F1800 X61.132 Y67.071 E85.99038
G0 F4320 X60.637 Y67.071
G1 F1800 X76.8 Y83.234 E86.86516
G0 F4320 X76.69 Y83.62
G1 F1800 X60.142 Y67.071 E87.76079
G0 F4320 X59.647 Y67.071
G1 F1800 X76.195 Y83.62 E88.65643
G0 F4320 X75.7 Y83.62
G1 F1800 X59.152 Y67.071 E89.55206
G0 F4320 X58.657 Y67.071
G1 F1800 X75.205 Y83.62 E90.4477
G0 F4320 X74.71 Y83.62
G1 F1800 X58.162 Y67.071 E91.34334
G0 F4320 X57.667 Y67.071
G1 F1800 X74.215 Y83.62 E92.23897
G0 F4320 X73.72 Y83.62
G1 F1800 X57.172 Y67.071 E93.13461
G0 F4320 X56.677 Y67.071
G1 F1800 X73.226 Y83.621 E94.0303
G0 F4320 X72.731 Y83.621
G1 F1800 X56.182 Y67.071 E94.92599
G0 F4320 X55.687 Y67.071
G1 F1800 X72.236 Y83.621 E95.82168
G0 F4320 X71.741 Y83.621
G1 F1800 X55.192 Y67.071 E96.71737
G0 F4320 X54.697 Y67.071
G1 F1800 X71.246 Y83.621 E97.61306
G0 F4320 X70.751 Y83.621
G1 F1800 X54.202 Y67.071 E98.50875
G0 F4320 X53.707 Y67.071
G1 F1800 X70.256 Y83.621 E99.40444
G0 F4320 X69.762 Y83.621
G1 F1800 X53.212 Y67.071 E100.30015
G0 F4320 X52.717 Y67.071
G1 F1800 X69.267 Y83.621 E101.19587
G0 F4320 X68.772 Y83.621
G1 F1800 X52.222 Y67.071 E102.09159
G0 F4320 X51.727 Y67.071
G1 F1800 X68.277 Y83.621 E102.9873
G0 F4320 X67.782 Y83.621
G1 F1800 X51.232 Y67.071 E103.88302
G0 F4320 X50.737 Y67.071
G1 F1800 X67.287 Y83.621 E104.77874
G0 F4320 X66.792 Y83.621
G1 F1800 X50.242 Y67.071 E105.67446
G0 F4320 X49.747 Y67.071
G1 F1800 X66.298 Y83.622 E106.57023
G0 F4320 X65.803 Y83.622
G1 F1800 X43.189 Y61.008 E107.79414
G0 F4320 X43.189 Y60.513
G1 F1800 X49.478 Y66.802 E108.13451
G0 F4320 X49.478 Y66.307
G1 F1800 X43.189 Y60.018 E108.47488
G0 F4320 X43.189 Y59.523
G1 F1800 X49.478 Y65.812 E108.81526
G0 F4320 X49.478 Y65.317
G1 F1800 X43.189 Y59.028 E109.15563
G0 F4320 X43.189 Y58.533
G1 F1800 X49.478 Y64.822 E109.496
G0 F4320 X49.478 Y64.327
G1 F1800 X43.189 Y58.038 E109.83637
G0 F4320 X43.189 Y57.543
G1 F1800 X49.478 Y63.832 E110.17675
G0 F4320 X49.478 Y63.337
G1 F1800 X43.189 Y57.048 E110.51712
G0 F4320 X43.189 Y56.553
G1 F1800 X49.478 Y62.842 E110.85749
G0 F4320 X49.478 Y62.347
G1 F1800 X43.189 Y56.058 E111.19786
G0 F4320 X43.189 Y55.563
G1 F1800 X49.478 Y61.852 E111.53824
G0 F4320 X49.478 Y61.357
G1 F1800 X43.189 Y55.068 E111.87861
G0 F4320 X43.189 Y54.573
G1 F1800 X49.478 Y60.862 E112.21898
G0 F4320 X49.478 Y60.367
G1 F1800 X43.189 Y54.078 E112.55935
G0 F4320 X43.189 Y53.583
G1 F1800 X49.478 Y59.872 E112.89972
G0 F4320 X49.478 Y59.377
G1 F1800 X43.189 Y53.088 E113.2401
G0 F4320 X43.189 Y52.593
G1 F1800 X49.478 Y58.882 E113.58047
G0 F4320 X49.478 Y58.387
G1 F1800 X43.189 Y52.098 E113.92084
G0 F4320 X43.189 Y51.603
G1 F1800 X49.478 Y57.892 E114.26121
G0 F4320 X49.478 Y57.397
G1 F1800 X43.189 Y51.108 E114.60159
G0 F4320 X43.189 Y50.613
G1 F1800 X49.478 Y56.903 E114.94199
G0 F4320 X49.478 Y56.408
G1 F1800 X43.189 Y50.119 E115.28236
G0 F4320 X43.189 Y49.624
G1 F1800 X49.478 Y55.913 E115.62273
G0 F4320 X49.478 Y55.418
G1 F1800 X43.189 Y49.129 E115.9631
G0 F4320 X43.189 Y48.634
G1 F1800 X49.478 Y54.923 E116.30348
G0 F4320 X49.478 Y54.428
G1 F1800 X43.189 Y48.139 E116.64385
G0 F4320 X43.189 Y47.644
G1 F1800 X49.478 Y53.933 E116.98422
G0 F4320 X49.478 Y53.438
G1 F1800 X43.189 Y47.149 E117.32459
G0 F4320 X43.189 Y46.654
G1 F1800 X49.478 Y52.943 E117.66497
G0 F4320 X49.957 Y52.926
G1 F1800 X43.189 Y46.159 E118.03124
G0 F4320 X43.189 Y45.664
G1 F1800 X50.452 Y52.926 E118.4243
G0 F4320 X50.947 Y52.926
G1 F1800 X43.189 Y45.169 E118.84415
G0 F4320 X43.189 Y44.674
G1 F1800 X51.442 Y52.926 E119.29079
G0 F4320 X51.936 Y52.926
G1 F1800 X43.189 Y44.179 E119.76419
G0 F4320 X43.189 Y43.684
G1 F1800 X52.431 Y52.926 E120.26439
G0 F4320 X52.926 Y52.926
G1 F1800 X43.189 Y43.189 E120.79137
G0 F4320 X43.189 Y42.694
G1 F1800 X53.421 Y52.926 E121.34515
G0 F4320 X53.916 Y52.926
G1 F1800 X43.189 Y42.199 E121.92571
G0 F4320 X43.189 Y41.704
G1 F1800 X54.411 Y52.926 E122.53307
G0 F4320 X54.906 Y52.926
G1 F1800 X43.189 Y41.209 E123.16721
G0 F4320 X43.189 Y40.714
G1 F1800 X55.401 Y52.926 E123.82815
G0 F4320 X55.896 Y52.926
G1 F1800 X43.189 Y40.219 E124.51588
G0 F4320 X43.189 Y39.724
G1 F1800 X56.391 Y52.926 E125.23039
G0 F4320 X56.886 Y52.926
G1 F1800 X43.189 Y39.229 E125.9717
G0 F4320 X43.189 Y38.734
G1 F1800 X57.381 Y52.926 E126.7398
G0 F4320 X57.876 Y52.926
G1 F1800 X43.189 Y38.239 E127.53469
G0 F4320 X43.189 Y37.744
G1 F1800 X58.371 Y52.926 E128.35636
G0 F4320 X58.866 Y52.926
G1 F1800 X43.189 Y37.249 E129.20483
G0 F4320 X43.198 Y36.763
G1 F1800 X59.361 Y52.926 E130.0796
G0 F4320 X59.856 Y52.926
G1 F1800 X43.308 Y36.378 E130.97521
G0 F4320 X43.803 Y36.378
G1 F1800 X60.352 Y52.927 E131.87088
G0 F4320 X60.847 Y52.927
G1 F1800 X44.298 Y36.378 E132.76654
G0 F4320 X44.793 Y36.378
G1 F1800 X61.342 Y52.927 E133.6622
G0 F4320 X61.837 Y52.927
G1 F1800 X45.288 Y36.378 E134.55786
G0 F4320 X45.783 Y36.378
G1 F1800 X62.332 Y52.927 E135.45353
G0 F4320 X62.827 Y52.927
G1 F1800 X46.278 Y36.378 E136.34919
G0 F4320 X46.772 Y36.377
G1 F1800 X63.322 Y52.927 E137.24491
G0 F4320 X63.817 Y52.927
G1 F1800 X47.267 Y36.377 E138.14062
G0 F4320 X47.762 Y36.377
G1 F1800 X64.312 Y52.927 E139.03634
G0 F4320 X64.807 Y52.927
G1 F1800 X48.257 Y36.377 E139.93206
G0 F4320 X48.752 Y36.377
G1 F1800 X65.302 Y52.927 E140.82777
G0 F4320 X65.796 Y52.927
G1 F1800 X49.247 Y36.377 E141.72346
G0 F4320 X49.742 Y36.377
G1 F1800 X66.291 Y52.927 E142.61915
G0 F4320 X66.786 Y52.927
G1 F1800 X50.236 Y36.377 E143.51487
G0 F4320 X50.731 Y36.377
G1 F1800 X67.281 Y52.927 E144.41059
G0 F4320 X67.776 Y52.927
G1 F1800 X51.226 Y36.377 E145.30631
G0 F4320 X51.721 Y36.377
G1 F1800 X68.271 Y52.927 E146.20202
G0 F4320 X68.766 Y52.927
G1 F1800 X52.216 Y36.377 E147.09774
G0 F4320 X52.711 Y36.377
G1 F1800 X69.261 Y52.927 E147.99346
G0 F4320 X69.756 Y52.927
G1 F1800 X53.206 Y36.377 E148.88917
G1 X53.144 Y36.315
G0 F4320 X53.144 Y35.964
G0 X43.214 Y36.028
G0 X42.858 Y36.682
G0 X42.778 Y61.503
G0 X43.189 Y61.503
G1 F1800 X65.308 Y83.622 E150.0863
G0 F4320 X64.813 Y83.622
G1 F1800 X43.189 Y61.998 E151.25663
G0 F4320 X43.189 Y62.493
