;FLAVOR:Marlin
;TIME:600
;Filament used: 0.50381m
;Layer height: 0.21875
;MINX:52.7
;MINY:52.7
;MINZ:0.263
;MAXX:67.3
;MAXY:67.3
;MAXZ:14.936
;Generated with Cura_SteamEngine 4.6.2
M140 S55
M105
M190 S55
M104 S195
M105
M109 S195
M82 ;absolute extrusion mode
G21;(metric values)
G90;(absolute positioning)
M82;(set extruder to absolute mode)
M107;(start with the fan off)
G28;(Home the printer)
G92 E0;(Reset the extruder to 0)
G0 Z5 E5 F500;(Move up and prime the nozzle)
G0 X-1 Z0;(Move outside the printable area)
G1 Y60 E8 F500;(Draw a priming/wiping line to the rear)
G1 X-1;(Move a little closer to the print area)
G1 Y10 E16 F500;(draw more priming/wiping)
G1 E15 F250;(Small retract)
G92 E0;(Zero the extruder)
G92 E0
G92 E0
G1 F2400 E-2.5
;LAYER_COUNT:68
;LAYER:0
M107
;MESH:prueba_caja_tornillo.stl
G0 F4320 X58.375 Y53.625 Z0.263
;TYPE:WALL-INNER
G1 F2400 E0
G1 F1800 X53.375 Y53.625 E0.19135
G1 X53.375 Y53.375 E0.20092
G1 X58.375 Y53.375 E0.3376
G1 X65.447 Y53.375 E0.60824
G1 X65.755 Y53.41 E0.6201
G1 X65.984 Y53.49 E0.62939
G1 X66.206 Y53.631 E0.63945
G1 X66.371 Y53.796 E0.64838
G1 X66.51 Y54.019 E0.65844
G1 X66.588 Y54.24 E0.66741
G1 X66.625 Y54.659 E0.6835
G1 X66.625 Y61.625 E0.95009
G1 X66.625 Y66.625 E1.14144
G1 X66.39 Y66.625 E1.15044
G1 X66.372 Y61.625 E1.28383
G1 X59.557 Y61.625 E1.54464
G1 X59.247 Y61.589 E1.55659
G1 X59.011 Y61.507 E1.56615
G1 X58.799 Y61.373 E1.57575
G1 X58.626 Y61.2 E1.58511
G1 X58.494 Y60.986 E1.59473
G1 X58.41 Y60.745 E1.6045
G1 X58.375 Y60.408 E1.61747
G1 X58.375 Y54.267 E1.85248
G0 F1620 X58.375 Y53.625
G1 F2400 E-0.64752
G0 F4320 X58.56 Y58.502
G0 X59.451 Y58.502
G0 X59.617 Y58.502
G1 F2400 E1.85248
G1 F1800 X59.675 Y58.954 E1.86992
G1 X59.836 Y59.379 E1.88731
G1 X60.096 Y59.75 E1.90465
G1 X60.434 Y60.05 E1.92195
G1 X60.836 Y60.26 E1.93931
G1 X61.276 Y60.368 E1.95664
G1 X61.731 Y60.367 E1.97406
G1 X62.17 Y60.258 E1.99137
G1 X62.573 Y60.047 E2.00878
G1 X62.912 Y59.742 E2.02623
G1 X63.166 Y59.372 E2.0434
G1 X63.328 Y58.949 E2.06074
G1 X63.38 Y58.5 E2.07804
G1 X63.327 Y58.05 E2.09538
G1 X63.163 Y57.621 E2.11295
G1 X62.905 Y57.25 E2.13025
G1 X62.566 Y56.95 E2.14757
G1 X62.164 Y56.74 E2.16493
G1 X61.724 Y56.632 E2.18227
G1 X61.271 Y56.632 E2.1996
G1 X60.828 Y56.743 E2.21708
G1 X60.428 Y56.953 E2.23437
G1 X60.09 Y57.255 E2.25172
G1 X59.832 Y57.629 E2.2691
G1 X59.758 Y57.826 E2.27716
G0 F1620 X59.673 Y58.053
G0 X59.617 Y58.502
G0 F4320 X59.97 Y58.501
G1 F1800 X60.017 Y58.869 E2.29136
G1 X60.148 Y59.214 E2.30548
G1 X60.359 Y59.516 E2.31958
G1 X60.634 Y59.76 E2.33365
G1 X60.96 Y59.93 E2.34772
G1 X61.318 Y60.018 E2.36183
G1 X61.688 Y60.017 E2.37599
G1 X62.045 Y59.928 E2.39007
G1 X62.372 Y59.757 E2.40419
G1 X62.647 Y59.51 E2.41833
G1 X62.854 Y59.208 E2.43235
G1 X62.985 Y58.865 E2.4464
G1 X63.028 Y58.5 E2.46046
G1 X62.985 Y58.135 E2.47453
G1 X62.851 Y57.786 E2.48884
G1 X62.641 Y57.484 E2.50291
G1 X62.366 Y57.24 E2.51698
G1 X62.04 Y57.07 E2.53105
G1 X61.682 Y56.982 E2.54516
G1 X61.314 Y56.982 E2.55924
G1 X60.954 Y57.072 E2.57345
G1 X60.629 Y57.243 E2.5875
G1 X60.354 Y57.488 E2.60159
G1 X60.145 Y57.792 E2.61571
G1 X60.125 Y57.843 E2.61781
G0 F1620 X60.015 Y58.137
G0 X59.97 Y58.501
G1 F2400 E0.11781
G0 F4320 X59.965 Y57.145
G0 X58.56 Y57.145
G0 X58.025 Y53.975
G1 F2400 E2.61781
G1 F1800 X53.025 Y53.975 E2.80916
G1 X53.025 Y53.025 E2.84552
G1 X65.468 Y53.025 E3.32171
G1 X65.832 Y53.066 E3.33573
G1 X66.139 Y53.174 E3.34818
G1 X66.423 Y53.354 E3.36105
G1 X66.648 Y53.579 E3.37323
G1 X66.827 Y53.866 E3.38617
G1 X66.933 Y54.168 E3.39842
G1 X66.975 Y54.639 E3.41652
G1 X66.975 Y66.975 E3.88861
G1 X66.041 Y66.975 E3.92436
G1 X66.023 Y61.975 E4.11571
G1 X59.534 Y61.975 E4.36404
G1 X59.17 Y61.933 E4.37807
G1 X58.859 Y61.824 E4.39068
G1 X58.581 Y61.649 E4.40325
G1 X58.347 Y61.415 E4.41591
G1 X58.175 Y61.137 E4.42842
G1 X58.066 Y60.824 E4.44111
G1 X58.025 Y60.425 E4.45646
G1 X58.025 Y54.669 E4.67674
G0 F1620 X58.025 Y53.975
G0 F4320 X57.7 Y54.3
;TYPE:WALL-OUTER
G1 F1800 X52.7 Y54.3 E4.86809
G1 X52.7 Y52.7 E4.92932
G1 X65.486 Y52.7 E5.41864
G1 X65.903 Y52.747 E5.4347
G1 X66.285 Y52.882 E5.45021
G1 X66.627 Y53.098 E5.46569
G1 X66.904 Y53.375 E5.48068
G1 X67.122 Y53.724 E5.49643
G1 X67.253 Y54.099 E5.51163
G1 X67.3 Y54.621 E5.53169
G1 X67.3 Y67.3 E6.01691
G1 X65.717 Y67.3 E6.07749
G1 X65.699 Y62.3 E6.26884
G1 X59.514 Y62.3 E6.50554
G1 X59.095 Y62.252 E6.52168
G1 X58.719 Y62.12 E6.53693
G1 X58.376 Y61.904 E6.55245
G1 X58.092 Y61.62 E6.56782
G1 X57.879 Y61.276 E6.5833
G1 X57.747 Y60.897 E6.59866
G1 X57.7 Y60.438 E6.61632
G1 X57.7 Y54.994 E6.82466
G0 F1620 X57.7 Y54.3
G0 F4320 X57.5 Y54.3
G1 F2400 E4.32466
G0 F4320 X57.5 Y54.025
G0 X58.56 Y59.694
G0 X59.688 Y59.457
G0 X61.332 Y59.907
G0 X62.367 Y59.694
G0 X62.185 Y59.488
G1 F2400 E6.82466
G1 F1800 X62.401 Y59.294 E6.83577
G1 X62.564 Y59.056 E6.84681
G1 X62.667 Y58.787 E6.85783
G1 X62.701 Y58.5 E6.86889
G1 X62.667 Y58.213 E6.87995
G1 X62.562 Y57.939 E6.89118
G1 X62.397 Y57.702 E6.90223
G1 X62.18 Y57.51 E6.91332
G1 X61.924 Y57.376 E6.92438
G1 X61.643 Y57.307 E6.93545
G1 X61.354 Y57.307 E6.94651
G1 X61.071 Y57.378 E6.95768
G1 X60.815 Y57.512 E6.96874
G1 X60.6 Y57.704 E6.97977
G1 X60.435 Y57.944 E6.99092
G1 X60.333 Y58.215 E7.002
G1 X60.298 Y58.5 E7.01299
G1 X60.335 Y58.79 E7.02417
G1 X60.438 Y59.061 E7.03527
G1 X60.603 Y59.298 E7.04632
G1 X60.82 Y59.49 E7.05741
G1 X61.076 Y59.624 E7.06847
G1 X61.357 Y59.693 E7.07954
G1 X61.648 Y59.692 E7.09068
G1 X61.69 Y59.681 E7.09234
G0 F1620 X61.929 Y59.622
G0 X62.185 Y59.488
G0 F4320 X62.333 Y59.355
G0 X62.516 Y59.56
G0 X63.17 Y59.967
;TYPE:SKIN
G1 F1800 X63.469 Y59.531 E7.11257
G1 X63.661 Y59.031 E7.13307
G1 X63.722 Y58.5 E7.15352
G1 X63.659 Y57.968 E7.17403
G1 X63.466 Y57.461 E7.19479
G1 X63.161 Y57.023 E7.21521
G1 X62.76 Y56.668 E7.23571
G1 X62.285 Y56.42 E7.25621
G1 X61.765 Y56.292 E7.27671
G1 X61.229 Y56.292 E7.29722
G1 X60.706 Y56.423 E7.31786
G1 X60.233 Y56.671 E7.33829
G1 X59.833 Y57.028 E7.35881
G1 X59.529 Y57.47 E7.37934
G1 X59.341 Y57.971 E7.39982
G1 X59.275 Y58.502 E7.4203
G1 X59.343 Y59.037 E7.44094
G1 X59.533 Y59.539 E7.46148
G1 X59.84 Y59.978 E7.48198
G1 X60.24 Y60.332 E7.50242
G1 X60.715 Y60.58 E7.52293
G1 X61.235 Y60.708 E7.54342
G1 X61.773 Y60.707 E7.56401
G1 X62.292 Y60.578 E7.58448
G1 X62.633 Y60.4 E7.5992
G0 F1620 X62.769 Y60.329
G0 X63.17 Y59.967
G1 F2400 E5.0992
G0 F4320 X62.977 Y59.799
G0 X60.339 Y60.187
G0 X60.339 Y61.44
G0 X59.564 Y61.539
G0 X59.578 Y61.285
G1 F2400 E7.5992
G1 F1800 X59.321 Y61.255 E7.6091
G1 X59.16 Y61.199 E7.61563
G1 X59.016 Y61.108 E7.62215
G1 X58.894 Y60.986 E7.62875
G1 X58.804 Y60.839 E7.63534
G1 X58.744 Y60.668 E7.64228
G1 X58.715 Y60.393 E7.65286
G1 X58.715 Y53.715 E7.90843
G1 X65.426 Y53.715 E8.16526
G1 X65.678 Y53.744 E8.17497
G1 X65.836 Y53.799 E8.18137
G1 X65.989 Y53.896 E8.1883
G1 X66.104 Y54.011 E8.19453
G1 X66.202 Y54.169 E8.20164
G1 X66.254 Y54.316 E8.20761
G1 X66.285 Y54.659 E8.22079
G1 X66.285 Y61.285 E8.47436
G1 X60.272 Y61.285 E8.70448
G0 F1620 X59.578 Y61.285
G0 F4320 X59.548 Y61.537
G0 X58.893 Y61.26
G0 X58.46 Y60.356
G0 X58.871 Y60.356
G1 F1800 X59.642 Y61.127 E8.74621
G0 F4320 X60.137 Y61.127
G1 F1800 X58.871 Y59.861 E8.81473
G0 F4320 X58.871 Y59.366
G1 F1800 X60.632 Y61.127 E8.91004
G0 F4320 X60.751 Y60.751
G1 F1800 X61.127 Y61.127 E8.93039
G0 F4320 X61.359 Y60.864
G1 F1800 X61.622 Y61.127 E8.94462
G0 F4320 X61.842 Y60.852
G1 F1800 X62.117 Y61.127 E8.9595
G0 F4320 X62.238 Y60.753
G1 F1800 X62.612 Y61.127 E8.97975
G0 F4320 X63.107 Y61.127
G1 F1800 X62.583 Y60.603 E9.00811
G0 F4320 X62.898 Y60.423
G1 F1800 X63.602 Y61.127 E9.04621
G0 F4320 X64.097 Y61.127
G1 F1800 X63.158 Y60.188 E9.09703
G0 F4320 X63.388 Y59.923
G1 F1800 X64.592 Y61.127 E9.16219
G0 F4320 X65.087 Y61.127
G1 F1800 X63.59 Y59.63 E9.24321
G0 F4320 X63.732 Y59.278
G1 F1800 X65.582 Y61.127 E9.34331
G0 F4320 X66.077 Y61.127
G1 F1800 X63.834 Y58.884 E9.4647
G0 F4320 X63.87 Y58.425
G1 F1800 X66.127 Y60.682 E9.58686
G0 F4320 X66.127 Y60.187
G1 F1800 X63.775 Y57.835 E9.71415
G1 X63.713 Y57.773
G0 F4320 X63.363 Y57.905
G0 X62.07 Y56.629
G0 X62.168 Y56.229
G1 F1800 X59.812 Y53.872 E9.84169
G0 F4320 X59.317 Y53.872
G1 F1800 X61.579 Y56.135 E9.96414
G0 F4320 X61.108 Y56.159
G1 F1800 X58.871 Y53.921 E10.08524
G0 F4320 X58.871 Y54.416
G1 F1800 X60.712 Y56.258 E10.1849
G0 F4320 X60.377 Y56.417
G1 F1800 X58.871 Y54.911 E10.26641
G0 F4320 X58.871 Y55.406
G1 F1800 X60.07 Y56.605 E10.3313
G0 F4320 X59.807 Y56.837
G1 F1800 X58.871 Y55.901 E10.38196
G0 F4320 X58.871 Y56.396
G1 F1800 X59.585 Y57.11 E10.42061
G0 F4320 X59.385 Y57.405
G1 F1800 X58.871 Y56.891 E10.44842
G0 F4320 X58.871 Y57.386
G1 F1800 X59.25 Y57.765 E10.46894
G0 F4320 X58.871 Y57.881
G1 F1800 X59.157 Y58.168 E10.48444
G0 F4320 X58.871 Y58.376
G1 F1800 X59.133 Y58.638 E10.49862
G0 F4320 X58.871 Y58.871
G1 F1800 X59.259 Y59.259 E10.51962
G1 F2400 E8.01962
G0 F4320 X59.644 Y59.115
G0 X60.333 Y56.816
G0 X60.333 Y53.56
G0 X60.307 Y53.872
G1 F2400 E10.51962
G1 F1800 X66.127 Y59.692 E10.83461
G0 F4320 X66.127 Y59.197
G1 F1800 X60.801 Y53.872 E11.12284
G0 F4320 X61.296 Y53.872
G1 F1800 X66.127 Y58.702 E11.38427
G0 F4320 X66.127 Y58.207
M104 S190
G1 F1800 X61.791 Y53.872 E11.61892
G0 F4320 X62.286 Y53.872
G1 F1800 X66.127 Y57.712 E11.82677
G0 F4320 X66.127 Y57.217
G1 F1800 X62.781 Y53.872 E12.00784
G0 F4320 X63.276 Y53.872
G1 F1800 X66.127 Y56.722 E12.16211
G0 F4320 X66.127 Y56.227
G1 F1800 X63.771 Y53.872 E12.2896
G0 F4320 X64.266 Y53.872
G1 F1800 X66.127 Y55.732 E12.39029
G0 F4320 X66.127 Y55.237
G1 F1800 X64.761 Y53.872 E12.46419
G0 F4320 X65.256 Y53.872
G1 F1800 X66.127 Y54.742 E12.51131
G1 X66.189 Y54.804
G0 F4320 X66.775 Y54.804
G1 F2400 E10.01131
;MESH:NONMESH
G0 F600 X66.775 Y54.804 Z0.482
G0 F4320 X66.44 Y58.504
G0 X63.546 Y58.5
G0 X62.308 Y59.665
G0 X61.332 Y59.907
G0 X59.617 Y58.504
;TIME_ELAPSED:42.339795
;LAYER:1
M140 S50
M106 S255
;TYPE:WALL-INNER
;MESH:prueba_caja_tornillo.stl
G1 F2400 E12.51131
G1 X59.677 Y58.961 E12.52599
G1 X59.84 Y59.382 E12.54038
G1 X60.098 Y59.754 E12.55481
G1 X60.442 Y60.056 E12.5694
G1 X60.844 Y60.262 E12.58379
G1 X61.282 Y60.368 E12.59815
G1 X61.74 Y60.367 E12.61275
G1 X62.18 Y60.253 E12.62723
G1 X62.576 Y60.041 E12.64155
G1 X62.915 Y59.74 E12.65599
G1 X63.169 Y59.366 E12.6704
G1 X63.328 Y58.949 E12.68462
G1 X63.38 Y58.5 E12.69903
G1 X63.327 Y58.048 E12.71353
G1 X63.16 Y57.616 E12.72829
G1 X62.902 Y57.246 E12.74266
G1 X62.558 Y56.944 E12.75725
G1 X62.156 Y56.738 E12.77164
G1 X61.72 Y56.632 E12.78594
G1 X61.269 Y56.632 E12.80032
G1 X60.822 Y56.746 E12.81502
G1 X60.425 Y56.957 E12.82934
G1 X60.089 Y57.254 E12.84363
G1 X59.83 Y57.635 E12.85832
G1 X59.806 Y57.697 E12.86043
G0 F2160 X59.672 Y58.057
G0 X59.617 Y58.504
G1 F2400 E10.36043
G0 F5760 X60.703 Y59.672
G0 X61.53 Y59.907
G0 X63.268 Y59.514
G0 X63.268 Y61.44
G0 X66.375 Y61.625
G1 F2400 E12.86043
G1 X59.563 Y61.625 E13.07751
G1 X59.238 Y61.586 E13.08795
G1 X59.017 Y61.509 E13.0954
G1 X58.798 Y61.37 E13.10367
G1 X58.622 Y61.192 E13.11165
G1 X58.488 Y60.978 E13.11969
G1 X58.413 Y60.755 E13.12719
G1 X58.375 Y60.317 E13.1412
G1 X58.375 Y53.625 E13.35446
G1 X53.375 Y53.625 E13.51379
G1 X53.375 Y53.375 E13.52176
G1 X58.375 Y53.375 E13.63557
G1 X65.439 Y53.375 E13.86068
G1 X65.761 Y53.413 E13.87102
G1 X65.992 Y53.495 E13.87883
G1 X66.207 Y53.632 E13.88695
G1 X66.371 Y53.796 E13.89434
G1 X66.513 Y54.026 E13.90296
G1 X66.585 Y54.23 E13.90985
G1 X66.625 Y54.843 E13.92943
G1 X66.625 Y61.625 E14.14555
G1 X66.625 Y66.625 E14.30489
G1 X66.375 Y66.625 E14.31286
G1 X66.375 Y61.625 E14.42667
G0 F5760 X66.025 Y61.975
G1 F2400 X59.538 Y61.975 E14.63339
G1 X59.162 Y61.93 E14.64546
G1 X58.862 Y61.825 E14.65559
G1 X58.578 Y61.645 E14.6663
G1 X58.346 Y61.411 E14.6768
G1 X58.171 Y61.131 E14.68733
G1 X58.067 Y60.824 E14.69765
G1 X58.025 Y60.335 E14.7133
G1 X58.025 Y53.975 E14.91597
G1 X53.025 Y53.975 E15.07531
G1 X53.025 Y53.025 E15.10558
G1 X65.463 Y53.025 E15.50195
G1 X65.84 Y53.07 E15.51405
G1 X66.145 Y53.178 E15.52436
G1 X66.425 Y53.356 E15.53493
G1 X66.648 Y53.579 E15.54498
G1 X66.83 Y53.872 E15.55597
G1 X66.931 Y54.161 E15.56573
G1 X66.975 Y54.835 E15.58725
G1 X66.975 Y66.975 E15.97412
G1 X66.025 Y66.975 E16.0044
G1 X66.025 Y62.809 E16.13716
G0 F2160 X66.025 Y61.975
G1 F2400 E13.63716
G0 F5760 X62.985 Y61.44
G0 X62.391 Y60.328
G0 X62.783 Y59.122
G0 X62.985 Y58.133
G1 F2400 E16.13716
G1 X62.849 Y57.782 E16.14915
G1 X62.639 Y57.481 E16.16085
G1 X62.36 Y57.236 E16.17268
G1 X62.033 Y57.068 E16.1844
G1 X61.678 Y56.982 E16.19604
G1 X61.313 Y56.982 E16.20767
G1 X60.949 Y57.075 E16.21964
G1 X60.626 Y57.247 E16.2313
G1 X60.354 Y57.487 E16.24286
G1 X60.143 Y57.797 E16.25481
G1 X60.014 Y58.141 E16.26652
G1 X59.97 Y58.502 E16.27811
G1 X60.019 Y58.874 E16.29007
G1 X60.151 Y59.217 E16.30178
G1 X60.361 Y59.519 E16.3135
G1 X60.64 Y59.764 E16.32533
G1 X60.967 Y59.932 E16.33705
G1 X61.323 Y60.018 E16.34872
G1 X61.695 Y60.017 E16.36057
G1 X62.052 Y59.925 E16.37232
G1 X62.374 Y59.752 E16.38397
G1 X62.65 Y59.507 E16.39573
G1 X62.856 Y59.203 E16.40743
G1 X62.985 Y58.865 E16.41896
G1 X62.992 Y58.809 E16.42076
G0 F2160 X63.028 Y58.5
G0 X62.985 Y58.133
G0 F5760 X62.667 Y58.212
;TYPE:WALL-OUTER
G1 F2025 X62.56 Y57.936 E16.4302
G1 X62.395 Y57.699 E16.4394
G1 X62.176 Y57.507 E16.44868
G1 X61.919 Y57.375 E16.45789
G1 X61.639 Y57.307 E16.46707
G1 X61.354 Y57.307 E16.47615
G1 X61.067 Y57.38 E16.48559
G1 X60.813 Y57.516 E16.49477
G1 X60.6 Y57.704 E16.50382
G1 X60.434 Y57.948 E16.51323
G1 X60.332 Y58.219 E16.52245
G1 X60.298 Y58.501 E16.53151
G1 X60.336 Y58.794 E16.54092
G1 X60.44 Y59.064 E16.55014
G1 X60.605 Y59.301 E16.55934
G1 X60.824 Y59.493 E16.56863
G1 X61.081 Y59.625 E16.57783
G1 X61.361 Y59.693 E16.58702
G1 X61.653 Y59.692 E16.59632
G1 X61.933 Y59.62 E16.60553
G1 X62.187 Y59.484 E16.61472
G1 X62.404 Y59.291 E16.62397
G1 X62.566 Y59.052 E16.63317
G1 X62.667 Y58.787 E16.64221
G1 X62.673 Y58.742 E16.64366
G0 F1822.5 X62.701 Y58.5
G0 X62.667 Y58.212
G0 F5760 X62.595 Y58.026
G1 F2400 E14.14366
G0 F5760 X62.852 Y57.927
G0 X63.04 Y59.85
G0 X63.04 Y61.44
G0 X65.7 Y62.025
G0 X65.7 Y62.3
G1 F2400 E16.64366
G1 F2025 X59.516 Y62.3 E16.84072
G1 X59.089 Y62.249 E16.85443
G1 X58.719 Y62.12 E16.86691
G1 X58.372 Y61.899 E16.88002
G1 X58.089 Y61.614 E16.89282
G1 X57.875 Y61.27 E16.90573
G1 X57.746 Y60.892 E16.91846
G1 X57.7 Y60.351 E16.93576
G1 X57.7 Y54.3 E17.12859
G1 X52.7 Y54.3 E17.28793
G1 X52.7 Y52.7 E17.33892
G1 X65.484 Y52.7 E17.74631
G1 X65.913 Y52.751 E17.76008
G1 X66.287 Y52.884 E17.77273
G1 X66.632 Y53.103 E17.78575
G1 X66.904 Y53.375 E17.79801
G1 X67.125 Y53.73 E17.81133
G1 X67.252 Y54.094 E17.82362
G1 X67.3 Y54.835 E17.84728
G1 X67.3 Y67.3 E18.24451
G1 X65.7 Y67.3 E18.2955
G1 X65.7 Y63.134 E18.42826
G0 F1822.5 X65.7 Y62.3
G0 F5760 X65.5 Y62.3
G0 X65.5 Y62.025
G0 X66.468 Y61.468
G0 X66.285 Y61.285
;TYPE:SKIN
G1 F1500 X59.588 Y61.285 E18.64167
G1 X59.313 Y61.252 E18.6505
G1 X59.165 Y61.201 E18.65549
G1 X59.011 Y61.103 E18.6613
G1 X58.892 Y60.982 E18.66671
G1 X58.797 Y60.831 E18.6724
G1 X58.747 Y60.682 E18.67741
G1 X58.715 Y60.317 E18.68908
G1 X58.715 Y53.715 E18.89947
G1 X65.415 Y53.715 E19.11298
G1 X65.682 Y53.747 E19.12155
G1 X65.843 Y53.803 E19.12698
G1 X65.99 Y53.897 E19.13254
G1 X66.104 Y54.011 E19.13768
G1 X66.205 Y54.173 E19.14377
G1 X66.247 Y54.296 E19.14791
G1 X66.285 Y54.865 E19.16608
G1 X66.285 Y60.451 E19.34409
G0 F1350 X66.285 Y61.285
G1 F2400 E16.84409
G0 F5760 X66.54 Y61.285
G0 X62.98 Y61.44
G0 X62.387 Y60.33
G0 X62.98 Y59.797
G0 X63.173 Y59.966
G1 F2400 E19.34409
G1 F1500 X63.472 Y59.524 E19.3611
G1 X63.661 Y59.031 E19.37792
G1 X63.722 Y58.5 E19.39496
G1 X63.659 Y57.966 E19.41209
G1 X63.463 Y57.455 E19.42953
G1 X63.157 Y57.017 E19.44656
G1 X62.75 Y56.66 E19.46381
G1 X62.275 Y56.417 E19.48081
G1 X61.761 Y56.292 E19.49767
G1 X61.226 Y56.292 E19.51472
G1 X60.698 Y56.427 E19.53209
G1 X60.23 Y56.675 E19.54897
G1 X59.832 Y57.027 E19.5659
G1 X59.525 Y57.478 E19.58328
G1 X59.34 Y57.976 E19.60021
G1 X59.275 Y58.506 E19.61723
G1 X59.345 Y59.046 E19.63458
G1 X59.537 Y59.543 E19.65156
G1 X59.842 Y59.982 E19.6686
G1 X60.25 Y60.34 E19.68589
G1 X60.725 Y60.583 E19.7029
G1 X61.241 Y60.708 E19.71982
