;FLAVOR:Marlin
;TIME:2040
;Filament used: 0.731301m
;Layer height: 0.0875
;MINX:43.09
;MINY:51.425
;MINZ:0.263
;MAXX:72.909
;MAXY:80.411
;MAXZ:11.967
;Generated with Cura_SteamEngine 4.6.2
M140 S55
M105
M190 S55
M104 S195
M105
M109 S195
M82 ;absolute extrusion mode
G21;(metric values)
G90;(absolute positioning)
M82;(set extruder to absolute mode)
M107;(start with the fan off)
G28;(Home the printer)
G92 E0;(Reset the extruder to 0)
G0 Z5 E5 F500;(Move up and prime the nozzle)
G0 X-1 Z0;(Move outside the printable area)
G1 Y60 E8 F500;(Draw a priming/wiping line to the rear)
G1 X-1;(Move a little closer to the print area)
G1 Y10 E16 F500;(draw more priming/wiping)
G1 E15 F250;(Small retract)
G92 E0;(Zero the extruder)
G92 E0
G92 E0
G1 F2400 E-2.5
;LAYER_COUNT:134
;LAYER:0
M107
G0 F4320 X48.931 Y52.59 Z0.263
;TYPE:SKIRT
G1 F2400 E0
G1 F1800 X49.446 Y52.215 E0.02438
G1 X50.004 Y51.909 E0.04874
G1 X50.596 Y51.674 E0.07311
G1 X51.213 Y51.515 E0.09749
G1 X51.845 Y51.435 E0.12187
G1 X67.835 Y51.425 E0.73381
G1 X68.471 Y51.465 E0.7582
G1 X69.096 Y51.584 E0.78255
G1 X69.702 Y51.781 E0.80693
G1 X70.278 Y52.052 E0.83129
G1 X70.816 Y52.393 E0.85567
G1 X71.307 Y52.799 E0.88005
G1 X71.743 Y53.263 E0.90442
G1 X72.118 Y53.778 E0.9288
G1 X72.425 Y54.335 E0.95314
G1 X72.66 Y54.927 E0.97752
G1 X72.819 Y55.544 E1.0019
G1 X72.9 Y56.176 E1.02628
G1 X72.909 Y63.001 E1.28748
G1 X72.869 Y63.636 E1.31183
G1 X72.704 Y64.426 E1.34271
G1 X72.435 Y65.206 E1.37429
G1 X72.144 Y65.773 E1.39868
G1 X71.785 Y66.299 E1.42305
G1 X71.363 Y66.776 E1.44742
G1 X70.866 Y67.211 E1.4727
G1 X70.175 Y67.69 E1.50488
G1 X69.605 Y67.975 E1.52926
G1 X68.901 Y68.213 E1.5577
G1 X68.909 Y75.001 E1.81748
G1 X68.869 Y75.636 E1.84183
G1 X68.704 Y76.426 E1.87272
G1 X68.435 Y77.206 E1.90429
G1 X68.144 Y77.773 E1.92868
G1 X67.785 Y78.299 E1.95305
G1 X67.363 Y78.776 E1.97743
G1 X66.866 Y79.211 E2.0027
G1 X66.175 Y79.69 E2.03488
G1 X65.605 Y79.975 E2.05927
G1 X64.869 Y80.224 E2.089
G1 X64.126 Y80.371 E2.11799
G1 X63.501 Y80.41 E2.14196
G1 X53.13 Y80.409 E2.53885
G1 X52.494 Y80.369 E2.56324
G1 X52.272 Y80.327 E2.57189
G1 X51.364 Y80.411 E2.60678
G1 X48.496 Y80.409 E2.71654
G1 X47.861 Y80.369 E2.74089
G1 X47.235 Y80.249 E2.76529
G1 X46.693 Y80.077 E2.78705
G1 X45.904 Y79.733 E2.81999
G1 X45.361 Y79.399 E2.84438
G1 X44.865 Y78.999 E2.86877
G1 X44.423 Y78.541 E2.89313
G1 X44.007 Y77.977 E2.91995
G1 X43.59 Y77.246 E2.95216
G1 X43.355 Y76.654 E2.97653
G1 X43.196 Y76.038 E3.00088
G1 X43.105 Y75.097 E3.03706
G1 X43.09 Y70.327 E3.21961
G1 X43.091 Y68.497 E3.28964
G1 X43.131 Y67.862 E3.31399
G1 X43.251 Y67.236 E3.33838
G1 X43.448 Y66.63 E3.36277
G1 X43.719 Y66.054 E3.38713
G1 X44.061 Y65.517 E3.4115
G1 X44.467 Y65.026 E3.43588
G1 X44.931 Y64.59 E3.46025
G1 X45.446 Y64.215 E3.48463
G1 X46.004 Y63.909 E3.50898
G1 X46.596 Y63.674 E3.53336
G1 X47.147 Y63.532 E3.55513
G1 X47.105 Y63.097 E3.57186
G1 X47.09 Y58.327 E3.75441
G1 X47.091 Y56.497 E3.82444
G1 X47.131 Y55.862 E3.84879
G1 X47.251 Y55.236 E3.87318
G1 X47.448 Y54.63 E3.89757
G1 X47.719 Y54.054 E3.92193
G1 X48.061 Y53.517 E3.94629
G1 X48.431 Y53.07 E3.9685
G0 F1620 X48.467 Y53.026
G0 X48.931 Y52.59
G0 F4320 X49.272 Y52.765
G1 F1800 X49.781 Y52.421 E3.99201
G1 X50.331 Y52.146 E4.01555
G1 X50.911 Y51.945 E4.03904
G1 X51.513 Y51.82 E4.06257
G1 X52.166 Y51.775 E4.08762
G1 X67.835 Y51.775 E4.68727
G1 X68.448 Y51.815 E4.71078
G1 X69.051 Y51.934 E4.7343
G1 X69.633 Y52.131 E4.75781
G1 X70.185 Y52.401 E4.78133
G1 X70.697 Y52.741 E4.80485
G1 X71.161 Y53.144 E4.82837
G1 X71.568 Y53.604 E4.85188
G1 X71.913 Y54.113 E4.87541
G1 X72.188 Y54.662 E4.89891
G1 X72.39 Y55.243 E4.92245
G1 X72.514 Y55.844 E4.94593
G1 X72.56 Y56.501 E4.97114
G1 X72.559 Y63.001 E5.21989
G1 X72.519 Y63.614 E5.2434
G1 X72.369 Y64.328 E5.27132
G1 X72.105 Y65.086 E5.30204
G1 X71.821 Y65.631 E5.32556
G1 X71.469 Y66.135 E5.34909
G1 X71.054 Y66.588 E5.3726
G1 X70.653 Y66.933 E5.39284
G1 X69.98 Y67.398 E5.42415
G1 X69.429 Y67.67 E5.44766
G1 X68.783 Y67.884 E5.47371
G1 X68.521 Y67.941 E5.48397
G1 X68.56 Y68.501 E5.50545
G1 X68.559 Y75.001 E5.75421
G1 X68.519 Y75.614 E5.77772
G1 X68.369 Y76.328 E5.80564
G1 X68.105 Y77.086 E5.83635
G1 X67.821 Y77.631 E5.85987
G1 X67.469 Y78.135 E5.8834
G1 X67.054 Y78.588 E5.90691
G1 X66.653 Y78.933 E5.92716
G1 X65.98 Y79.398 E5.95846
G1 X65.429 Y79.67 E5.98198
G1 X64.783 Y79.884 E6.00802
G1 X64.061 Y80.027 E6.03619
G1 X63.501 Y80.06 E6.05766
G1 X53.13 Y80.059 E6.45455
G1 X52.516 Y80.019 E6.4781
G1 X52.26 Y79.968 E6.48809
G1 X51.365 Y80.061 E6.52253
G1 X48.497 Y80.059 E6.63229
G1 X47.884 Y80.019 E6.6558
G1 X47.281 Y79.899 E6.67932
G1 X46.608 Y79.669 E6.70654
G1 X46.049 Y79.414 E6.73006
G1 X45.528 Y79.088 E6.75358
G1 X45.054 Y78.697 E6.77709
G1 X44.635 Y78.248 E6.80059
G1 X44.303 Y77.789 E6.82227
G1 X43.897 Y77.077 E6.85364
G1 X43.675 Y76.505 E6.87712
G1 X43.528 Y75.908 E6.90065
G1 X43.455 Y75.096 E6.93185
G1 X43.44 Y70.326 E7.1144
G1 X43.441 Y68.497 E7.1844
G1 X43.481 Y67.884 E7.20791
G1 X43.601 Y67.281 E7.23144
G1 X43.798 Y66.699 E7.25495
G1 X44.068 Y66.148 E7.27843
G1 X44.408 Y65.636 E7.30195
G1 X44.812 Y65.172 E7.3255
G1 X45.272 Y64.765 E7.349
G1 X45.781 Y64.421 E7.37251
G1 X46.331 Y64.146 E7.39605
G1 X46.911 Y63.945 E7.41954
G1 X47.513 Y63.82 E7.44307
G1 X47.455 Y63.096 E7.47087
G1 X47.44 Y58.326 E7.65341
G1 X47.441 Y56.497 E7.72341
G1 X47.481 Y55.884 E7.74692
G1 X47.601 Y55.281 E7.77045
G1 X47.798 Y54.699 E7.79396
G1 X48.068 Y54.148 E7.81745
G1 X48.408 Y53.636 E7.84097
G1 X48.76 Y53.232 E7.86147
G0 F1620 X48.812 Y53.172
G0 X49.272 Y52.765
G0 F4320 X49.156 Y53.325
G1 F1800 X49.612 Y52.948 E7.88412
G1 X50.114 Y52.636 E7.90674
G1 X50.654 Y52.395 E7.92937
G1 X51.221 Y52.228 E7.95199
G1 X51.806 Y52.14 E7.97463
G1 X67.835 Y52.125 E8.58806
G1 X68.425 Y52.165 E8.61069
G1 X69.004 Y52.284 E8.63331
G1 X69.562 Y52.48 E8.65594
G1 X70.088 Y52.75 E8.67857
G1 X70.573 Y53.088 E8.70119
G1 X71.008 Y53.488 E8.72381
G1 X71.385 Y53.944 E8.74645
G1 X71.698 Y54.446 E8.76909
G1 X71.939 Y54.985 E8.79169
G1 X72.106 Y55.553 E8.81434
G1 X72.195 Y56.137 E8.83695
G1 X72.209 Y63.001 E9.09964
G1 X72.169 Y63.591 E9.12227
G1 X72.033 Y64.229 E9.14723
G1 X71.776 Y64.965 E9.17707
G1 X71.498 Y65.488 E9.19973
G1 X71.154 Y65.968 E9.22233
G1 X70.747 Y66.397 E9.24496
G1 X70.278 Y66.779 E9.26811
G1 X69.785 Y67.106 E9.29075
G1 X69.253 Y67.363 E9.31336
G1 X68.697 Y67.545 E9.33575
G1 X68.122 Y67.659 E9.35819
G1 X68.21 Y68.501 E9.39059
G1 X68.209 Y75.001 E9.63934
G1 X68.169 Y75.591 E9.66197
G1 X68.033 Y76.229 E9.68694
G1 X67.776 Y76.965 E9.71677
G1 X67.498 Y77.488 E9.73944
G1 X67.154 Y77.968 E9.76204
G1 X66.747 Y78.397 E9.78467
G1 X66.278 Y78.779 E9.80782
G1 X65.785 Y79.106 E9.83046
G1 X65.253 Y79.363 E9.85307
G1 X64.697 Y79.545 E9.87546
G1 X63.997 Y79.682 E9.90275
G1 X63.501 Y79.71 E9.92177
G1 X53.13 Y79.709 E10.31866
G1 X52.54 Y79.669 E10.3413
G1 X52.254 Y79.61 E10.35247
G1 X51.922 Y79.676 E10.36543
G1 X51.365 Y79.711 E10.38678
G1 X48.497 Y79.709 E10.49654
G1 X47.907 Y79.669 E10.51917
G1 X47.328 Y79.549 E10.5418
G1 X46.733 Y79.342 E10.56591
G1 X46.195 Y79.095 E10.58857
G1 X45.697 Y78.778 E10.61116
G1 X45.245 Y78.396 E10.63381
G1 X44.849 Y77.956 E10.65646
G1 X44.488 Y77.428 E10.68094
G1 X44.205 Y76.909 E10.70356
G1 X43.995 Y76.357 E10.72616
G1 X43.861 Y75.781 E10.7488
G1 X43.805 Y75.095 E10.77514
G1 X43.79 Y70.325 E10.95769
G1 X43.791 Y68.498 E11.02761
G1 X43.831 Y67.908 E11.05024
G1 X43.951 Y67.329 E11.07287
G1 X44.147 Y66.771 E11.0955
G1 X44.417 Y66.245 E11.11813
G1 X44.755 Y65.76 E11.14075
G1 X45.156 Y65.325 E11.16339
G1 X45.612 Y64.948 E11.18603
G1 X46.114 Y64.636 E11.20865
G1 X46.654 Y64.395 E11.23128
G1 X47.221 Y64.228 E11.25391
G1 X47.806 Y64.14 E11.27654
G1 X47.943 Y64.134 E11.28179
G1 X47.861 Y63.781 E11.29566
G1 X47.805 Y63.095 E11.322
G1 X47.79 Y58.325 E11.50455
G1 X47.791 Y56.498 E11.57447
G1 X47.831 Y55.908 E11.5971
G1 X47.951 Y55.329 E11.61973
G1 X48.147 Y54.771 E11.64236
G1 X48.417 Y54.245 E11.66499
G1 X48.697 Y53.844 E11.68371
G0 F1620 X48.755 Y53.76
G0 X49.156 Y53.325
G0 F4320 X49.499 Y53.485
G1 F1800 X49.95 Y53.14 E11.70544
G1 X50.444 Y52.862 E11.72713
G1 X50.972 Y52.656 E11.74882
G1 X51.524 Y52.526 E11.77053
G1 X52.166 Y52.475 E11.79517
G1 X67.835 Y52.475 E12.39482
G1 X68.401 Y52.515 E12.41654
G1 X68.955 Y52.634 E12.43822
G1 X69.487 Y52.83 E12.45992
G1 X69.987 Y53.098 E12.48163
G1 X70.443 Y53.435 E12.50333
G1 X70.848 Y53.832 E12.52504
G1 X71.194 Y54.282 E12.54676
G1 X71.472 Y54.776 E12.56845
G1 X71.678 Y55.304 E12.59014
G1 X71.808 Y55.856 E12.61184
G1 X71.86 Y56.501 E12.63661
G1 X71.859 Y63.001 E12.88536
G1 X71.819 Y63.566 E12.90704
G1 X71.697 Y64.131 E12.92916
G1 X71.446 Y64.844 E12.95809
G1 X71.176 Y65.342 E12.97977
G1 X70.839 Y65.798 E13.00147
G1 X70.227 Y66.377 E13.03371
G1 X69.592 Y66.813 E13.06319
G1 X69.079 Y67.056 E13.08491
G1 X68.493 Y67.236 E13.10837
G1 X67.935 Y67.337 E13.13007
G1 X67.689 Y67.35 E13.1395
G1 X67.808 Y67.856 E13.15939
G1 X67.86 Y68.501 E13.18416
G1 X67.859 Y75.001 E13.43291
G1 X67.819 Y75.566 E13.45459
G1 X67.697 Y76.131 E13.47671
G1 X67.446 Y76.844 E13.50564
G1 X67.176 Y77.342 E13.52732
G1 X66.839 Y77.798 E13.54902
G1 X66.227 Y78.377 E13.58126
G1 X65.592 Y78.813 E13.61074
G1 X65.079 Y79.056 E13.63246
G1 X64.493 Y79.236 E13.65592
G1 X63.935 Y79.337 E13.67762
G1 X53.13 Y79.359 E14.09113
G1 X52.564 Y79.319 E14.11285
G1 X52.272 Y79.256 E14.12428
G1 X51.739 Y79.344 E14.14495
G1 X48.497 Y79.359 E14.26902
G1 X47.932 Y79.319 E14.2907
G1 X47.377 Y79.199 E14.31243
G1 X46.857 Y79.015 E14.33354
G1 X46.343 Y78.777 E14.35522
G1 X45.867 Y78.468 E14.37694
G1 X45.439 Y78.096 E14.39864
G1 X45.068 Y77.667 E14.42034
G1 X44.783 Y77.241 E14.43996
G1 X44.514 Y76.742 E14.46165
G1 X44.317 Y76.21 E14.48336
G1 X44.196 Y75.656 E14.50507
G1 X44.155 Y75.094 E14.52663
G1 X44.14 Y70.324 E14.70918
G1 X44.141 Y68.498 E14.77906
G1 X44.181 Y67.932 E14.80077
G1 X44.301 Y67.378 E14.82247
G1 X44.497 Y66.846 E14.84417
G1 X44.766 Y66.346 E14.86589
G1 X45.102 Y65.89 E14.88757
G1 X45.499 Y65.485 E14.90927
G1 X45.95 Y65.14 E14.93101
G1 X46.444 Y64.862 E14.9527
G1 X46.972 Y64.656 E14.97439
G1 X47.524 Y64.526 E14.99609
G1 X48.166 Y64.475 E15.02074
G1 X48.415 Y64.475 E15.03027
G1 X48.317 Y64.21 E15.04108
G1 X48.196 Y63.656 E15.06278
G1 X48.155 Y63.094 E15.08435
G1 X48.14 Y58.324 E15.26689
G1 X48.141 Y56.498 E15.33678
G1 X48.181 Y55.932 E15.35849
G1 X48.301 Y55.378 E15.38018
G1 X48.497 Y54.846 E15.40188
G1 X48.766 Y54.346 E15.42361
G1 X49.027 Y53.992 E15.44044
G0 F1620 X49.102 Y53.89
G0 X49.499 Y53.485
G0 F4320 X49.842 Y53.654
G1 F1800 X50.285 Y53.343 E15.46116
G1 X50.77 Y53.1 E15.48192
G1 X51.285 Y52.932 E15.50265
G1 X51.819 Y52.841 E15.52338
G1 X67.835 Y52.825 E16.13631
G1 X68.375 Y52.865 E16.15703
G1 X68.904 Y52.984 E16.17778
G1 X69.409 Y53.179 E16.1985
G1 X69.881 Y53.447 E16.21927
G1 X70.307 Y53.781 E16.23999
G1 X70.68 Y54.174 E16.26072
G1 X70.991 Y54.618 E16.28147
G1 X71.234 Y55.102 E16.3022
G1 X71.402 Y55.617 E16.32293
G1 X71.493 Y56.151 E16.34366
G1 X71.509 Y63.001 E16.60581
G1 X71.469 Y63.541 E16.62653
G1 X71.361 Y64.033 E16.64581
G1 X71.118 Y64.721 E16.67373
G1 X70.855 Y65.195 E16.69448
G1 X70.525 Y65.625 E16.71522
G1 X70.015 Y66.099 E16.74187
G1 X69.399 Y66.52 E16.77042
G1 X68.907 Y66.747 E16.79116
G1 X68.407 Y66.897 E16.81113
G1 X67.873 Y66.991 E16.83188
G1 X67.188 Y67.01 E16.85811
G1 X67.402 Y67.617 E16.88274
G1 X67.493 Y68.151 E16.90347
G1 X67.509 Y75.001 E17.16562
G1 X67.469 Y75.541 E17.18634
G1 X67.361 Y76.033 E17.20562
G1 X67.118 Y76.721 E17.23354
G1 X66.855 Y77.195 E17.25429
G1 X66.525 Y77.625 E17.27503
G1 X66.015 Y78.099 E17.30168
G1 X65.399 Y78.52 E17.33023
G1 X64.907 Y78.747 E17.35097
G1 X64.407 Y78.897 E17.37095
G1 X63.873 Y78.991 E17.3917
G1 X53.13 Y79.009 E17.80283
G1 X52.589 Y78.969 E17.82359
G1 X52.254 Y78.894 E17.83673
G1 X51.365 Y79.011 E17.87104
G1 X48.497 Y79.009 E17.9808
G1 X47.957 Y78.969 E18.00152
G1 X47.192 Y78.768 E18.0318
G1 X46.491 Y78.459 E18.06111
G1 X46.039 Y78.159 E18.08187
G1 X45.637 Y77.797 E18.10258
G1 X45.189 Y77.226 E18.13035
G1 X44.823 Y76.575 E18.15893
G1 X44.639 Y76.066 E18.17965
G1 X44.533 Y75.534 E18.20041
G1 X44.49 Y70.323 E18.39984
G1 X44.491 Y68.498 E18.46968
G1 X44.531 Y67.958 E18.4904
G1 X44.651 Y67.429 E18.51116
G1 X44.846 Y66.924 E18.53188
G1 X45.114 Y66.453 E18.55262
G1 X45.448 Y66.026 E18.57336
G1 X45.842 Y65.654 E18.5941
G1 X46.285 Y65.343 E18.61482
G1 X46.77 Y65.1 E18.63558
G1 X47.285 Y64.932 E18.65631
G1 X47.819 Y64.841 E18.67704
G1 X48.957 Y64.825 E18.72059
G1 X48.823 Y64.575 E18.73145
G1 X48.639 Y64.066 E18.75216
G1 X48.533 Y63.534 E18.77292
G1 X48.49 Y58.323 E18.97235
G1 X48.491 Y56.498 E19.0422
G1 X48.531 Y55.958 E19.06292
G1 X48.651 Y55.429 E19.08368
G1 X48.846 Y54.924 E19.10439
G1 X49.114 Y54.453 E19.12513
G1 X49.354 Y54.146 E19.14005
G0 F1620 X49.448 Y54.026
G0 X49.842 Y53.654
G0 F4320 X50.182 Y53.832
G1 F1800 X50.618 Y53.557 E19.15977
G1 X51.092 Y53.353 E19.17952
G1 X51.591 Y53.225 E19.19924
G1 X52.166 Y53.175 E19.22133
G1 X67.835 Y53.175 E19.82098
G1 X68.349 Y53.215 E19.84071
G1 X68.85 Y53.334 E19.86041
G1 X69.327 Y53.529 E19.88014
G1 X69.769 Y53.795 E19.89988
G1 X70.163 Y54.126 E19.91957
G1 X70.502 Y54.515 E19.93932
G1 X70.777 Y54.951 E19.95905
G1 X70.981 Y55.424 E19.97876
G1 X71.11 Y55.923 E19.99848
G1 X71.16 Y56.501 E20.02069
G1 X71.159 Y63.001 E20.26944
G1 X71.119 Y63.514 E20.28913
G1 X70.972 Y64.115 E20.31281
G1 X70.789 Y64.597 E20.33254
G1 X70.534 Y65.045 E20.35227
G1 X70.213 Y65.448 E20.37199
G1 X69.802 Y65.821 E20.39323
G1 X69.208 Y66.226 E20.42074
G1 X68.737 Y66.436 E20.44048
G1 X68.32 Y66.557 E20.45709
G1 X67.812 Y66.645 E20.47682
G1 X66.593 Y66.66 E20.52348
G1 X66.777 Y66.951 E20.53665
G1 X66.981 Y67.424 E20.55637
G1 X67.11 Y67.923 E20.57609
G1 X67.16 Y68.501 E20.5983
G1 X67.159 Y75.001 E20.84705
G1 X67.119 Y75.514 E20.86674
G1 X66.972 Y76.115 E20.89042
G1 X66.789 Y76.597 E20.91015
G1 X66.534 Y77.045 E20.92988
G1 X66.213 Y77.448 E20.9496
G1 X65.802 Y77.821 E20.97084
G1 X65.208 Y78.226 E20.99835
G1 X64.737 Y78.436 E21.01809
G1 X64.32 Y78.557 E21.0347
G1 X63.812 Y78.645 E21.05443
G1 X53.13 Y78.659 E21.46323
G1 X52.616 Y78.619 E21.48296
G1 X52.251 Y78.532 E21.49732
G1 X51.907 Y78.617 E21.51088
G1 X51.366 Y78.661 E21.53166
G1 X48.498 Y78.659 E21.64141
G1 X47.984 Y78.619 E21.66115
G1 X47.316 Y78.441 E21.6876
G1 X46.64 Y78.141 E21.71591
G1 X46.214 Y77.851 E21.73563
G1 X45.838 Y77.499 E21.75534
G1 X45.484 Y77.038 E21.77758
G1 X45.132 Y76.41 E21.80513
G1 X44.963 Y75.923 E21.82486
G1 X44.872 Y75.416 E21.84457
G1 X44.84 Y70.321 E22.03956
G1 X44.841 Y68.498 E22.10933
G1 X44.881 Y67.984 E22.12906
G1 X45 Y67.483 E22.14877
G1 X45.196 Y67.006 E22.1685
G1 X45.462 Y66.565 E22.18821
G1 X45.794 Y66.17 E22.20796
G1 X46.182 Y65.832 E22.22765
G1 X46.618 Y65.557 E22.24738
G1 X47.092 Y65.353 E22.26713
G1 X47.591 Y65.225 E22.28684
G1 X48.166 Y65.175 E22.30893
G1 X49.589 Y65.175 E22.36339
G1 X49.374 Y64.865 E22.37783
G1 X49.132 Y64.41 E22.39755
G1 X48.963 Y63.923 E22.41728
G1 X48.872 Y63.416 E22.43699
G1 X48.84 Y58.321 E22.63198
G1 X48.841 Y56.498 E22.70175
G1 X48.881 Y55.984 E22.72148
G1 X49 Y55.483 E22.74118
G1 X49.196 Y55.006 E22.76092
G1 X49.462 Y54.565 E22.78063
G1 X49.678 Y54.308 E22.79348
G0 F1620 X49.794 Y54.17
G0 X50.182 Y53.832
G0 F4320 X50.138 Y54.323
G1 F1800 X50.521 Y54.021 E22.81214
G1 X50.947 Y53.786 E22.83076
G1 X51.407 Y53.623 E22.84944
G1 X52.166 Y53.525 E22.87872
G1 X67.835 Y53.525 E23.47838
G1 X68.794 Y53.684 E23.51558
G1 X69.241 Y53.878 E23.53423
G1 X69.65 Y54.143 E23.55288
G1 X70.01 Y54.471 E23.57152
G1 X70.313 Y54.853 E23.59018
G1 X70.548 Y55.28 E23.60883
G1 X70.711 Y55.739 E23.62747
G1 X70.81 Y56.5 E23.65684
G1 X70.809 Y63 E23.90559
G1 X70.769 Y63.486 E23.92425
G1 X70.636 Y64.017 E23.9452
G1 X70.461 Y64.472 E23.96386
G1 X70.214 Y64.892 E23.98251
G1 X69.902 Y65.267 E24.00118
G1 X69.427 Y65.667 E24.02494
G1 X69.017 Y65.931 E24.0436
G1 X68.352 Y66.188 E24.07089
G1 X67.753 Y66.299 E24.0942
G1 X65.833 Y66.31 E24.16768
G1 X66.01 Y66.471 E24.17684
G1 X66.313 Y66.853 E24.1955
G1 X66.548 Y67.28 E24.21415
G1 X66.711 Y67.739 E24.23279
G1 X66.81 Y68.5 E24.26216
G1 X66.809 Y75 E24.51091
