;FLAVOR:Marlin
;TIME:123
;Filament used: 0.0171993m
;Layer height: 0.04375
;MINX:55.7
;MINY:55.7
;MINZ:0.263
;MAXX:64.3
;MAXY:64.3
;MAXZ:0.967
;Generated with Cura_SteamEngine 4.6.2
M140 S55
M105
M190 S55
M104 S195
M105
M109 S195
M82 ;absolute extrusion mode
G21;(metric values)
G90;(absolute positioning)
M82;(set extruder to absolute mode)
M107;(start with the fan off)
G28;(Home the printer)
G92 E0;(Reset the extruder to 0)
G0 Z5 E5 F500;(Move up and prime the nozzle)
G0 X-1 Z0;(Move outside the printable area)
G1 Y60 E8 F500;(Draw a priming/wiping line to the rear)
G1 X-1;(Move a little closer to the print area)
G1 Y10 E16 F500;(draw more priming/wiping)
G1 E15 F250;(Small retract)
G92 E0;(Zero the extruder)
G92 E0
G92 E0
G1 F2400 E-2.5
;LAYER_COUNT:17
;LAYER:0
M107
;MESH:led padder.stl
G0 F4320 X56.38 Y60.024 Z0.263
;TYPE:WALL-INNER
G1 F2400 E0
G1 F1800 X56.378 Y60.002 E0.00085
G1 X56.381 Y59.972 E0.002
G1 X56.449 Y59.287 E0.02834
G1 X56.503 Y59.075 E0.03672
G1 X56.551 Y58.89 E0.04403
G1 X56.73 Y58.485 E0.06098
G1 X56.844 Y58.226 E0.0718
G1 X57.062 Y57.882 E0.08739
G1 X57.281 Y57.638 E0.09994
G1 X57.555 Y57.332 E0.11566
G1 X57.861 Y57.077 E0.1309
G1 X58.063 Y56.96 E0.13983
G1 X58.498 Y56.707 E0.15909
G1 X58.864 Y56.56 E0.17419
G1 X59.003 Y56.531 E0.17962
G1 X59.592 Y56.404 E0.20268
G1 X59.976 Y56.379 E0.21741
G1 X59.991 Y56.378 E0.21798
G1 X60.028 Y56.381 E0.2194
G1 X60.713 Y56.449 E0.24575
G1 X60.925 Y56.503 E0.25412
G1 X61.11 Y56.551 E0.26143
G1 X61.515 Y56.73 E0.27838
G1 X61.774 Y56.844 E0.28921
G1 X62.117 Y57.061 E0.30474
G1 X62.362 Y57.28 E0.31732
G1 X62.667 Y57.553 E0.33298
G1 X62.923 Y57.861 E0.34831
G1 X63.04 Y58.063 E0.35724
G1 X63.293 Y58.498 E0.3765
G1 X63.44 Y58.864 E0.3916
G1 X63.469 Y59.003 E0.39703
G1 X63.596 Y59.592 E0.42009
G1 X63.621 Y59.976 E0.43482
G1 X63.622 Y59.99 E0.43535
G1 X63.619 Y60.027 E0.43677
G1 X63.551 Y60.713 E0.46316
G1 X63.497 Y60.925 E0.47153
G1 X63.449 Y61.109 E0.47881
G1 X63.27 Y61.515 E0.49579
G1 X63.156 Y61.774 E0.50662
G1 X62.939 Y62.117 E0.52215
G1 X62.72 Y62.362 E0.53472
G1 X62.447 Y62.667 E0.55039
G1 X62.139 Y62.923 E0.56572
G1 X61.937 Y63.04 E0.57465
G1 X61.502 Y63.293 E0.59391
G1 X61.136 Y63.44 E0.609
G1 X60.997 Y63.469 E0.61444
G1 X60.408 Y63.596 E0.6375
G1 X60.021 Y63.621 E0.65234
G1 X60.009 Y63.622 E0.6528
G1 X59.97 Y63.619 E0.6543
G1 X59.287 Y63.551 E0.68056
G1 X58.99 Y63.475 E0.6923
G1 X58.89 Y63.449 E0.69625
G1 X58.226 Y63.156 E0.72403
G1 X58.048 Y63.044 E0.73207
G1 X57.883 Y62.939 E0.73956
G1 X57.333 Y62.447 E0.7678
G1 X57.264 Y62.364 E0.77193
G1 X57.077 Y62.139 E0.78313
G1 X56.739 Y61.559 E0.80882
G1 X56.705 Y61.5 E0.81142
G1 X56.561 Y61.136 E0.8264
G1 X56.525 Y60.965 E0.83309
G1 X56.47 Y60.711 E0.84304
G0 F1620 X56.404 Y60.406
G0 X56.38 Y60.024
G0 F4320 X57.503 Y62.164
G1 F1800 X57.545 Y62.2 E0.84487
G1 X58.104 Y62.683 E0.87165
G1 X58.215 Y62.779 E0.87681
G1 X58.366 Y62.848 E0.88266
G1 X59.026 Y63.151 E0.90907
G1 X59.068 Y63.17 E0.91059
G1 X59.336 Y63.208 E0.92032
G1 X60 Y63.304 E0.94458
G1 X60.358 Y63.253 E0.95766
G1 X60.932 Y63.17 E0.97828
G1 X60.998 Y63.14 E0.98067
G1 X61.356 Y62.976 E0.9953
G1 X61.785 Y62.779 E1.01206
G1 X61.916 Y62.666 E1.01804
G1 X62.219 Y62.404 E1.03311
G1 X62.497 Y62.164 E1.04602
G1 X62.647 Y61.93 E1.05573
G1 X62.866 Y61.589 E1.07099
G1 X62.992 Y61.393 E1.07915
G1 X63.132 Y60.997 E1.09378
G1 X63.186 Y60.846 E1.0995
G1 X63.21 Y60.667 E1.10602
G1 X63.303 Y59.997 E1.13045
G1 X63.253 Y59.642 E1.14344
G1 X63.17 Y59.068 E1.16405
G1 X63.14 Y59.002 E1.16644
G1 X62.976 Y58.644 E1.18107
G1 X62.779 Y58.215 E1.19783
G1 X62.666 Y58.084 E1.20381
G1 X62.404 Y57.781 E1.21888
G1 X62.164 Y57.503 E1.23179
G1 X61.93 Y57.353 E1.2415
G1 X61.589 Y57.134 E1.25676
G1 X61.393 Y57.008 E1.26492
G1 X60.998 Y56.868 E1.27953
G1 X60.846 Y56.814 E1.28527
G1 X60.667 Y56.79 E1.29179
G1 X59.997 Y56.697 E1.31622
G1 X59.642 Y56.747 E1.32921
G1 X59.068 Y56.83 E1.34982
G1 X59.002 Y56.86 E1.35222
G1 X58.644 Y57.024 E1.36684
G1 X58.215 Y57.221 E1.38361
G1 X58.084 Y57.334 E1.38959
G1 X57.783 Y57.594 E1.40453
G1 X57.503 Y57.836 E1.4175
G1 X57.354 Y58.069 E1.42714
G1 X57.134 Y58.411 E1.44246
G1 X57.008 Y58.607 E1.45062
G1 X56.868 Y59.002 E1.46522
G1 X56.814 Y59.154 E1.47097
G1 X56.79 Y59.333 E1.47749
G1 X56.697 Y60.003 E1.50192
G1 X56.747 Y60.356 E1.51482
G1 X56.825 Y60.9 E1.53438
G1 X56.87 Y61.02 E1.53875
G1 X57.007 Y61.386 E1.55268
G1 X57.012 Y61.399 E1.55307
G1 X57.367 Y61.952 E1.5768
G1 X57.503 Y62.164 E1.58578
G0 F4320 X57.77 Y61.932
G1 F1800 X58.406 Y62.482 E1.61796
G1 X59.168 Y62.831 E1.65004
G1 X60 Y62.95 E1.6822
G1 X60.832 Y62.831 E1.71437
G1 X61.594 Y62.482 E1.74644
G1 X62.23 Y61.932 E1.77862
G1 X62.676 Y61.238 E1.81019
G1 X62.844 Y60.763 E1.82947
G1 X62.95 Y59.998 E1.85903
G1 X62.831 Y59.168 E1.89112
G1 X62.482 Y58.406 E1.92319
G1 X61.932 Y57.77 E1.95537
G1 X61.238 Y57.324 E1.98694
G1 X60.763 Y57.156 E2.00622
G1 X59.998 Y57.05 E2.03578
G1 X59.168 Y57.169 E2.06787
G1 X58.406 Y57.518 E2.09994
G1 X57.77 Y58.068 E2.13212
G1 X57.324 Y58.762 E2.16369
G1 X57.156 Y59.237 E2.18297
G1 X57.05 Y60.002 E2.21253
G1 X57.166 Y60.813 E2.24388
G1 X57.327 Y61.241 E2.26138
G1 X57.396 Y61.348 E2.26625
G0 F1620 X57.77 Y61.932
G0 F4320 X57.274 Y60.785
G0 X57.161 Y60.001
G0 X57.264 Y59.263
G0 X57.854 Y58.141
G0 X61.223 Y56.219
G1 F1800 X61.942 Y56.536 E2.29633
G1 X62.331 Y56.782 E2.31394
G1 X62.917 Y57.307 E2.34405
G1 X63.212 Y57.661 E2.36169
G1 X63.608 Y58.342 E2.39183
G1 X63.775 Y58.76 E2.40906
G1 X63.943 Y59.544 E2.43974
G1 X63.973 Y59.995 E2.45704
G1 X63.896 Y60.776 E2.48708
G1 X63.781 Y61.223 E2.50474
G1 X63.464 Y61.942 E2.53481
G1 X63.218 Y62.331 E2.55243
G1 X62.693 Y62.917 E2.58254
G1 X62.339 Y63.212 E2.60017
G1 X61.658 Y63.608 E2.63032
G1 X61.24 Y63.775 E2.64754
G1 X60.456 Y63.943 E2.67823
G1 X60.004 Y63.973 E2.69557
G1 X59.224 Y63.896 E2.72556
G1 X58.777 Y63.781 E2.74322
G1 X58.058 Y63.464 E2.7733
G1 X57.669 Y63.218 E2.79091
G1 X57.083 Y62.693 E2.82102
G1 X56.788 Y62.339 E2.83866
G1 X56.392 Y61.658 E2.8688
G1 X56.225 Y61.238 E2.8861
G1 X56.057 Y60.456 E2.91671
G1 X56.027 Y60.002 E2.93412
G1 X56.104 Y59.224 E2.96404
G1 X56.219 Y58.777 E2.98171
G1 X56.536 Y58.058 E3.01178
G1 X56.783 Y57.668 E3.02944
G1 X57.309 Y57.081 E3.05961
G1 X57.661 Y56.788 E3.07714
G1 X58.342 Y56.392 E3.10728
G1 X58.76 Y56.225 E3.12451
G1 X59.544 Y56.057 E3.15519
G1 X59.996 Y56.027 E3.17253
G1 X60.544 Y56.082 E3.19361
G0 F1620 X60.776 Y56.104
G0 X61.223 Y56.219
G0 F4320 X61.326 Y55.91
M104 S190
;TYPE:WALL-OUTER
G1 F1800 X62.1 Y56.251 E3.22598
G1 X62.526 Y56.52 E3.24526
G1 X63.152 Y57.081 E3.27743
G1 X63.478 Y57.472 E3.29691
G1 X63.901 Y58.2 E3.32913
G1 X64.087 Y58.666 E3.34833
G1 X64.265 Y59.496 E3.38082
G1 X64.299 Y59.999 E3.40011
G1 X64.216 Y60.837 E3.43234
G1 X64.09 Y61.326 E3.45167
G1 X63.749 Y62.1 E3.48403
G1 X63.48 Y62.526 E3.50332
G1 X62.919 Y63.152 E3.53548
G1 X62.528 Y63.478 E3.55497
G1 X61.8 Y63.901 E3.58719
G1 X61.334 Y64.087 E3.60639
G1 X60.504 Y64.265 E3.63888
G1 X60 Y64.299 E3.65821
G1 X59.163 Y64.216 E3.6904
G1 X58.674 Y64.09 E3.70972
G1 X57.9 Y63.749 E3.74209
G1 X57.474 Y63.48 E3.76137
G1 X56.848 Y62.919 E3.79354
G1 X56.522 Y62.528 E3.81302
G1 X56.099 Y61.8 E3.84525
G1 X55.913 Y61.334 E3.86445
G1 X55.735 Y60.504 E3.89694
G1 X55.701 Y59.999 E3.91631
G1 X55.784 Y59.163 E3.94846
G1 X55.91 Y58.674 E3.96778
G1 X56.251 Y57.9 E4.00015
G1 X56.521 Y57.473 E4.01948
G1 X57.081 Y56.848 E4.0516
G1 X57.472 Y56.522 E4.07108
G1 X58.2 Y56.099 E4.1033
G1 X58.666 Y55.913 E4.12251
G1 X59.496 Y55.735 E4.15499
G1 X60 Y55.701 E4.17432
G1 X60.648 Y55.766 E4.19925
G0 F1620 X60.837 Y55.784
G0 X61.326 Y55.91
G0 F4320 X61.509 Y55.99
G0 X61.398 Y56.241
G0 X58.466 Y57.612
G0 X57.854 Y58.141
G0 X57.425 Y58.811
G0 X57.161 Y60.001
G0 X57.274 Y60.785
G0 X57.838 Y61.924
G0 X58.018 Y61.717
G1 F1800 X58.583 Y62.206 E4.22784
G1 X59.261 Y62.516 E4.25637
G1 X60 Y62.622 E4.28494
G1 X60.739 Y62.516 E4.31352
G1 X61.417 Y62.206 E4.34205
G1 X61.982 Y61.717 E4.37064
G1 X62.382 Y61.094 E4.39898
G1 X62.527 Y60.686 E4.41555
G1 X62.622 Y59.999 E4.44209
G1 X62.516 Y59.261 E4.47062
G1 X62.206 Y58.583 E4.49915
G1 X61.717 Y58.018 E4.52775
G1 X61.094 Y57.618 E4.55608
G1 X60.686 Y57.473 E4.57265
G1 X59.999 Y57.378 E4.59919
G1 X59.261 Y57.484 E4.62773
G1 X58.583 Y57.794 E4.65626
G1 X58.018 Y58.283 E4.68485
G1 X57.618 Y58.906 E4.71319
G1 X57.473 Y59.314 E4.72976
G1 X57.378 Y60.001 E4.7563
G1 X57.483 Y60.732 E4.78456
G1 X57.619 Y61.095 E4.7994
G1 X57.643 Y61.133 E4.80112
G0 F1620 X58.018 Y61.717
G0 F4320 X58.169 Y61.847
G0 X57.823 Y62.243
;MESH:NONMESH
G0 F600 X57.823 Y62.243 Z0.307
G0 F4320 X57.503 Y62.164
;TIME_ELAPSED:31.817346
;LAYER:1
M140 S50
M106 S255
;TYPE:WALL-INNER
;MESH:led padder.stl
G1 F1745.8 X57.594 Y62.242 E4.80189
G1 X58.096 Y62.676 E4.80613
G1 X58.215 Y62.779 E4.80714
G1 X58.427 Y62.876 E4.80863
G1 X59.022 Y63.149 E4.81283
G1 X59.068 Y63.17 E4.81315
G1 X59.392 Y63.216 E4.81524
G1 X60 Y63.304 E4.81918
G1 X60.427 Y63.243 E4.82194
G1 X60.932 Y63.17 E4.82521
G1 X60.99 Y63.144 E4.82561
G1 X61.42 Y62.947 E4.82864
G1 X61.785 Y62.779 E4.83121
G1 X61.911 Y62.671 E4.83228
G1 X62.268 Y62.362 E4.8353
G1 X62.497 Y62.164 E4.83724
G1 X62.641 Y61.939 E4.83895
G1 X62.902 Y61.533 E4.84204
G1 X62.996 Y61.387 E4.84315
G1 X63.125 Y61.005 E4.84573
G1 X63.2 Y60.786 E4.84721
G1 X63.222 Y60.614 E4.84832
G1 X63.303 Y59.995 E4.85232
G1 X63.243 Y59.573 E4.85505
G1 X63.17 Y59.068 E4.85832
G1 X63.143 Y59.009 E4.85873
G1 X62.947 Y58.58 E4.86175
G1 X62.779 Y58.215 E4.86433
G1 X62.671 Y58.089 E4.86539
G1 X62.362 Y57.732 E4.86841
G1 X62.164 Y57.503 E4.87035
G1 X61.939 Y57.359 E4.87206
G1 X61.533 Y57.098 E4.87515
G1 X61.387 Y57.004 E4.87626
G1 X61.005 Y56.875 E4.87884
G1 X60.786 Y56.8 E4.88032
G1 X60.614 Y56.778 E4.88144
G1 X59.995 Y56.697 E4.88543
G1 X59.573 Y56.757 E4.88816
G1 X59.068 Y56.83 E4.89143
G1 X59.01 Y56.856 E4.89184
G1 X58.58 Y57.053 E4.89486
G1 X58.215 Y57.221 E4.89744
G1 X58.089 Y57.329 E4.8985
G1 X57.732 Y57.638 E4.90152
G1 X57.503 Y57.836 E4.90346
G1 X57.359 Y58.061 E4.90517
G1 X57.098 Y58.467 E4.90826
G1 X57.004 Y58.613 E4.90937
G1 X56.875 Y58.995 E4.91195
G1 X56.8 Y59.214 E4.91344
G1 X56.778 Y59.386 E4.91455
G1 X56.697 Y60.005 E4.91854
G1 X56.757 Y60.428 E4.92128
G1 X56.814 Y60.821 E4.92382
G0 F1571.2 X56.825 Y60.9
G0 X56.866 Y61.01
G0 X57.012 Y61.399
G0 X57.363 Y61.946
G0 X57.503 Y62.164
G0 F5760 X60.026 Y63.621
G1 F1745.8 X60.008 Y63.623 E4.92394
G1 X59.97 Y63.62 E4.92417
G1 X59.343 Y63.559 E4.92799
G1 X58.994 Y63.474 E4.93016
G1 X58.886 Y63.447 E4.93083
G1 X58.285 Y63.186 E4.93483
G1 X58.053 Y63.043 E4.93645
G1 X57.875 Y62.933 E4.9377
G1 X57.378 Y62.493 E4.94177
G1 X57.268 Y62.364 E4.94277
G1 X57.073 Y62.133 E4.94459
G1 X56.738 Y61.565 E4.9486
G1 X56.72 Y61.52 E4.94891
G1 X56.557 Y61.127 E4.95143
G1 X56.522 Y60.967 E4.9524
G1 X56.415 Y60.477 E4.95541
G1 X56.379 Y60.031 E4.95813
G1 X56.377 Y60.008 E4.95828
G1 X56.38 Y59.975 E4.95848
G1 X56.441 Y59.343 E4.9623
G1 X56.491 Y59.139 E4.96356
G1 X56.553 Y58.886 E4.96513
G1 X56.724 Y58.492 E4.96767
G1 X56.814 Y58.285 E4.96901
G1 X57.067 Y57.875 E4.97202
G1 X57.277 Y57.637 E4.97391
G1 X57.507 Y57.378 E4.97596
G1 X57.867 Y57.073 E4.9789
G1 X58.06 Y56.959 E4.98023
G1 X58.435 Y56.738 E4.98283
G1 X58.873 Y56.557 E4.98575
G1 X59.002 Y56.529 E4.98654
G1 X59.523 Y56.415 E4.98973
G1 X59.969 Y56.379 E4.99245
G1 X59.992 Y56.377 E4.9926
G1 X60.025 Y56.38 E4.9928
G1 X60.657 Y56.441 E4.99662
G1 X60.861 Y56.491 E4.99789
G1 X61.114 Y56.553 E4.99945
G1 X61.508 Y56.724 E5.00199
G1 X61.715 Y56.814 E5.00333
G1 X62.125 Y57.067 E5.00634
G1 X62.363 Y57.277 E5.00823
G1 X62.622 Y57.507 E5.01028
G1 X62.927 Y57.867 E5.01322
G1 X63.041 Y58.06 E5.01455
G1 X63.262 Y58.435 E5.01715
G1 X63.442 Y58.872 E5.02007
G1 X63.47 Y59.001 E5.02085
G1 X63.585 Y59.523 E5.02405
G1 X63.621 Y59.969 E5.02677
G1 X63.623 Y59.992 E5.02691
G1 X63.62 Y60.025 E5.02712
G1 X63.559 Y60.657 E5.03093
G1 X63.509 Y60.861 E5.0322
G1 X63.447 Y61.114 E5.03377
G1 X63.276 Y61.508 E5.03631
G1 X63.186 Y61.715 E5.03765
G1 X62.933 Y62.125 E5.04066
G1 X62.723 Y62.363 E5.04255
G1 X62.493 Y62.622 E5.0446
G1 X62.133 Y62.927 E5.04754
G1 X61.94 Y63.041 E5.04887
G1 X61.565 Y63.262 E5.05147
G1 X61.127 Y63.443 E5.05439
G1 X60.998 Y63.471 E5.05518
G1 X60.477 Y63.585 E5.05837
G1 X60.026 Y63.621 E5.06112
G0 F5760 X57.77 Y61.932
G1 F1745.8 X58.406 Y62.482 E5.0665
G1 X59.168 Y62.831 E5.07186
G1 X60 Y62.95 E5.07725
G1 X60.832 Y62.831 E5.08263
G1 X61.594 Y62.482 E5.08799
G1 X62.23 Y61.932 E5.09338
G1 X62.678 Y61.234 E5.09869
G1 X62.857 Y60.706 E5.10226
G1 X62.95 Y59.997 E5.10683
G1 X62.831 Y59.168 E5.1122
G1 X62.482 Y58.406 E5.11756
G1 X61.932 Y57.77 E5.12295
G1 X61.234 Y57.322 E5.12826
G1 X60.706 Y57.143 E5.13183
G1 X59.997 Y57.05 E5.1364
G1 X59.168 Y57.169 E5.14177
G1 X58.406 Y57.518 E5.14713
G1 X57.77 Y58.068 E5.15252
G1 X57.322 Y58.766 E5.15783
G1 X57.143 Y59.294 E5.1614
G1 X57.05 Y60.003 E5.16597
G1 X57.163 Y60.787 E5.17105
G0 F1571.2 X57.166 Y60.813
G0 X57.327 Y61.241
G0 X57.77 Y61.932
G0 F5760 X57.274 Y60.785
G0 X57.161 Y60.002
G0 X57.422 Y58.815
G0 X57.854 Y58.141
G0 X61.225 Y56.22
G1 F1745.8 X61.88 Y56.504 E5.17562
G1 X62.333 Y56.784 E5.17903
G1 X62.872 Y57.261 E5.18364
G1 X63.213 Y57.663 E5.18701
G1 X63.578 Y58.282 E5.19161
G1 X63.777 Y58.766 E5.19496
G1 X63.932 Y59.471 E5.19958
G1 X63.974 Y59.992 E5.20293
G1 X63.904 Y60.718 E5.2076
G1 X63.78 Y61.225 E5.21094
G1 X63.496 Y61.88 E5.21551
G1 X63.216 Y62.333 E5.21892
G1 X62.739 Y62.872 E5.22353
G1 X62.337 Y63.213 E5.22691
G1 X61.718 Y63.578 E5.23151
G1 X61.232 Y63.778 E5.23487
G1 X60.529 Y63.932 E5.23948
G1 X60.008 Y63.974 E5.24283
G1 X59.282 Y63.904 E5.2475
G1 X58.775 Y63.78 E5.25084
G1 X58.12 Y63.496 E5.25541
G1 X57.667 Y63.216 E5.25882
G1 X57.128 Y62.739 E5.26343
G1 X56.787 Y62.337 E5.2668
G1 X56.422 Y61.718 E5.2714
G1 X56.222 Y61.232 E5.27477
G1 X56.068 Y60.529 E5.27937
G1 X56.026 Y60.008 E5.28272
G1 X56.096 Y59.282 E5.28739
G1 X56.22 Y58.775 E5.29073
G1 X56.504 Y58.12 E5.2953
G1 X56.784 Y57.667 E5.29871
G1 X57.261 Y57.128 E5.30332
G1 X57.663 Y56.787 E5.3067
G1 X58.282 Y56.422 E5.3113
G1 X58.768 Y56.222 E5.31466
G1 X59.454 Y56.071 E5.31916
G0 F1571.2 X59.471 Y56.068
G0 X59.992 Y56.026
G0 X60.718 Y56.096
G0 X61.225 Y56.22
G0 F5760 X61.326 Y55.91
;TYPE:WALL-OUTER
G1 F1473 X62.036 Y56.218 E5.32411
G1 X62.522 Y56.518 E5.32777
G1 X63.107 Y57.036 E5.33277
G1 X63.479 Y57.474 E5.33645
G1 X63.868 Y58.135 E5.34136
G1 X64.089 Y58.671 E5.34508
G1 X64.255 Y59.426 E5.35003
G1 X64.3 Y59.997 E5.35369
G1 X64.226 Y60.771 E5.35867
G1 X64.09 Y61.326 E5.36233
G1 X63.782 Y62.036 E5.36728
G1 X63.482 Y62.522 E5.37094
G1 X62.964 Y63.107 E5.37594
G1 X62.526 Y63.479 E5.37962
G1 X61.865 Y63.868 E5.38453
G1 X61.329 Y64.089 E5.38825
G1 X60.574 Y64.255 E5.3932
G1 X60.003 Y64.3 E5.39686
G1 X59.229 Y64.226 E5.40184
G1 X58.674 Y64.09 E5.4055
G1 X57.964 Y63.782 E5.41045
G1 X57.478 Y63.482 E5.41411
G1 X56.893 Y62.964 E5.41911
G1 X56.521 Y62.526 E5.42279
G1 X56.132 Y61.865 E5.4277
G1 X55.911 Y61.329 E5.43142
G1 X55.745 Y60.574 E5.43637
G1 X55.7 Y60.003 E5.44003
G1 X55.774 Y59.229 E5.44501
G1 X55.91 Y58.674 E5.44867
G1 X56.218 Y57.964 E5.45362
G1 X56.518 Y57.478 E5.45728
G1 X57.036 Y56.893 E5.46228
G1 X57.474 Y56.521 E5.46596
G1 X58.135 Y56.132 E5.47087
G1 X58.671 Y55.911 E5.47459
G1 X59.409 Y55.748 E5.47943
G0 F1325.7 X59.426 Y55.745
G0 X59.997 Y55.7
G0 X60.771 Y55.774
G0 X61.326 Y55.91
G0 F5760 X61.509 Y55.989
G0 X61.4 Y56.241
G0 X58.466 Y57.612
G0 X57.854 Y58.141
G0 X57.422 Y58.815
G0 X57.161 Y60.002
G0 X57.274 Y60.785
G0 X57.838 Y61.924
G0 X58.018 Y61.717
G1 F1473 X58.583 Y62.206 E5.48421
G1 X59.261 Y62.516 E5.48898
G1 X60 Y62.622 E5.49376
G1 X60.739 Y62.516 E5.49854
G1 X61.417 Y62.206 E5.50332
G1 X61.982 Y61.717 E5.5081
G1 X62.383 Y61.092 E5.51285
G1 X62.539 Y60.632 E5.51596
G1 X62.622 Y59.999 E5.52005
G1 X62.516 Y59.261 E5.52483
G1 X62.206 Y58.583 E5.5296
G1 X61.717 Y58.018 E5.53438
G1 X61.092 Y57.617 E5.53914
G1 X60.632 Y57.461 E5.54225
G1 X59.999 Y57.378 E5.54633
G1 X59.261 Y57.484 E5.55111
G1 X58.583 Y57.794 E5.55588
G1 X58.018 Y58.283 E5.56067
G1 X57.617 Y58.908 E5.56542
G1 X57.461 Y59.368 E5.56853
G1 X57.378 Y60.001 E5.57262
