;FLAVOR:Marlin
;TIME:18289
;Filament used: 8.99079m
;Layer height: 0.13125
;MINX:5.067
;MINY:4.335
;MINZ:0.263
;MAXX:86.397
;MAXY:115.291
;MAXZ:9.957
;Generated with Cura_SteamEngine 4.6.2
M140 S55
M105
M190 S55
M104 S195
M105
M109 S195
M82 ;absolute extrusion mode
G21;(metric values)
G90;(absolute positioning)
M82;(set extruder to absolute mode)
M107;(start with the fan off)
G28;(Home the printer)
G92 E0;(Reset the extruder to 0)
G0 Z5 E5 F500;(Move up and prime the nozzle)
G0 X-1 Z0;(Move outside the printable area)
G1 Y60 E8 F500;(Draw a priming/wiping line to the rear)
G1 X-1;(Move a little closer to the print area)
G1 Y10 E16 F500;(draw more priming/wiping)
G1 E15 F250;(Small retract)
G92 E0;(Zero the extruder)
G92 E0
G92 E0
G1 F2400 E-2.5
;LAYER_COUNT:75
;LAYER:0
M107
;MESH:tapa.stl
G0 F4320 X9.907 Y8.941 Z0.263
;TYPE:WALL-INNER
G1 F2400 E0
G1 F1800 X9.469 Y9.438 E0.02535
G1 X9.16 Y10.024 E0.05071
G1 X9.001 Y10.668 E0.07609
G1 X9.001 Y11.332 E0.1015
G1 X9.16 Y11.976 E0.12689
G1 X9.469 Y12.562 E0.15224
G1 X9.907 Y13.059 E0.17759
G1 X10.453 Y13.435 E0.20296
G1 X11.074 Y13.671 E0.22839
G1 X11.732 Y13.749 E0.25375
G1 X12.389 Y13.671 E0.27907
G1 X13.01 Y13.435 E0.30449
G1 X13.556 Y13.059 E0.32986
G1 X13.995 Y12.563 E0.35521
G1 X14.304 Y11.975 E0.38063
G1 X14.462 Y11.33 E0.40604
G1 X14.462 Y10.67 E0.4313
G1 X14.304 Y10.025 E0.45672
G1 X13.995 Y9.437 E0.48214
G1 X13.556 Y8.941 E0.50749
G1 X13.01 Y8.565 E0.53286
G1 X12.389 Y8.329 E0.55828
G1 X11.732 Y8.251 E0.5836
G1 X11.074 Y8.329 E0.60896
G1 X10.482 Y8.554 E0.6332
G0 F1620 X10.453 Y8.565
G0 X9.907 Y8.941
G1 F2400 E-1.8668
G0 F4320 X9.462 Y10.726
G0 X9.536 Y11.578
G0 X10.375 Y13.583
G0 X8.095 Y13.581
G0 X7.929 Y65.015
G1 F2400 E0.6332
G1 F1800 X7.93 Y7.198 E2.84585
G1 X83.533 Y7.198 E5.73917
G1 X83.534 Y54.985 E7.56798
G1 X83.533 Y112.802 E9.78063
G1 X8.086 Y112.802 E12.66798
G1 X7.911 Y112.802 E12.67468
G1 X7.911 Y112.627 E12.67901
G1 X7.929 Y65.015 E14.50112
G1 F2400 E12.00112
G0 F4320 X8.079 Y106.939
G0 X9.332 Y107.343
G0 X9.907 Y106.941
G1 F2400 E14.50112
G1 F1800 X9.469 Y107.438 E14.52648
G1 X9.16 Y108.024 E14.55183
G1 X9.001 Y108.668 E14.57721
G1 X9.001 Y109.332 E14.60263
G1 X9.16 Y109.976 E14.62801
G1 X9.469 Y110.562 E14.65336
G1 X9.907 Y111.059 E14.67872
G1 X10.453 Y111.435 E14.70409
G1 X11.074 Y111.671 E14.72951
G1 X11.732 Y111.749 E14.75487
G1 X12.389 Y111.671 E14.78019
G1 X13.01 Y111.435 E14.80561
G1 X13.556 Y111.059 E14.83098
G1 X13.995 Y110.563 E14.85633
G1 X14.304 Y109.975 E14.88175
G1 X14.462 Y109.33 E14.90717
G1 X14.462 Y108.67 E14.93243
G1 X14.304 Y108.025 E14.95784
G1 X13.995 Y107.437 E14.98326
G1 X13.556 Y106.941 E15.00861
G1 X13.01 Y106.565 E15.03398
G1 X12.389 Y106.329 E15.0594
G1 X11.732 Y106.251 E15.08472
G1 X11.074 Y106.329 E15.11008
G1 X10.482 Y106.554 E15.13432
G0 F1620 X10.453 Y106.565
G0 X9.907 Y106.941
G1 F2400 E12.63432
G0 F4320 X11.732 Y106.714
G0 X14.132 Y107.342
G0 X12.721 Y108.32
G0 X78.744 Y108.317
G0 X77.332 Y107.343
G0 X77.907 Y106.941
G1 F2400 E15.13432
G1 F1800 X77.469 Y107.438 E15.15967
G1 X77.16 Y108.024 E15.18502
G1 X77.001 Y108.668 E15.21041
G1 X77.001 Y109.332 E15.23582
G1 X77.16 Y109.976 E15.26121
G1 X77.469 Y110.562 E15.28656
G1 X77.907 Y111.059 E15.31191
G1 X78.453 Y111.435 E15.33728
G1 X79.074 Y111.671 E15.36271
G1 X79.732 Y111.749 E15.38806
G1 X80.389 Y111.671 E15.41338
G1 X81.01 Y111.435 E15.43881
G1 X81.556 Y111.059 E15.46418
G1 X81.995 Y110.563 E15.48953
G1 X82.304 Y109.975 E15.51495
G1 X82.462 Y109.33 E15.54036
G1 X82.462 Y108.67 E15.56562
G1 X82.304 Y108.025 E15.59104
G1 X81.995 Y107.437 E15.61646
G1 X81.556 Y106.941 E15.6418
G1 X81.01 Y106.565 E15.66718
G1 X80.389 Y106.329 E15.6926
G1 X79.732 Y106.251 E15.71792
G1 X79.074 Y106.329 E15.74328
G1 X78.482 Y106.554 E15.76751
G0 F1620 X78.453 Y106.565
G0 X77.907 Y106.941
G1 F2400 E13.26751
G0 F4320 X79.034 Y106.167
G0 X79.441 Y107.835
G0 X79.441 Y12.165
G0 X79.034 Y13.833
G0 X77.851 Y12.298
G0 X77.462 Y11.274
G0 X77.907 Y8.941
G1 F2400 E15.76751
G1 F1800 X77.469 Y9.438 E15.79287
G1 X77.16 Y10.024 E15.81822
G1 X77.001 Y10.668 E15.84361
G1 X77.001 Y11.332 E15.86902
G1 X77.16 Y11.976 E15.8944
G1 X77.469 Y12.562 E15.91976
G1 X77.907 Y13.059 E15.94511
G1 X78.453 Y13.435 E15.97048
G1 X79.074 Y13.671 E15.9959
G1 X79.732 Y13.749 E16.02126
G1 X80.389 Y13.671 E16.04658
G1 X81.01 Y13.435 E16.072
G1 X81.556 Y13.059 E16.09738
G1 X81.995 Y12.563 E16.12272
G1 X82.304 Y11.975 E16.14814
G1 X82.462 Y11.33 E16.17356
G1 X82.462 Y10.67 E16.19882
G1 X82.304 Y10.025 E16.22423
G1 X81.995 Y9.437 E16.24965
G1 X81.556 Y8.941 E16.275
G1 X81.01 Y8.565 E16.30037
G1 X80.389 Y8.329 E16.3258
G1 X79.732 Y8.251 E16.35112
G1 X79.074 Y8.329 E16.37647
G1 X78.482 Y8.554 E16.40071
G0 F1620 X78.453 Y8.565
G0 X77.907 Y8.941
G0 F4320 X77.462 Y10.726
G0 X77.594 Y11.812
G0 X78.145 Y12.631
G0 X79.158 Y13.329
G1 F1800 X79.732 Y13.397 E16.42283
G1 X80.305 Y13.329 E16.44491
G1 X80.846 Y13.123 E16.46707
G1 X81.322 Y12.795 E16.48919
G1 X81.705 Y12.363 E16.51128
G1 X81.974 Y11.85 E16.53345
G1 X82.112 Y11.288 E16.5556
G1 X82.112 Y10.712 E16.57764
G1 X81.974 Y10.15 E16.59979
G1 X81.705 Y9.637 E16.62196
G1 X81.322 Y9.205 E16.64405
G1 X80.846 Y8.877 E16.66617
G1 X80.305 Y8.671 E16.68833
G1 X79.732 Y8.603 E16.71041
G1 X79.158 Y8.671 E16.73253
G1 X78.617 Y8.877 E16.75469
G1 X78.141 Y9.205 E16.77681
G1 X77.759 Y9.638 E16.79891
G1 X77.49 Y10.149 E16.82101
G1 X77.351 Y10.711 E16.84316
G1 X77.351 Y11.289 E16.86528
G1 X77.49 Y11.851 E16.88744
G1 X77.759 Y12.362 E16.90954
G1 X78.141 Y12.795 E16.93164
G1 X78.522 Y13.058 E16.94935
G0 F1620 X78.617 Y13.123
G0 X79.158 Y13.329
G1 F2400 E14.44935
G0 F4320 X77.796 Y13.184
G0 X78.936 Y11.899
G0 X12.525 Y11.901
G0 X13.667 Y13.185
G0 X11.158 Y13.329
G1 F2400 E16.94935
G1 F1800 X11.732 Y13.397 E16.97147
G1 X12.305 Y13.329 E16.99356
G1 X12.846 Y13.123 E17.01571
G1 X13.322 Y12.795 E17.03783
G1 X13.705 Y12.363 E17.05993
G1 X13.974 Y11.85 E17.08209
G1 X14.112 Y11.288 E17.10424
G1 X14.112 Y10.712 E17.12629
G1 X13.974 Y10.15 E17.14843
G1 X13.705 Y9.637 E17.1706
G1 X13.322 Y9.205 E17.19269
G1 X12.846 Y8.877 E17.21482
G1 X12.305 Y8.671 E17.23697
G1 X11.732 Y8.603 E17.25905
G1 X11.158 Y8.671 E17.28117
G1 X10.617 Y8.877 E17.30333
G1 X10.141 Y9.205 E17.32545
G1 X9.759 Y9.638 E17.34755
G1 X9.49 Y10.149 E17.36965
G1 X9.351 Y10.711 E17.3918
G1 X9.351 Y11.289 E17.41392
G1 X9.49 Y11.851 E17.43608
G1 X9.759 Y12.362 E17.45818
G1 X10.141 Y12.795 E17.48028
G1 X10.522 Y13.058 E17.498
G0 F1620 X10.617 Y13.123
G0 X11.158 Y13.329
G1 F2400 E14.998
G0 F4320 X11.732 Y13.915
G0 X11.736 Y12.199
G0 X6.389 Y13.913
G0 X8.095 Y13.913
G0 X7.579 Y65.015
G1 F2400 E17.498
G1 F1800 X7.58 Y7.099 E19.71444
G1 X7.637 Y6.956 E19.72033
G1 X7.677 Y6.914 E19.72255
G1 X7.836 Y6.848 E19.72914
G1 X83.632 Y6.848 E22.62985
G1 X83.775 Y6.905 E22.63574
G1 X83.816 Y6.944 E22.6379
G1 X83.883 Y7.106 E22.64461
G1 X83.884 Y54.985 E24.47694
G1 X83.883 Y112.902 E26.69342
G1 X83.827 Y113.044 E26.69926
G1 X83.787 Y113.086 E26.70148
G1 X83.628 Y113.152 E26.70807
G1 X7.794 Y113.152 E29.61023
G1 X7.746 Y113.152 E29.61207
G1 X7.71 Y113.15 E29.61345
G1 X7.66 Y113.132 E29.61548
G1 X7.623 Y113.103 E29.61728
G1 X7.587 Y113.05 E29.61973
G1 X7.561 Y112.977 E29.6227
G1 X7.561 Y112.929 E29.62453
G1 X7.579 Y65.709 E31.43164
G0 F1620 X7.579 Y65.015
G1 F2400 E28.93164
G0 F4320 X8.077 Y111.326
G0 X9.796 Y111.184
G0 X11.158 Y111.329
G1 F2400 E31.43164
G1 F1800 X11.732 Y111.397 E31.45376
G1 X12.305 Y111.329 E31.47584
G1 X12.846 Y111.123 E31.498
G1 X13.322 Y110.795 E31.52012
G1 X13.705 Y110.363 E31.54222
G1 X13.974 Y109.85 E31.56438
G1 X14.112 Y109.288 E31.58653
G1 X14.112 Y108.712 E31.60857
G1 X13.974 Y108.15 E31.63072
G1 X13.705 Y107.637 E31.65289
G1 X13.322 Y107.205 E31.67498
G1 X12.846 Y106.877 E31.69711
G1 X12.305 Y106.671 E31.71926
G1 X11.732 Y106.603 E31.74134
G1 X11.158 Y106.671 E31.76346
G1 X10.617 Y106.877 E31.78562
G1 X10.141 Y107.205 E31.80774
G1 X9.759 Y107.638 E31.82984
G1 X9.49 Y108.149 E31.85194
G1 X9.351 Y108.711 E31.87409
G1 X9.351 Y109.289 E31.89621
G1 X9.49 Y109.851 E31.91837
G1 X9.759 Y110.362 E31.94047
G1 X10.141 Y110.795 E31.96257
G1 X10.522 Y111.058 E31.98028
G0 F1620 X10.617 Y111.123
G0 X11.158 Y111.329
G1 F2400 E29.48028
G0 F4320 X13.667 Y111.185
G0 X12.525 Y109.901
G0 X78.936 Y109.899
G0 X77.796 Y111.184
G0 X79.158 Y111.329
G1 F2400 E31.98028
G1 F1800 X79.732 Y111.397 E32.0024
G1 X80.305 Y111.329 E32.02449
G1 X80.846 Y111.123 E32.04664
G1 X81.322 Y110.795 E32.06876
G1 X81.705 Y110.363 E32.09086
G1 X81.974 Y109.85 E32.11303
G1 X82.112 Y109.288 E32.13517
G1 X82.112 Y108.712 E32.15722
G1 X81.974 Y108.15 E32.17936
G1 X81.705 Y107.637 E32.20153
G1 X81.322 Y107.205 E32.22363
G1 X80.846 Y106.877 E32.24575
G1 X80.305 Y106.671 E32.2679
G1 X79.732 Y106.603 E32.28998
G1 X79.158 Y106.671 E32.31211
G1 X78.617 Y106.877 E32.33426
G1 X78.141 Y107.205 E32.35638
G1 X77.759 Y107.638 E32.37848
G1 X77.49 Y108.149 E32.40058
G1 X77.351 Y108.711 E32.42274
G1 X77.351 Y109.289 E32.44486
G1 X77.49 Y109.851 E32.46701
G1 X77.759 Y110.362 E32.48911
G1 X78.141 Y110.795 E32.51121
G1 X78.522 Y111.058 E32.52893
G0 F1620 X78.617 Y111.123
G0 X79.158 Y111.329
G0 F4320 X79.236 Y111.011
;TYPE:WALL-OUTER
G1 F1800 X79.732 Y111.07 E32.54804
G1 X80.227 Y111.011 E32.56712
G1 X80.694 Y110.833 E32.58625
G1 X81.105 Y110.55 E32.60534
G1 X81.436 Y110.177 E32.62443
G1 X81.668 Y109.734 E32.64357
G1 X81.787 Y109.249 E32.66268
G1 X81.787 Y108.751 E32.68174
G1 X81.668 Y108.266 E32.70085
G1 X81.436 Y107.823 E32.71999
G1 X81.105 Y107.45 E32.73907
G1 X80.694 Y107.167 E32.75817
G1 X80.227 Y106.989 E32.77729
G1 X79.732 Y106.93 E32.79637
G1 X79.236 Y106.989 E32.81549
G1 X78.769 Y107.167 E32.83461
G1 X78.358 Y107.45 E32.85371
G1 X78.028 Y107.824 E32.8728
G1 X77.796 Y108.265 E32.89187
G1 X77.676 Y108.751 E32.91103
G1 X77.676 Y109.249 E32.93008
G1 X77.796 Y109.735 E32.94924
G1 X78.028 Y110.176 E32.96831
G1 X78.358 Y110.55 E32.9874
G1 X78.609 Y110.723 E32.99907
G0 F1620 X78.769 Y110.833
G0 X79.236 Y111.011
G0 F4320 X79.434 Y111.034
G1 F2400 E30.49907
G0 F4320 X79.402 Y111.307
G0 X77.796 Y111.184
G0 X78.936 Y109.899
G0 X12.854 Y109.426
G0 X14.46 Y110.034
G0 X12.794 Y111.024
G0 X11.204 Y111.283
G0 X11.236 Y111.011
G1 F2400 E32.99907
G1 F1800 X11.732 Y111.07 E33.01818
G1 X12.227 Y111.011 E33.03726
G1 X12.694 Y110.833 E33.05639
G1 X13.105 Y110.55 E33.07548
G1 X13.436 Y110.177 E33.09457
G1 X13.668 Y109.734 E33.11371
G1 X13.787 Y109.249 E33.13282
G1 X13.787 Y108.751 E33.15188
G1 X13.668 Y108.266 E33.17099
G1 X13.436 Y107.823 E33.19012
G1 X13.105 Y107.45 E33.20921
G1 X12.694 Y107.167 E33.22831
G1 X12.227 Y106.989 E33.24743
G1 X11.732 Y106.93 E33.26651
G1 X11.236 Y106.989 E33.28563
G1 X10.769 Y107.167 E33.30475
G1 X10.358 Y107.45 E33.32385
G1 X10.028 Y107.824 E33.34294
G1 X9.796 Y108.265 E33.36201
G1 X9.676 Y108.751 E33.38117
G1 X9.676 Y109.249 E33.40022
G1 X9.796 Y109.735 E33.41938
G1 X10.028 Y110.176 E33.43845
G1 X10.358 Y110.55 E33.45754
G1 X10.609 Y110.723 E33.46921
G0 F1620 X10.769 Y110.833
G0 X11.236 Y111.011
G0 F4320 X11.434 Y111.034
G1 F2400 E30.96921
G0 F4320 X11.402 Y111.307
G0 X10.669 Y111.024
G0 X9.851 Y110.298
G0 X9.462 Y109.274
G0 X9.594 Y108.188
G0 X10.056 Y107.469
G0 X11.732 Y106.085
G0 X11.736 Y107.801
G0 X6.373 Y106.082
G0 X8.079 Y106.082
G0 X7.529 Y65.015
G0 X7.254 Y65.015
G1 F2400 E33.46921
G1 F1800 X7.255 Y7.037 E35.68802
G1 X7.359 Y6.774 E35.69884
G1 X7.491 Y6.64 E35.70604
G1 X7.771 Y6.523 E35.71766
G1 X83.694 Y6.523 E38.62323
G1 X83.957 Y6.627 E38.63405
G1 X84.09 Y6.758 E38.64119
G1 X84.208 Y7.041 E38.65293
G1 X84.209 Y54.985 E40.48774
G1 X84.208 Y112.963 E42.70656
G1 X84.106 Y113.225 E42.71732
G1 X83.973 Y113.36 E42.72457
G1 X83.693 Y113.477 E42.73618
G1 X7.744 Y113.477 E45.64275
G1 X7.642 Y113.471 E45.64666
G1 X7.5 Y113.42 E45.65243
G1 X7.383 Y113.329 E45.6581
G1 X7.296 Y113.201 E45.66403
G1 X7.236 Y113.031 E45.67092
G1 X7.254 Y65.709 E47.48193
G0 F1620 X7.254 Y65.015
G0 F4320 X7.254 Y64.815
G1 F2400 E44.98193
G0 F4320 X7.529 Y64.816
G0 X8.095 Y13.281
G0 X9.332 Y12.657
G0 X11.204 Y13.283
G0 X11.236 Y13.011
G1 F2400 E47.48193
G1 F1800 X11.732 Y13.07 E47.50105
G1 X12.227 Y13.011 E47.52013
G1 X12.694 Y12.833 E47.53925
G1 X13.105 Y12.55 E47.55835
G1 X13.436 Y12.177 E47.57744
G1 X13.668 Y11.734 E47.59657
G1 X13.787 Y11.249 E47.61569
G1 X13.787 Y10.751 E47.63474
G1 X13.668 Y10.266 E47.65386
G1 X13.436 Y9.823 E47.67299
G1 X13.105 Y9.45 E47.69208
G1 X12.694 Y9.167 E47.71118
G1 X12.227 Y8.989 E47.7303
G1 X11.732 Y8.93 E47.74938
G1 X11.236 Y8.989 E47.76849
G1 X10.769 Y9.167 E47.78762
G1 X10.358 Y9.45 E47.80672
G1 X10.028 Y9.824 E47.82581
G1 X9.796 Y10.265 E47.84488
G1 X9.676 Y10.751 E47.86403
G1 X9.676 Y11.249 E47.88309
G1 X9.796 Y11.735 E47.90225
G1 X10.028 Y12.176 E47.92132
G1 X10.358 Y12.55 E47.94041
G1 X10.609 Y12.723 E47.95207
G0 F1620 X10.769 Y12.833
G0 X11.236 Y13.011
G0 F4320 X11.434 Y13.034
G1 F2400 E45.45207
G0 F4320 X11.402 Y13.307
G0 X13.667 Y13.185
G0 X12.525 Y11.901
G0 X78.61 Y11.427
G0 X77.004 Y12.035
G0 X79.204 Y13.283
G0 X79.236 Y13.011
G1 F2400 E47.95207
G1 F1800 X79.732 Y13.07 E47.97119
G1 X80.227 Y13.011 E47.99027
G1 X80.694 Y12.833 E48.00939
G1 X81.105 Y12.55 E48.02849
G1 X81.436 Y12.177 E48.04758
G1 X81.668 Y11.734 E48.06671
G1 X81.787 Y11.249 E48.08583
G1 X81.787 Y10.751 E48.10488
G1 X81.668 Y10.266 E48.124
G1 X81.436 Y9.823 E48.14313
G1 X81.105 Y9.45 E48.16222
G1 X80.694 Y9.167 E48.18131
G1 X80.227 Y8.989 E48.20044
G1 X79.732 Y8.93 E48.21952
G1 X79.236 Y8.989 E48.23863
G1 X78.769 Y9.167 E48.25776
G1 X78.358 Y9.45 E48.27686
G1 X78.028 Y9.824 E48.29595
G1 X77.796 Y10.265 E48.31502
G1 X77.676 Y10.751 E48.33417
G1 X77.676 Y11.249 E48.35323
G1 X77.796 Y11.735 E48.37239
G1 X78.028 Y12.176 E48.39146
G1 X78.358 Y12.55 E48.41055
G1 X78.609 Y12.723 E48.42221
G0 F1620 X78.769 Y12.833
G0 X79.236 Y13.011
G0 F4320 X79.434 Y13.034
G0 X79.402 Y13.307
G0 X78.992 Y14.003
;TYPE:SKIN
G1 F1800 X79.732 Y14.091 E48.45073
G1 X80.471 Y14.003 E48.47921
G1 X81.169 Y13.738 E48.50779
G1 X81.783 Y13.315 E48.53632
G1 X82.277 Y12.757 E48.56484
G1 X82.624 Y12.096 E48.59341
G1 X82.802 Y11.371 E48.62198
G1 X82.802 Y10.629 E48.65038
G1 X82.624 Y9.904 E48.67895
G1 X82.277 Y9.243 E48.70752
G1 X81.783 Y8.685 E48.73604
G1 X81.169 Y8.262 E48.76457
G1 X80.471 Y7.997 E48.79315
G1 X79.732 Y7.909 E48.82163
G1 X78.992 Y7.997 E48.85015
G1 X78.294 Y8.262 E48.87872
G1 X77.68 Y8.685 E48.90725
G1 X77.187 Y9.244 E48.93578
G1 X76.84 Y9.902 E48.96425
G1 X76.661 Y10.627 E48.99283
G1 X76.661 Y11.373 E49.02138
G1 X76.84 Y12.098 E49.04995
G1 X77.187 Y12.756 E49.07842
G1 X77.68 Y13.315 E49.10695
G1 X78.294 Y13.738 E49.13548
G1 X78.343 Y13.757 E49.13749
G0 F1620 X78.992 Y14.003
G1 F2400 E46.63749
G0 F4320 X79.053 Y13.755
G0 X80.794 Y13.024
G0 X81.613 Y12.299
G0 X82.001 Y11.274
G0 X81.667 Y8.815
G0 X81.667 Y7.383
G0 X83.193 Y7.283
G0 X83.193 Y7.538
G1 F2400 E49.13749
G1 F1800 X83.194 Y54.985 E50.95329
G1 X83.193 Y112.462 E53.15293
G1 X8.251 Y112.462 E56.02095
G1 X8.269 Y65.015 E57.83675
G1 X8.27 Y7.538 E60.03639
G1 X82.499 Y7.538 E62.87713
G0 F1620 X83.193 Y7.538
G1 F2400 E60.37713
G0 F4320 X83.193 Y7.283
G0 X14.547 Y7.383
G0 X13.667 Y8.815
G0 X14.547 Y11.341
G0 X14.802 Y11.371
G1 F2400 E62.87713
G1 F1800 X14.802 Y10.629 E62.90553
G1 X14.624 Y9.904 E62.9341
G1 X14.277 Y9.243 E62.96267
G1 X13.783 Y8.685 E62.99119
G1 X13.169 Y8.262 E63.01972
G1 X12.471 Y7.997 E63.04829
G1 X11.732 Y7.909 E63.07677
G1 X10.992 Y7.997 E63.10529
G1 X10.294 Y8.262 E63.13387
G1 X9.68 Y8.685 E63.1624
G1 X9.187 Y9.244 E63.19092
G1 X8.84 Y9.902 E63.21939
G1 X8.661 Y10.627 E63.24797
G1 X8.661 Y11.373 E63.27652
G1 X8.84 Y12.098 E63.3051
G1 X9.187 Y12.756 E63.33357
G1 X9.68 Y13.315 E63.36209
G1 X10.294 Y13.738 E63.39063
G1 X10.992 Y14.003 E63.4192
G1 X11.732 Y14.091 E63.44772
G1 X12.471 Y14.003 E63.4762
G1 X13.169 Y13.738 E63.50477
G1 X13.783 Y13.315 E63.53331
G1 X14.277 Y12.757 E63.56183
G1 X14.624 Y12.096 E63.5904
G1 X14.637 Y12.045 E63.59241
G0 F1620 X14.802 Y11.371
G1 F2400 E61.09241
G0 F4320 X14.547 Y11.341
G0 X13.667 Y13.185
G0 X12.525 Y11.901
G0 X12.29 Y107.937
G0 X13.088 Y106.417
G0 X13.783 Y106.685
G1 F2400 E63.59241
