;FLAVOR:Marlin
;TIME:639
;Filament used: 0.449984m
;Layer height: 0.21875
;MINX:47.675
;MINY:47.674
;MINZ:0.306
;MAXX:71.003
;MAXY:71.003
;MAXZ:10.775
;Generated with Cura_SteamEngine 4.6.2
M140 S55
M105
M190 S55
M104 S195
M105
M109 S195
M82 ;absolute extrusion mode
G21;(metric values)
G90;(absolute positioning)
M82;(set extruder to absolute mode)
M107;(start with the fan off)
G28;(Home the printer)
G92 E0;(Reset the extruder to 0)
G0 Z5 E5 F500;(Move up and prime the nozzle)
G0 X-1 Z0;(Move outside the printable area)
G1 Y60 E8 F500;(Draw a priming/wiping line to the rear)
G1 X-1;(Move a little closer to the print area)
G1 Y10 E16 F500;(draw more priming/wiping)
G1 E15 F250;(Small retract)
G92 E0;(Zero the extruder)
G92 E0
G92 E0
G1 F2400 E-2.5
;LAYER_COUNT:45
;LAYER:-5
M107
G0 F7200 X49.279 Y49.227 Z0.306
;TYPE:SUPPORT-INTERFACE
G1 F2400 E0
G1 F1125 X49.481 Y49.04 E0.02802
G1 X49.711 Y48.852 E0.05825
G1 X49.939 Y48.688 E0.08683
G1 X50.198 Y48.526 E0.11793
G1 X50.437 Y48.398 E0.14552
G1 X50.712 Y48.271 E0.17635
G1 X50.973 Y48.169 E0.20487
G1 X51.276 Y48.074 E0.23719
G1 X51.497 Y48.02 E0.26034
G1 X51.853 Y47.96 E0.29708
G1 X52.407 Y47.91 E0.3537
G1 X52.629 Y47.9 E0.37631
G1 X66.227 Y47.904 E1.76026
G1 X66.604 Y47.928 E1.79871
G1 X66.902 Y47.965 E1.82927
G1 X67.186 Y48.02 E1.85871
G1 X67.477 Y48.096 E1.88932
G1 X67.735 Y48.18 E1.91694
G1 X68.014 Y48.291 E1.9475
G1 X68.272 Y48.413 E1.97655
G1 X68.53 Y48.556 E2.00657
G1 X68.769 Y48.708 E2.03539
G1 X69.016 Y48.89 E2.06662
G1 X69.217 Y49.059 E2.09335
G1 X69.45 Y49.279 E2.12596
G1 X69.637 Y49.481 E2.15398
G1 X69.825 Y49.711 E2.18421
G1 X69.989 Y49.939 E2.2128
G1 X70.151 Y50.198 E2.24389
G1 X70.279 Y50.437 E2.27148
G1 X70.406 Y50.712 E2.30231
G1 X70.508 Y50.973 E2.33083
G1 X70.603 Y51.276 E2.36315
G1 X70.658 Y51.497 E2.38633
G1 X70.719 Y51.857 E2.42349
G1 X70.767 Y52.408 E2.47978
G1 X70.777 Y52.628 E2.50219
G1 X70.773 Y65.553 E3.81765
G1 X70.751 Y65.913 E3.85436
G1 X70.708 Y66.226 E3.88651
G1 X70.6 Y66.743 E3.94026
G1 X70.564 Y66.888 E3.95547
G1 X70.462 Y67.218 E3.99062
G1 X70.33 Y67.577 E4.02955
G1 X70.208 Y67.857 E4.06064
G1 X70.084 Y68.097 E4.08813
G1 X69.939 Y68.341 E4.11702
G1 X69.746 Y68.624 E4.15188
G1 X69.548 Y68.88 E4.18482
G1 X69.308 Y69.153 E4.22182
G1 X69.071 Y69.39 E4.25593
G1 X68.874 Y69.563 E4.28261
G1 X68.638 Y69.747 E4.31307
G1 X68.387 Y69.915 E4.34381
G1 X68.161 Y70.049 E4.37055
G1 X67.857 Y70.203 E4.40523
G1 X67.65 Y70.295 E4.42829
G1 X67.412 Y70.386 E4.45422
G1 X66.946 Y70.542 E4.50423
G1 X66.56 Y70.647 E4.54495
G1 X66.281 Y70.704 E4.57393
G1 X65.959 Y70.749 E4.60702
G1 X65.741 Y70.769 E4.6293
G1 X65.468 Y70.778 E4.6571
G1 X52.45 Y70.773 E5.98202
G1 X52.073 Y70.749 E6.02047
G1 X51.778 Y70.712 E6.05073
G1 X51.48 Y70.654 E6.08163
G1 X51.208 Y70.584 E6.11021
G1 X50.942 Y70.497 E6.13869
G1 X50.661 Y70.385 E6.16948
G1 X50.411 Y70.266 E6.19766
G1 X50.142 Y70.117 E6.22896
G1 X49.898 Y69.961 E6.25843
G1 X49.671 Y69.794 E6.28711
G1 X49.45 Y69.61 E6.31638
G1 X49.231 Y69.403 E6.34705
G1 X49.04 Y69.197 E6.37564
G1 X48.849 Y68.962 E6.40646
G1 X48.683 Y68.731 E6.43542
G1 X48.532 Y68.489 E6.46445
G1 X48.396 Y68.236 E6.49368
G1 X48.269 Y67.963 E6.52432
G1 X48.165 Y67.692 E6.55387
G1 X48.078 Y67.417 E6.58322
G1 X48.019 Y67.175 E6.60857
G1 X47.96 Y66.825 E6.6447
G1 X47.91 Y66.27 E6.70141
G1 X47.9 Y66.048 E6.72403
G1 X47.904 Y52.45 E8.10798
G1 X47.928 Y52.073 E8.14643
G1 X47.965 Y51.775 E8.17699
G1 X48.02 Y51.491 E8.20643
G1 X48.096 Y51.2 E8.23704
G1 X48.18 Y50.942 E8.26466
G1 X48.291 Y50.663 E8.29522
G1 X48.413 Y50.405 E8.32426
G1 X48.559 Y50.142 E8.35488
G1 X48.708 Y49.908 E8.38311
G1 X48.89 Y49.661 E8.41434
G1 X49.059 Y49.46 E8.44106
G1 X49.1 Y49.417 E8.44711
G0 F1012.5 X49.279 Y49.227
G0 F7200 X49.6 Y48.942
G1 F1125 X49.6 Y69.734 E10.56324
G0 F7200 X51.2 Y70.581
G1 F1125 X51.2 Y48.097 E12.85157
G0 F7200 X52.8 Y47.901
G1 F1125 X52.8 Y70.773 E15.17939
G0 F7200 X54.4 Y70.773
G1 F1125 X54.4 Y47.901 E17.50721
G0 F7200 X56 Y47.901
G1 F1125 X56 Y70.774 E19.83513
G0 F7200 X57.6 Y70.774
G1 F1125 X57.6 Y47.902 E22.16296
G0 F7200 X59.2 Y47.902
G1 F1125 X59.2 Y70.775 E24.49088
G0 F7200 X60.8 Y70.776
G1 F1125 X60.8 Y47.903 E26.8188
G0 F7200 X62.4 Y47.903
G1 F1125 X62.4 Y70.776 E29.14672
G0 F7200 X64 Y70.777
G1 F1125 X64 Y47.904 E31.47465
G0 F7200 X65.6 Y47.904
G1 F1125 X65.6 Y70.774 E33.80226
G0 F7200 X67.2 Y70.457
G1 F1125 X67.2 Y48.024 E36.0854
G0 F7200 X68.8 Y48.731
G1 F1125 X68.8 Y69.621 E38.21151
G0 F7200 X70.4 Y67.387
G1 F1125 X70.4 Y50.7 E39.90984
M104 S190
G0 F7200 X48 Y51.594
G1 F1125 X48 Y67.062 E41.48411
G0 F600 X48 Y67.062 Z0.525
G0 F7200 X47.944 Y67.036
;TIME_ELAPSED:50.022495
;LAYER:-4
M140 S50
;TYPE:SUPPORT
G1 F1125 X51.644 Y70.736 E41.81761
G1 X51.47 Y70.702 E41.82891
G1 X51.195 Y70.631 E41.84701
G1 X50.924 Y70.542 E41.86519
G1 X50.636 Y70.428 E41.88493
G1 X50.388 Y70.309 E41.90247
G1 X50.104 Y70.152 E41.92315
G1 X49.876 Y70.006 E41.9404
G1 X49.647 Y69.838 E41.9585
G1 X49.4 Y69.632 E41.979
G1 X49.205 Y69.448 E41.99609
G1 X48.999 Y69.227 E42.01535
G1 X48.817 Y69.003 E42.03374
G1 X48.636 Y68.749 E42.05362
G1 X48.487 Y68.511 E42.07152
G1 X48.354 Y68.264 E42.0894
G1 X48.219 Y67.973 E42.10984
G1 X48.122 Y67.718 E42.12723
G1 X48.028 Y67.422 E42.14702
G1 X47.97 Y67.182 E42.16276
G0 F7200 X51.644 Y70.736
G1 F1125 X51.777 Y70.762 E42.1714
G1 X52.064 Y70.797 E42.18983
G1 X52.447 Y70.822 E42.21429
G1 X53.003 Y70.822 E42.24972
G1 X47.849 Y65.669 E42.71423
G1 X47.849 Y64.396 E42.79537
G1 X54.276 Y70.822 E43.37462
G1 X55.549 Y70.823 E43.45575
G1 X47.85 Y63.124 E44.1497
G1 X47.85 Y61.851 E44.23083
G1 X56.823 Y70.823 E45.03956
G1 X58.096 Y70.824 E45.1207
G1 X47.851 Y60.579 E46.04413
G1 X47.851 Y59.306 E46.12526
G1 X59.369 Y70.824 E47.16343
G1 X60.642 Y70.825 E47.24456
G1 X47.852 Y58.034 E48.39743
G1 X47.852 Y56.762 E48.4785
G1 X61.916 Y70.825 E49.74611
G1 X63.189 Y70.825 E49.82724
G1 X47.852 Y55.489 E51.20959
G1 X47.853 Y54.217 E51.29066
G1 X64.462 Y70.826 E52.7877
G1 X65.47 Y70.827 E52.85195
G1 X65.726 Y70.818 E52.86827
G1 X47.853 Y52.944 E54.47929
G1 X47.854 Y52.447 E54.51097
G1 X47.878 Y52.064 E54.53543
G1 X47.914 Y51.776 E54.55393
G1 X47.92 Y51.739 E54.55632
G1 X66.809 Y70.627 E56.25882
G1 X67.078 Y70.552 E56.27662
G1 X67.418 Y70.436 E56.29952
G1 X67.658 Y70.344 E56.3159
G1 X67.755 Y70.301 E56.32266
G1 X48.202 Y50.747 E58.08511
G1 X48.238 Y50.655 E58.0914
G1 X48.373 Y50.374 E58.11127
G1 X48.515 Y50.117 E58.12999
G1 X48.643 Y49.916 E58.14517
G1 X68.575 Y69.848 E59.94173
G1 X68.661 Y69.791 E59.94831
G1 X68.901 Y69.605 E59.96766
G1 X69.121 Y69.411 E59.98636
G1 X69.266 Y69.266 E59.99943
G1 X49.217 Y49.217 E61.80653
G1 X49.225 Y49.208 E61.8073
G1 X49.451 Y49 E61.82688
G1 X49.684 Y48.808 E61.84612
G1 X49.907 Y48.648 E61.86361
G1 X49.916 Y48.643 E61.86427
G1 X69.84 Y68.567 E63.66011
G1 X69.973 Y68.377 E63.67489
G1 X70.126 Y68.121 E63.6939
G1 X70.258 Y67.865 E63.71226
G1 X70.305 Y67.759 E63.71965
G1 X50.747 Y48.202 E65.48245
G1 X50.954 Y48.122 E65.4966
G1 X51.251 Y48.028 E65.51645
G1 X51.489 Y47.97 E65.53206
G1 X51.746 Y47.928 E65.54866
G1 X70.633 Y66.815 E67.25103
G1 X70.651 Y66.739 E67.25601
G1 X70.754 Y66.246 E67.28811
G1 X70.801 Y65.903 E67.31017
G1 X70.813 Y65.722 E67.32174
G1 X52.941 Y47.85 E68.93262
G1 X54.214 Y47.85 E69.01375
G1 X70.823 Y64.459 E70.5108
G1 X70.823 Y63.187 E70.59187
G1 X55.488 Y47.851 E71.97413
G1 X56.76 Y47.851 E72.0552
G1 X70.823 Y61.914 E73.32276
G1 X70.824 Y60.642 E73.40383
G1 X58.033 Y47.851 E74.55674
G1 X59.307 Y47.852 E74.63794
G1 X70.824 Y59.369 E75.67602
G1 X70.825 Y58.097 E75.75709
G1 X60.579 Y47.852 E76.68056
G1 X61.853 Y47.852 E76.76176
G1 X70.825 Y56.825 E77.57049
G1 X70.825 Y55.552 E77.65163
G1 X63.126 Y47.852 E78.34562
G1 X64.399 Y47.853 E78.42675
G1 X70.826 Y54.28 E79.00605
G1 X70.826 Y53.007 E79.08718
G1 X65.672 Y47.853 E79.55173
G1 X66.228 Y47.853 E79.58717
G1 X66.61 Y47.878 E79.61157
G1 X66.901 Y47.914 E79.63026
G1 X67.03 Y47.939 E79.63863
G1 X70.732 Y51.64 E79.97227
G0 F7200 X70.706 Y51.488
G1 F1125 X70.646 Y51.248 E79.98803
G1 X70.554 Y50.956 E80.00755
G1 X70.457 Y50.705 E80.0247
G1 X70.318 Y50.404 E80.04583
G1 X70.194 Y50.176 E80.06237
G1 X70.026 Y49.908 E80.08253
G1 X69.868 Y49.686 E80.09989
G1 X69.676 Y49.451 E80.11924
G1 X69.467 Y49.225 E80.13885
G1 X69.266 Y49.035 E80.15648
G1 X69.042 Y48.847 E80.17512
G1 X68.797 Y48.668 E80.19446
G1 X68.552 Y48.511 E80.21301
G1 X68.3 Y48.373 E80.23132
G1 X68.02 Y48.239 E80.2511
G1 X67.773 Y48.141 E80.26804
G1 X67.487 Y48.047 E80.28723
G1 X67.191 Y47.969 E80.30674
G1 X67.03 Y47.939 E80.31717
G0 F600 X67.03 Y47.939 Z0.744
G0 F7200 X67.24 Y47.8
;TIME_ELAPSED:83.017238
;LAYER:-3
;TYPE:SUPPORT-INTERFACE
G1 F1500 X66.627 Y47.704 E80.33695
G1 X66.108 Y47.674 E80.35351
G1 X52.397 Y47.685 E80.79045
G1 X51.448 Y47.801 E80.82091
G1 X50.922 Y47.95 E80.83834
G1 X67.754 Y47.95 E81.37473
G0 F7200 X50.922 Y47.95
G1 F1500 X50.9 Y47.956 E81.37545
G1 X50.332 Y48.199 E81.39514
G1 X50.16 Y48.3 E81.4015
G1 X68.524 Y48.3 E81.98671
G1 X68.902 Y48.526 E82.00074
G1 X69.06 Y48.65 E82.00714
G1 X49.62 Y48.65 E82.62665
G1 X49.333 Y48.87 E82.63817
G1 X49.203 Y49 E82.64403
G1 X69.478 Y49 E83.29014
G1 X69.807 Y49.332 E83.30503
G1 X69.821 Y49.35 E83.30576
G1 X48.862 Y49.35 E83.97367
G1 X48.586 Y49.7 E83.98787
G1 X70.09 Y49.7 E84.67315
G1 X70.172 Y49.808 E84.67747
G1 X70.314 Y50.05 E84.68641
G1 X48.363 Y50.05 E85.38593
G1 X48.216 Y50.296 E85.39507
G1 X48.171 Y50.4 E85.39868
G1 X70.508 Y50.4 E86.1105
G1 X70.658 Y50.75 E86.12263
G1 X48.018 Y50.75 E86.84411
G1 X47.97 Y50.859 E86.84791
G1 X47.9 Y51.1 E86.8559
G1 X70.779 Y51.1 E87.585
G1 X70.876 Y51.443 E87.59636
G1 X70.877 Y51.45 E87.59658
G1 X47.799 Y51.45 E88.33202
G1 X47.745 Y51.8 E88.3433
G1 X70.92 Y51.8 E89.08183
G1 X70.962 Y52.15 E89.09306
G1 X47.699 Y52.15 E89.83439
G1 X47.679 Y52.5 E89.84556
G1 X70.993 Y52.5 E90.58852
G1 X70.993 Y52.85 E90.59967
G1 X47.675 Y52.85 E91.34276
G1 X47.675 Y53.2 E91.35391
G1 X70.994 Y53.2 E92.09702
G1 X70.995 Y53.55 E92.10818
G1 X47.675 Y53.55 E92.85133
G1 X47.675 Y53.9 E92.86248
G1 X70.995 Y53.9 E93.60563
G1 X70.996 Y54.25 E93.61678
G1 X47.676 Y54.25 E94.35993
G1 X47.676 Y54.6 E94.37108
G1 X70.997 Y54.6 E95.11426
G1 X70.997 Y54.95 E95.12541
G1 X47.676 Y54.95 E95.86859
G1 X47.676 Y55.3 E95.87975
G1 X70.998 Y55.3 E96.62296
G1 X70.998 Y55.65 E96.63411
G1 X47.677 Y55.65 E97.37729
G1 X47.677 Y56 E97.38844
G1 X70.999 Y56 E98.13165
G1 X71 Y56.35 E98.14281
G1 X47.677 Y56.35 E98.88605
G1 X47.678 Y56.7 E98.8972
G1 X71 Y56.7 E99.64041
G1 X71.001 Y57.05 E99.65157
G1 X47.678 Y57.05 E100.39481
G1 X47.678 Y57.4 E100.40596
G1 X71.002 Y57.4 E101.14924
G1 X71.002 Y57.75 E101.16039
G1 X47.678 Y57.75 E101.90367
G1 X47.679 Y58.1 E101.91482
G1 X71.003 Y58.1 E102.65809
G1 X71.003 Y58.382 E102.66708
G1 X71.002 Y58.45 E102.66925
G1 X47.679 Y58.45 E103.41249
G1 X47.679 Y58.8 E103.42364
G1 X71.002 Y58.8 E104.16689
G1 X71.002 Y59.15 E104.17804
G1 X47.679 Y59.15 E104.92128
G1 X47.679 Y59.5 E104.93244
G1 X71.002 Y59.5 E105.67568
G1 X71.002 Y59.85 E105.68683
G1 X47.679 Y59.85 E106.43007
G1 X47.679 Y60.2 E106.44123
G1 X71.002 Y60.2 E107.18447
G1 X71.002 Y60.55 E107.19562
G1 X47.679 Y60.55 E107.93887
G1 X47.68 Y60.9 E107.95002
G1 X71.002 Y60.9 E108.69323
G1 X71.002 Y61.25 E108.70439
G1 X47.68 Y61.25 E109.4476
G1 X47.68 Y61.6 E109.45875
G1 X71.002 Y61.6 E110.20196
G1 X71.002 Y61.95 E110.21311
G1 X47.68 Y61.95 E110.95632
G1 X47.681 Y62.3 E110.96748
G1 X71.002 Y62.3 E111.71066
G1 X71.002 Y62.65 E111.72181
G1 X47.681 Y62.65 E112.46499
G1 X47.681 Y63 E112.47614
G1 X71.002 Y63 E113.21932
G1 X71.002 Y63.35 E113.23048
G1 X47.681 Y63.35 E113.97365
G1 X47.682 Y63.7 E113.98481
G1 X71.002 Y63.7 E114.72795
G1 X71.002 Y64.05 E114.73911
G1 X47.682 Y64.05 E115.48226
G1 X47.682 Y64.4 E115.49341
G1 X71.002 Y64.4 E116.23656
G1 X71.002 Y64.75 E116.24771
G1 X47.682 Y64.75 E116.99086
G1 X47.683 Y65.1 E117.00201
G1 X71.002 Y65.1 E117.74513
G1 X71.002 Y65.431 E117.75567
G1 X71 Y65.45 E117.75628
G1 X47.683 Y65.45 E118.49933
G1 X47.683 Y65.8 E118.51049
G1 X70.981 Y65.8 E119.25293
G1 X70.974 Y65.94 E119.2574
G1 X70.936 Y66.15 E119.2642
G1 X47.683 Y66.15 E120.00521
G1 X47.684 Y66.28 E120.00936
G1 X47.71 Y66.5 E120.01642
G1 X70.873 Y66.5 E120.75456
G1 X70.822 Y66.783 E120.76372
G1 X70.802 Y66.85 E120.76595
G1 X47.753 Y66.85 E121.50046
G1 X47.795 Y67.2 E121.5117
G1 X70.701 Y67.2 E122.24165
G1 X70.674 Y67.296 E122.24483
G1 X70.572 Y67.55 E122.25355
G1 X47.89 Y67.55 E122.97637
G1 X47.954 Y67.773 E122.98376
G1 X48.007 Y67.9 E122.98814
G1 X70.433 Y67.9 E123.7028
G1 X70.419 Y67.937 E123.70406
G1 X70.245 Y68.25 E123.71547
G1 X48.156 Y68.25 E124.41939
G1 X48.191 Y68.332 E124.42223
G1 X48.346 Y68.6 E124.4321
G1 X70.032 Y68.6 E125.12318
G1 X69.827 Y68.893 E125.13457
G1 X69.778 Y68.95 E125.13697
G1 X48.567 Y68.95 E125.81291
G1 X48.835 Y69.3 E125.82695
G1 X69.477 Y69.3 E126.48476
G1 X69.467 Y69.312 E126.48526
G1 X69.108 Y69.65 E126.50097
G1 X49.171 Y69.65 E127.13631
G1 X49.292 Y69.772 E127.14179
G1 X49.582 Y70 E127.15354
G1 X68.654 Y70 E127.76132
G1 X68.519 Y70.098 E127.76663
G1 X68.058 Y70.35 E127.78337
G1 X50.111 Y70.35 E128.3553
G1 X50.305 Y70.465 E128.36249
G1 X50.842 Y70.7 E128.38116
G1 X67.154 Y70.7 E128.90099
G1 X66.619 Y70.864 E128.91882
G1 X65.99 Y70.972 E128.93916
G1 X65.473 Y71.003 E128.95566
G1 X52.568 Y71.002 E129.36691
G1 X52.049 Y70.972 E129.38348
G1 X51.428 Y70.874 E129.40351
G1 X50.863 Y70.709 E129.42227
G0 F600 X50.863 Y70.709 Z1.27
G0 F7200 X57.731 Y62.277
;TIME_ELAPSED:146.280567
;LAYER:0
M106 S255
;TYPE:WALL-INNER
;MESH:prueba_tapa_tornillo.stl
G1 F1800 X57.968 Y63.012 E129.45182
G1 X58.305 Y63.64 E129.4791
G1 X58.693 Y64.129 E129.50299
G1 X59.273 Y64.634 E129.53242
G1 X59.845 Y64.958 E129.55758
G1 X59.945 Y65.014 E129.56196
G1 X60.471 Y65.208 E129.58342
G1 X61.029 Y65.303 E129.60508
G1 X60.471 Y65.303 E129.60791
G1 X59.945 Y65.303 E129.61881
G1 X59.83 Y65.303 E129.62284
G1 X53.375 Y65.302 E129.86987
G1 X53.375 Y53.375 E130.32632
G1 X65.302 Y53.375 E130.78276
G1 X65.303 Y58.384 E130.97446
G1 X65.299 Y59.823 E131.02953
G1 X65.298 Y60.197 E131.04384
G1 X65.295 Y60.886 E131.07021
G1 X65.118 Y60.197 E131.07769
G1 X64.958 Y59.859 E131.08861
G1 X64.786 Y59.499 E131.10388
G1 X64.315 Y58.878 E131.1337
G1 X63.727 Y58.366 E131.16354
G1 X63.055 Y57.986 E131.19309
G1 X62.529 Y57.792 E131.21454
G1 X61.768 Y57.663 E131.24408
G1 X61 Y57.692 E131.27349
G1 X60.304 Y57.846 E131.30077
G1 X59.726 Y58.087 E131.32474
G1 X59.085 Y58.511 E131.35415
G1 X58.537 Y59.054 E131.38367
G1 X58.208 Y59.508 E131.40513
G1 X57.879 Y60.205 E131.43463
G1 X57.704 Y60.938 E131.46347
G1 X57.653 Y61.505 E131.48525
G1 X57.662 Y61.586 E131.48837
G0 F1620 X57.731 Y62.277
G0 F4320 X59.028 Y63.809
G0 X60.139 Y64.594
G0 X61.263 Y64.875
G0 X63.915 Y64.489
G1 F1800 X64.463 Y63.946 E131.5179
G1 X64.792 Y63.492 E131.53935
G1 X64.958 Y63.141 E131.55421
G1 X65.118 Y62.801 E131.56859
G1 X65.297 Y62.105 E131.5961
G1 X65.298 Y62.8 E131.60277
G1 X65.298 Y63.177 E131.61378
G1 X65.302 Y65.128 E131.68845
G1 X65.302 Y65.303 E131.69514
G1 X65.127 Y65.303 E131.69948
G1 X63.198 Y65.303 E131.7733
G1 X62.696 Y65.303 E131.79251
G1 X62.024 Y65.303 E131.81823
G1 X62.696 Y65.154 E131.8242
G1 X63.159 Y64.961 E131.83798
G1 X63.274 Y64.913 E131.84275
G1 X63.869 Y64.519 E131.87006
G0 F1620 X63.915 Y64.489
G0 F4320 X63.224 Y65.125
G0 X65.652 Y65.422
G1 F1800 X65.603 Y65.588 E131.87669
G1 X65.415 Y65.653 E131.8843
G1 X53.025 Y65.652 E132.35846
G1 X53.025 Y53.025 E132.8417
G1 X65.652 Y53.025 E133.32493
G1 X65.653 Y58.384 E133.53002
G1 X65.652 Y64.728 E133.77281
G0 F1620 X65.652 Y65.422
G0 F4320 X61.263 Y64.875
G0 X60.139 Y64.594
G0 X59.028 Y63.809
G0 X58.076 Y62.205
G1 F1800 X58.291 Y62.874 E133.7997
G1 X58.599 Y63.447 E133.82459
G1 X58.947 Y63.886 E133.84603
G1 X59.476 Y64.347 E133.87289
G1 X60.092 Y64.695 E133.89996
G1 X60.562 Y64.868 E133.91913
G1 X61.255 Y64.986 E133.94603
G1 X61.955 Y64.959 E133.97284
G1 X62.59 Y64.819 E133.99773
G1 X63.109 Y64.603 E134.01924
G1 X63.693 Y64.216 E134.04605
G1 X64.196 Y63.718 E134.07314
G1 X64.489 Y63.313 E134.09227
G1 X64.787 Y62.682 E134.11897
G1 X64.95 Y62.049 E134.14399
G1 X64.993 Y61.441 E134.16732
