;FLAVOR:Marlin
;TIME:3476
;Filament used: 1.64627m
;Layer height: 0.13125
;MINX:34.335
;MINY:41.425
;MINZ:0.263
;MAXX:85.665
;MAXY:78.846
;MAXZ:4.324
;Generated with Cura_SteamEngine 4.6.2
M140 S55
M105
M190 S55
M104 S195
M105
M109 S195
M82 ;absolute extrusion mode
G21;(metric values)
G90;(absolute positioning)
M82;(set extruder to absolute mode)
M107;(start with the fan off)
G28;(Home the printer)
G92 E0;(Reset the extruder to 0)
G0 Z5 E5 F500;(Move up and prime the nozzle)
G0 X-1 Z0;(Move outside the printable area)
G1 Y60 E8 F500;(Draw a priming/wiping line to the rear)
G1 X-1;(Move a little closer to the print area)
G1 Y10 E16 F500;(draw more priming/wiping)
G1 E15 F250;(Small retract)
G92 E0;(Zero the extruder)
G92 E0
G92 E0
G1 F2400 E-2.5
;LAYER_COUNT:32
;LAYER:0
M107
;MESH:virtual_wall-Tapa.stl
G0 F4320 X84.038 Y42.977 Z0.263
;TYPE:WALL-INNER
G1 F2400 E0
G1 F1800 X84.118 Y43.186 E0.00856
G1 X84.125 Y76.806 E1.2952
G1 X84.05 Y77.011 E1.30355
G1 X83.81 Y77.19 E1.31501
G1 X83.256 Y77.302 E1.33664
G1 X82.15 Y77.307 E1.37897
G1 X36.762 Y77.307 E3.11597
G1 X36.214 Y77.2 E3.13733
G1 X35.962 Y77.023 E3.14912
G1 X35.882 Y76.814 E3.15768
G1 X35.875 Y43.194 E4.44432
G1 X35.95 Y42.989 E4.45267
G1 X36.19 Y42.81 E4.46413
G1 X36.746 Y42.698 E4.48584
G1 X37.258 Y42.693 E4.50543
G1 X83.238 Y42.693 E6.26508
G1 X83.406 Y42.726 E6.27164
G0 F1620 X83.786 Y42.8
G0 X84.038 Y42.977
G0 F4320 X84.327 Y42.753
G1 F1800 X84.468 Y43.12 E6.28668
G1 X84.475 Y76.869 E7.57825
G1 X84.343 Y77.229 E7.59293
G1 X83.957 Y77.517 E7.61136
G1 X83.292 Y77.652 E7.63733
G1 X82.152 Y77.657 E7.68096
G1 X36.726 Y77.657 E9.41941
G1 X36.074 Y77.53 E9.44483
G1 X35.673 Y77.247 E9.46361
G1 X35.532 Y76.88 E9.47866
G1 X35.525 Y43.131 E10.77023
G1 X35.657 Y42.771 E10.7849
G1 X36.043 Y42.483 E10.80333
G1 X36.709 Y42.348 E10.82934
G1 X37.255 Y42.343 E10.85024
G1 X83.274 Y42.343 E12.61138
G1 X83.726 Y42.431 E12.629
G0 F1620 X83.926 Y42.47
G0 X84.327 Y42.753
G0 F4320 X84.595 Y42.545
;TYPE:WALL-OUTER
G1 F1800 X84.793 Y43.06 E12.65012
G1 X84.8 Y76.926 E13.94617
G1 X84.615 Y77.432 E13.96679
G1 X84.094 Y77.82 E13.99165
G1 X83.323 Y77.977 E14.02176
G1 X82.153 Y77.982 E14.06653
G1 X36.695 Y77.982 E15.80621
G1 X35.943 Y77.836 E15.83553
G1 X35.405 Y77.455 E15.86076
G1 X35.207 Y76.94 E15.88187
G1 X35.2 Y43.074 E17.17792
G1 X35.385 Y42.568 E17.19854
G1 X35.906 Y42.18 E17.2234
G1 X36.677 Y42.023 E17.25351
G1 X37.252 Y42.018 E17.27552
G1 X83.305 Y42.018 E19.03796
G1 X84.023 Y42.158 E19.06596
G0 F1620 X84.057 Y42.164
G0 X84.595 Y42.545
G0 F4320 X84.666 Y42.731
G0 X84.41 Y42.828
G0 X83.758 Y43.196
;TYPE:SKIN
G1 F1800 X83.778 Y43.248 E19.06809
G1 X83.785 Y76.746 E20.35006
G1 X83.766 Y76.799 E20.35221
G1 X83.669 Y76.871 E20.35683
G1 X83.218 Y76.962 E20.37444
G1 X82.148 Y76.967 E20.41539
G1 X36.798 Y76.967 E22.15093
G1 X36.35 Y76.88 E22.1684
G1 X36.242 Y76.804 E22.17345
G1 X36.222 Y76.752 E22.17558
G1 X36.215 Y43.254 E23.45755
G1 X36.234 Y43.202 E23.45967
G1 X36.33 Y43.13 E23.46426
G1 X36.786 Y43.038 E23.48207
G1 X37.262 Y43.033 E23.50028
G1 X83.096 Y43.033 E25.25435
G0 F1620 X83.202 Y43.033
G0 X83.65 Y43.12
G0 X83.758 Y43.196
G0 F4320 X83.621 Y43.528
G1 F1800 X83.307 Y43.214 E25.27134
G0 F4320 X82.788 Y43.19
G1 F1800 X83.621 Y44.023 E25.31642
G0 F4320 X83.621 Y44.518
G1 F1800 X82.293 Y43.19 E25.3883
G0 F4320 X81.798 Y43.19
G1 F1800 X83.621 Y45.013 E25.48696
G0 F4320 X83.621 Y45.507
G1 F1800 X81.303 Y43.19 E25.61239
G0 F4320 X80.808 Y43.19
G1 F1800 X83.621 Y46.002 E25.76461
G0 F4320 X83.621 Y46.497
G1 F1800 X80.313 Y43.19 E25.94362
G0 F4320 X79.818 Y43.19
G1 F1800 X83.621 Y46.993 E26.14944
G0 F4320 X83.621 Y47.488
G1 F1800 X79.323 Y43.19 E26.38206
G0 F4320 X78.828 Y43.19
G1 F1800 X83.621 Y47.983 E26.64146
G0 F4320 X83.621 Y48.478
G1 F1800 X78.333 Y43.19 E26.92766
G0 F4320 X77.838 Y43.19
G1 F1800 X83.621 Y48.973 E27.24065
G0 F4320 X83.621 Y49.468
G1 F1800 X77.343 Y43.19 E27.58042
G0 F4320 X76.848 Y43.19
G1 F1800 X83.621 Y49.963 E27.94699
G0 F4320 X83.622 Y50.459
G1 F1800 X76.353 Y43.19 E28.3404
G0 F4320 X75.858 Y43.19
G1 F1800 X83.622 Y50.954 E28.76061
G0 F4320 X83.622 Y51.449
G1 F1800 X75.363 Y43.19 E29.2076
G0 F4320 X74.868 Y43.19
G1 F1800 X83.622 Y51.944 E29.68138
G0 F4320 X83.622 Y52.439
G1 F1800 X74.373 Y43.19 E30.18195
G0 F4320 X73.878 Y43.19
G1 F1800 X83.622 Y52.934 E30.70932
G0 F4320 X83.623 Y53.429
G1 F1800 X73.383 Y43.19 E31.2635
G0 F4320 X72.888 Y43.19
G1 F1800 X83.623 Y53.924 E31.84447
G0 F4320 X83.623 Y54.419
G1 F1800 X72.393 Y43.19 E32.45223
G0 F4320 X71.898 Y43.19
G1 F1800 X83.623 Y54.914 E33.08678
G0 F4320 X83.623 Y55.409
G1 F1800 X71.403 Y43.19 E33.74813
G0 F4320 X70.908 Y43.19
G1 F1800 X83.623 Y55.904 E34.43626
G0 F4320 X83.623 Y56.399
G1 F1800 X70.413 Y43.19 E35.15118
G0 F4320 X69.918 Y43.19
G1 F1800 X83.623 Y56.895 E35.89292
G0 F4320 X83.623 Y57.39
G1 F1800 X69.423 Y43.19 E36.66145
G0 F4320 X68.928 Y43.19
G1 F1800 X83.623 Y57.885 E37.45677
G0 F4320 X83.623 Y58.38
G1 F1800 X68.433 Y43.19 E38.27888
G0 F4320 X67.938 Y43.19
G1 F1800 X83.623 Y58.875 E39.12779
G0 F4320 X83.623 Y59.37
G1 F1800 X67.443 Y43.19 E40.00348
G0 F4320 X66.948 Y43.19
G1 F1800 X83.623 Y59.865 E40.90596
G0 F4320 X83.624 Y60.36
G1 F1800 X66.453 Y43.19 E41.83526
G0 F4320 X65.958 Y43.19
G1 F1800 X83.624 Y60.855 E42.79135
G0 F4320 X83.624 Y61.35
G1 F1800 X65.463 Y43.19 E43.77423
G0 F4320 X64.968 Y43.19
G1 F1800 X83.624 Y61.845 E44.7839
G0 F4320 X83.624 Y62.34
G1 F1800 X64.473 Y43.19 E45.82036
G0 F4320 X63.979 Y43.19
G1 F1800 X83.624 Y62.835 E46.88359
G0 F4320 X83.624 Y63.33
G1 F1800 X63.484 Y43.19 E47.9736
G0 F4320 X62.989 Y43.19
G1 F1800 X83.625 Y63.826 E49.09046
G0 F4320 X83.625 Y64.321
G1 F1800 X62.494 Y43.19 E50.23411
G0 F4320 X61.999 Y43.19
G1 F1800 X83.625 Y64.816 E51.40455
G0 F4320 X83.625 Y65.311
G1 F1800 X61.504 Y43.19 E52.60178
G0 F4320 X61.009 Y43.19
G1 F1800 X83.625 Y65.806 E53.8258
G0 F4320 X83.625 Y66.301
G1 F1800 X60.514 Y43.19 E55.07661
G0 F4320 X60.019 Y43.19
G1 F1800 X83.625 Y66.796 E56.35421
G0 F4320 X83.625 Y67.291
G1 F1800 X59.524 Y43.19 E57.6586
G0 F4320 X59.029 Y43.19
G1 F1800 X83.625 Y67.786 E58.98978
G0 F4320 X83.625 Y68.281
G1 F1800 X58.534 Y43.19 E60.34775
G0 F4320 X58.039 Y43.19
G1 F1800 X83.625 Y68.776 E61.73252
G0 F4320 X83.625 Y69.271
G1 F1800 X57.544 Y43.19 E63.14407
G0 F4320 X57.049 Y43.19
G1 F1800 X83.625 Y69.766 E64.58241
G0 F4320 X83.626 Y70.262
G1 F1800 X56.554 Y43.19 E66.0476
G0 F4320 X56.059 Y43.19
G1 F1800 X83.626 Y70.757 E67.53958
G0 F4320 X83.626 Y71.252
G1 F1800 X55.564 Y43.19 E69.05834
G0 F4320 X55.069 Y43.19
G1 F1800 X83.626 Y71.747 E70.6039
G0 F4320 X83.626 Y72.242
G1 F1800 X54.574 Y43.19 E72.17625
G0 F4320 X54.079 Y43.19
G1 F1800 X83.626 Y72.737 E73.77539
G0 F4320 X83.626 Y73.232
G1 F1800 X53.584 Y43.19 E75.40132
G0 F4320 X53.089 Y43.19
G1 F1800 X83.627 Y73.727 E77.05407
G0 F4320 X83.627 Y74.222
G1 F1800 X52.594 Y43.19 E78.7336
G0 F4320 X52.099 Y43.19
G1 F1800 X83.627 Y74.717 E80.43993
G0 F4320 X83.627 Y75.212
G1 F1800 X51.604 Y43.19 E82.17305
G0 F4320 X51.109 Y43.19
G1 F1800 X83.627 Y75.707 E83.93296
G0 F4320 X83.627 Y76.202
G1 F1800 X50.614 Y43.19 E85.71965
G0 F4320 X50.119 Y43.19
G1 F1800 X83.627 Y76.697 E87.53314
G0 F4320 X83.232 Y76.797
G1 F1800 X49.624 Y43.19 E89.35204
G0 F4320 X49.129 Y43.19
G1 F1800 X82.746 Y76.806 E91.17143
G0 F4320 X82.254 Y76.809
G1 F1800 X48.634 Y43.19 E92.99098
G0 F4320 X48.139 Y43.19
G1 F1800 X81.759 Y76.809 E94.81053
G0 F4320 X81.264 Y76.809
G1 F1800 X47.644 Y43.19 E96.63008
G0 F4320 X47.149 Y43.19
G1 F1800 X80.769 Y76.809 E98.44963
G0 F4320 X80.274 Y76.809
G1 F1800 X46.654 Y43.19 E100.26918
G0 F4320 X46.159 Y43.19
G1 F1800 X79.779 Y76.809 E102.08873
G0 F4320 X79.284 Y76.809
G1 F1800 X45.664 Y43.19 E103.90828
G0 F4320 X45.169 Y43.19
G1 F1800 X78.789 Y76.809 E105.72783
G0 F4320 X78.294 Y76.809
G1 F1800 X44.675 Y43.19 E107.54736
G0 F4320 X44.18 Y43.19
G1 F1800 X77.799 Y76.809 E109.36688
G0 F4320 X77.304 Y76.809
G1 F1800 X43.685 Y43.19 E111.1864
G0 F4320 X43.19 Y43.19
G1 F1800 X76.809 Y76.809 E113.00593
G0 F4320 X76.314 Y76.809
G1 F1800 X42.695 Y43.19 E114.82545
G0 F4320 X42.2 Y43.19
G1 F1800 X75.819 Y76.809 E116.64497
G0 F4320 X75.324 Y76.809
G1 F1800 X41.705 Y43.19 E118.4645
G0 F4320 X41.21 Y43.19
G1 F1800 X74.829 Y76.809 E120.28402
G0 F4320 X74.334 Y76.809
G1 F1800 X40.715 Y43.19 E122.10354
G0 F4320 X40.22 Y43.19
G1 F1800 X73.839 Y76.809 E123.92307
G0 F4320 X73.344 Y76.809
G1 F1800 X39.725 Y43.19 E125.74259
G0 F4320 X39.23 Y43.19
G1 F1800 X72.849 Y76.809 E127.56211
G0 F4320 X72.354 Y76.809
G1 F1800 X38.735 Y43.19 E129.38164
G0 F4320 X38.24 Y43.19
G1 F1800 X71.859 Y76.809 E131.20116
G0 F4320 X71.364 Y76.809
G1 F1800 X37.745 Y43.19 E133.02068
G0 F4320 X37.25 Y43.19
G1 F1800 X70.869 Y76.809 E134.84021
G0 F4320 X70.374 Y76.809
G1 F1800 X36.767 Y43.202 E136.65908
G0 F4320 X36.371 Y43.301
G1 F1800 X69.879 Y76.809 E138.4726
G0 F4320 X69.384 Y76.809
G1 F1800 X36.371 Y43.796 E140.25932
G0 F4320 X36.371 Y44.291
G1 F1800 X68.889 Y76.809 E142.01926
G0 F4320 X68.394 Y76.809
G1 F1800 X36.371 Y44.786 E143.7524
G0 F4320 X36.371 Y45.28
G1 F1800 X67.899 Y76.809 E145.45878
G0 F4320 X67.404 Y76.809
G1 F1800 X36.371 Y45.775 E147.13837
G0 F4320 X36.371 Y46.27
G1 F1800 X66.909 Y76.809 E148.79117
G0 F4320 X66.415 Y76.809
G1 F1800 X36.372 Y46.766 E150.41716
G0 F4320 X36.372 Y47.261
G1 F1800 X65.92 Y76.809 E152.01635
G0 F4320 X65.425 Y76.809
G1 F1800 X36.372 Y47.756 E153.58875
G0 F4320 X36.372 Y48.251
G1 F1800 X64.93 Y76.809 E155.13437
G0 F4320 X64.435 Y76.809
G1 F1800 X36.372 Y48.746 E156.65319
G0 F4320 X36.372 Y49.241
G1 F1800 X63.94 Y76.809 E158.14522
G0 F4320 X63.445 Y76.809
G1 F1800 X36.372 Y49.737 E159.61043
G0 F4320 X36.372 Y50.232
G1 F1800 X62.95 Y76.809 E161.04886
G0 F4320 X62.455 Y76.809
G1 F1800 X36.372 Y50.727 E162.46049
G0 F4320 X36.372 Y51.222
G1 F1800 X61.96 Y76.809 E163.84533
G0 F4320 X61.465 Y76.809
G1 F1800 X36.372 Y51.717 E165.20339
G0 F4320 X36.372 Y52.212
G1 F1800 X60.97 Y76.809 E166.53465
G0 F4320 X60.475 Y76.809
G1 F1800 X36.373 Y52.707 E167.8391
G0 F4320 X36.373 Y53.202
G1 F1800 X59.98 Y76.809 E169.11675
G0 F4320 X59.485 Y76.809
G1 F1800 X36.373 Y53.697 E170.36762
G0 F4320 X36.373 Y54.192
G1 F1800 X58.99 Y76.809 E171.59169
G0 F4320 X58.495 Y76.809
G1 F1800 X36.373 Y54.687 E172.78897
G0 F4320 X36.373 Y55.182
G1 F1800 X58 Y76.809 E173.95947
G0 F4320 X57.505 Y76.809
G1 F1800 X36.374 Y55.678 E175.10312
G0 F4320 X36.374 Y56.173
G1 F1800 X57.01 Y76.809 E176.21998
G0 F4320 X56.515 Y76.809
G1 F1800 X36.374 Y56.668 E177.31004
G0 F4320 X36.374 Y57.163
G1 F1800 X56.02 Y76.809 E178.37332
G0 F4320 X55.525 Y76.809
G1 F1800 X36.374 Y57.658 E179.40981
G0 F4320 X36.374 Y58.153
G1 F1800 X55.03 Y76.809 E180.41951
G0 F4320 X54.535 Y76.809
G1 F1800 X36.374 Y58.648 E181.40242
G0 F4320 X36.374 Y59.143
G1 F1800 X54.04 Y76.809 E182.35853
G0 F4320 X53.545 Y76.809
G1 F1800 X36.374 Y59.638 E183.28786
G0 F4320 X36.374 Y60.133
G1 F1800 X53.05 Y76.809 E184.1904
G0 F4320 X52.555 Y76.809
G1 F1800 X36.374 Y60.628 E185.06614
G0 F4320 X36.374 Y61.123
G1 F1800 X52.06 Y76.809 E185.9151
G0 F4320 X51.565 Y76.809
G1 F1800 X36.375 Y61.619 E186.73721
G0 F4320 X36.375 Y62.114
G1 F1800 X51.07 Y76.809 E187.53253
G0 F4320 X50.575 Y76.809
G1 F1800 X36.375 Y62.609 E188.30106
G0 F4320 X36.375 Y63.104
G1 F1800 X50.08 Y76.809 E189.0428
G0 F4320 X49.585 Y76.809
G1 F1800 X36.375 Y63.599 E189.75775
G0 F4320 X36.375 Y64.094
G1 F1800 X49.09 Y76.809 E190.44591
G0 F4320 X48.595 Y76.809
G1 F1800 X36.376 Y64.589 E191.10725
G0 F4320 X36.376 Y65.084
G1 F1800 X48.1 Y76.809 E191.7418
G0 F4320 X47.605 Y76.809
G1 F1800 X36.376 Y65.579 E192.34957
G0 F4320 X36.376 Y66.074
G1 F1800 X47.11 Y76.809 E192.93054
G0 F4320 X46.616 Y76.809
G1 F1800 X36.376 Y66.569 E193.48475
G0 F4320 X36.376 Y67.064
G1 F1800 X46.121 Y76.809 E194.01216
G0 F4320 X45.626 Y76.809
G1 F1800 X36.376 Y67.559 E194.51279
G0 F4320 X36.377 Y68.055
G1 F1800 X45.131 Y76.809 E194.98657
G0 F4320 X44.636 Y76.809
G1 F1800 X36.377 Y68.55 E195.43357
G0 F4320 X36.377 Y69.045
G1 F1800 X44.141 Y76.809 E195.85377
G0 F4320 X43.646 Y76.809
G1 F1800 X36.377 Y69.54 E196.24718
G0 F4320 X36.377 Y70.035
G1 F1800 X43.151 Y76.809 E196.6138
G0 F4320 X42.656 Y76.809
G1 F1800 X36.377 Y70.53 E196.95363
G0 F4320 X36.377 Y71.026
G1 F1800 X42.161 Y76.809 E197.26665
G0 F4320 X41.666 Y76.809
G1 F1800 X36.377 Y71.521 E197.55287
G0 F4320 X36.377 Y72.015
G1 F1800 X41.171 Y76.809 E197.81233
G0 F4320 X40.676 Y76.809
M104 S190
G1 F1800 X36.377 Y72.51 E198.045
G0 F4320 X36.377 Y73.005
G1 F1800 X40.181 Y76.809 E198.25088
G0 F4320 X39.686 Y76.809
G1 F1800 X36.377 Y73.5 E198.42997
G0 F4320 X36.378 Y73.996
G1 F1800 X39.191 Y76.809 E198.58221
G0 F4320 X38.696 Y76.809
G1 F1800 X36.378 Y74.491 E198.70767
G0 F4320 X36.378 Y74.986
G1 F1800 X38.201 Y76.809 E198.80633
G0 F4320 X37.706 Y76.809
G1 F1800 X36.378 Y75.481 E198.87821
G0 F4320 X36.378 Y75.976
G1 F1800 X37.211 Y76.809 E198.92329
G0 F4320 X36.692 Y76.785
G1 F1800 X36.378 Y76.471 E198.94028
G0 F4320 X35.732 Y76.472
;MESH:NONMESH
G0 F600 X35.732 Y76.472 Z0.394
G0 F4320 X36.021 Y43.222
G0 X36.76 Y42.844
G0 X83.221 Y42.839
G0 X84.047 Y42.982
;TIME_ELAPSED:208.189751
;LAYER:1
M140 S50
M106 S255
;TYPE:WALL-INNER
;MESH:virtual_wall-Tapa.stl
G1 F2400 X84.125 Y43.193 E198.94457
G1 X84.125 Y76.805 E199.58529
G1 X84.046 Y77.019 E199.58964
G1 X83.802 Y77.198 E199.59541
G1 X83.334 Y77.287 E199.60449
G1 X80.533 Y77.307 E199.65788
G1 X36.762 Y77.307 E200.49226
G1 X36.199 Y77.198 E200.50319
G1 X35.953 Y77.018 E200.509
G1 X35.875 Y76.807 E200.51329
G1 X35.875 Y43.195 E201.15401
G1 X35.954 Y42.981 E201.15835
G1 X36.198 Y42.802 E201.16412
G1 X36.666 Y42.713 E201.1732
G1 X39.305 Y42.693 E201.22351
G1 X82.722 Y42.693 E202.05113
G0 F2160 X83.239 Y42.693
G0 X83.799 Y42.801
G0 X84.047 Y42.982
G0 F5760 X84.338 Y42.761
G1 F2400 X84.475 Y43.132 E202.05867
G1 X84.475 Y76.869 E202.70178
G1 X84.339 Y77.239 E202.70929
G1 X83.944 Y77.527 E202.71861
G1 X83.37 Y77.637 E202.72975
G1 X80.535 Y77.657 E202.78379
G1 X36.726 Y77.657 E203.61889
G1 X36.057 Y77.527 E203.63188
G1 X35.662 Y77.239 E203.6412
G1 X35.525 Y76.868 E203.64874
G1 X35.525 Y43.131 E204.29184
G1 X35.661 Y42.761 E204.29935
G1 X36.056 Y42.473 E204.30867
G1 X36.63 Y42.363 E204.31981
G1 X39.302 Y42.343 E204.37075
G1 X83.05 Y42.343 E205.20468
G0 F2160 X83.274 Y42.343
G0 X83.942 Y42.472
G0 X84.338 Y42.761
G0 F5760 X84.076 Y42.168
;TYPE:WALL-OUTER
G1 F2025 X84.586 Y42.539 E205.2167
G1 X84.609 Y42.556 E205.21725
G1 X84.8 Y43.074 E205.22777
G1 X84.8 Y76.926 E205.87307
G1 X84.61 Y77.444 E205.88358
G1 X84.077 Y77.832 E205.89615
G1 X83.401 Y77.962 E205.90927
G1 X80.537 Y77.982 E205.96387
G1 X36.695 Y77.982 E206.79959
G1 X35.924 Y77.832 E206.81457
G1 X35.391 Y77.444 E206.82713
G1 X35.2 Y76.926 E206.83766
G1 X35.2 Y43.074 E207.48295
G1 X35.39 Y42.556 E207.49347
G1 X35.923 Y42.168 E207.50604
G1 X36.599 Y42.038 E207.51916
G1 X39.3 Y42.018 E207.57065
G1 X82.696 Y42.018 E208.39787
G0 F1822.5 X83.305 Y42.018
G0 X84.023 Y42.157
G0 X84.076 Y42.168
G0 F5760 X84.237 Y42.285
G0 X84.075 Y42.506
G0 X83.661 Y43.121
;TYPE:SKIN
G1 F1500 X83.763 Y43.196 E208.40028
G1 X83.785 Y43.254 E208.40147
G1 X83.785 Y76.744 E209.03986
G1 X83.762 Y76.806 E209.04112
G1 X83.663 Y76.878 E209.04346
G1 X83.3 Y76.947 E209.0505
G1 X80.531 Y76.967 E209.10328
G1 X36.796 Y76.967 E209.93697
G1 X36.338 Y76.878 E209.94586
G1 X36.236 Y76.804 E209.94827
G1 X36.215 Y76.746 E209.94944
G1 X36.215 Y43.256 E210.58783
G1 X36.238 Y43.194 E210.5891
G1 X36.337 Y43.122 E210.59143
G1 X36.7 Y43.053 E210.59847
G1 X39.307 Y43.033 E210.64817
G1 X82.275 Y43.033 E211.46723
G0 F1350 X83.207 Y43.033
G0 X83.661 Y43.121
G0 F5760 X83.709 Y42.871
G0 X84.04 Y76.25
G0 X83.626 Y76.25
G1 F1500 X83.084 Y76.792 E211.48185
G0 F5760 X82.585 Y76.796
G1 F1500 X83.626 Y75.755 E211.50991
G0 F5760 X83.626 Y75.26
G1 F1500 X82.087 Y76.799 E211.5514
G0 F5760 X81.588 Y76.803
G1 F1500 X83.626 Y74.765 E211.60634
G0 F5760 X83.626 Y74.27
G1 F1500 X81.09 Y76.806 E211.6747
G0 F5760 X80.591 Y76.81
G1 F1500 X83.626 Y73.775 E211.75652
G0 F5760 X83.626 Y73.28
G1 F1500 X80.096 Y76.81 E211.85168
G0 F5760 X79.601 Y76.81
G1 F1500 X83.626 Y72.785 E211.96019
G0 F5760 X83.626 Y72.29
